Pre-made_Targets/Patch Width 12-15mm - Intermediate (Easy with ruler)/Designed Targets/CM-Interm-Letter-2060p-5pages-w12.5mm-20x21-Short-ReadPortrait_Modified-Atkinson1728-randomized/Mod_Atkinson2060.ti2
CTI2   

DESCRIPTOR "Argyll Calibration Target chart information 2"
ORIGINATOR "Argyll printtarg"
CREATED "Sat Feb 14 03:00:57 2026"
TARGET_INSTRUMENT "X-Rite ColorMunki"
APPROX_WHITE_POINT "95.106486 100.000000 108.844025"
COLOR_REP "iRGB"
PAPER_SIZE "279.4x215.9"
RANDOM_START "957"
STEPS_IN_PASS "21"
PASSES_IN_STRIPS2 "20,20,20,20,19"
STRIP_INDEX_PATTERN "A-Z, A-Z"
PATCH_INDEX_PATTERN "0-9,@-9,@-9;1-999"
INDEX_ORDER "STRIP_THEN_PATCH"

NUMBER_OF_FIELDS 8
BEGIN_DATA_FORMAT
SAMPLE_ID SAMPLE_LOC RGB_R RGB_G RGB_B XYZ_X XYZ_Y XYZ_Z 
END_DATA_FORMAT

NUMBER_OF_SETS 2079
BEGIN_DATA
1 "I7" 100.0000 100.0000 100.0000 0.950470 1.000000 1.088830 
2 "AE9" 100.0000 100.0000 90.98039 0.915637 0.986067 0.905376 
3 "AN19" 100.0000 100.0000 81.96078 0.885079 0.973844 0.744437 
4 "AR20" 100.0000 100.0000 72.54902 0.857572 0.962841 0.599566 
5 "CO10" 100.0000 100.0000 63.52941 0.835226 0.953902 0.481877 
6 "BB15" 100.0000 100.0000 54.50980 0.816618 0.946459 0.383878 
7 "AO8" 100.0000 100.0000 45.49020 0.801545 0.940430 0.304494 
8 "L19" 100.0000 100.0000 36.47059 0.789783 0.935725 0.242548 
9 "BI21" 100.0000 100.0000 27.45098 0.781084 0.932246 0.196728 
10 "AX7" 100.0000 100.0000 18.03922 0.774962 0.929797 0.164489 
11 "AK21" 100.0000 100.0000 9.019608 0.771579 0.928444 0.146668 
12 "X18" 100.0000 100.0000 0.00000 0.770033 0.927825 0.138526 
13 "AF7" 72.54902 100.0000 100.0000 0.738117 0.890505 1.078880 
14 "Z16" 72.54902 100.0000 90.98039 0.703284 0.876572 0.895422 
15 "W1" 72.54902 100.0000 81.96078 0.672726 0.864349 0.734483 
16 "AA1" 72.54902 100.0000 72.54902 0.645219 0.853346 0.589612 
17 "E14" 72.54902 100.0000 63.52941 0.622873 0.844408 0.471923 
18 "J20" 72.54902 100.0000 54.50980 0.604265 0.836965 0.373924 
19 "AO7" 72.54902 100.0000 45.49020 0.589192 0.830936 0.294540 
20 "AQ6" 72.54902 100.0000 36.47059 0.577430 0.826231 0.232594 
21 "AM9" 72.54902 100.0000 27.45098 0.568730 0.822751 0.186774 
22 "AQ4" 72.54902 100.0000 18.03922 0.562609 0.820302 0.154535 
23 "J19" 72.54902 100.0000 9.019608 0.559225 0.818949 0.136714 
24 "B18" 72.54902 100.0000 0.00000 0.557679 0.818330 0.128572 
25 "S21" 45.49020 100.0000 100.0000 0.610048 0.824470 1.072870 
26 "BJ7" 45.49020 100.0000 90.98039 0.575215 0.810537 0.889419 
27 "CE3" 45.49020 100.0000 81.96078 0.544657 0.798314 0.728479 
28 "BF1" 45.49020 100.0000 72.54902 0.517150 0.787311 0.583609 
29 "BS7" 45.49020 100.0000 63.52941 0.494804 0.778372 0.465920 
30 "AW12" 45.49020 100.0000 54.50980 0.476196 0.770929 0.367921 
31 "K18" 45.49020 100.0000 45.49020 0.461123 0.764900 0.288537 
32 "AF13" 45.49020 100.0000 36.47059 0.449362 0.760195 0.226591 
33 "BL20" 45.49020 100.0000 27.45098 0.440662 0.756715 0.180771 
34 "AF3" 45.49020 100.0000 18.03922 0.434540 0.754267 0.148532 
35 "AP7" 45.49020 100.0000 9.019608 0.431157 0.752913 0.130711 
36 "AH17" 45.49020 100.0000 0.00000 0.429611 0.752295 0.122569 
37 "BE15" 18.03922 100.0000 100.0000 0.549282 0.793138 1.070020 
38 "CK15" 18.03922 100.0000 90.98039 0.514449 0.779204 0.886570 
39 "CI2" 18.03922 100.0000 81.96078 0.483891 0.766981 0.725631 
40 "BY20" 18.03922 100.0000 72.54902 0.456384 0.755978 0.580760 
41 "AZ9" 18.03922 100.0000 63.52941 0.434038 0.747040 0.463072 
42 "CQ14" 18.03922 100.0000 54.50980 0.415431 0.739597 0.365072 
43 "AY18" 18.03922 100.0000 45.49020 0.400358 0.733568 0.285688 
44 "V18" 18.03922 100.0000 36.47059 0.388596 0.728863 0.223742 
45 "AP10" 18.03922 100.0000 27.45098 0.379896 0.725383 0.177923 
46 "AS19" 18.03922 100.0000 18.03922 0.373774 0.722935 0.145683 
47 "BI12" 18.03922 100.0000 9.019608 0.370391 0.721581 0.127863 
48 "H20" 18.03922 100.0000 0.00000 0.368845 0.720963 0.119720 
49 "M5" 100.0000 90.98039 100.0000 0.881441 0.861942 1.065820 
50 "AH7" 100.0000 90.98039 90.98039 0.846608 0.848008 0.882366 
51 "BD16" 100.0000 90.98039 81.96078 0.816050 0.835785 0.721427 
52 "U18" 100.0000 90.98039 72.54902 0.788542 0.824782 0.576556 
53 "CJ17" 100.0000 90.98039 63.52941 0.766197 0.815844 0.458867 
54 "G9" 100.0000 90.98039 54.50980 0.747589 0.808401 0.360868 
55 "T12" 100.0000 90.98039 45.49020 0.732516 0.802372 0.281484 
56 "BI17" 100.0000 90.98039 36.47059 0.720754 0.797667 0.219538 
57 "BA14" 100.0000 90.98039 27.45098 0.712054 0.794187 0.173719 
58 "E5" 100.0000 90.98039 18.03922 0.705933 0.791738 0.141479 
59 "AJ6" 100.0000 90.98039 9.019608 0.702549 0.790385 0.123658 
60 "AD12" 100.0000 90.98039 0.00000 0.701003 0.789767 0.115516 
61 "CB5" 72.54902 90.98039 100.0000 0.669088 0.752447 1.055870 
62 "BI8" 72.54902 90.98039 90.98039 0.634254 0.738514 0.872412 
63 "CM11" 72.54902 90.98039 81.96078 0.603696 0.726290 0.711473 
64 "BB2" 72.54902 90.98039 72.54902 0.576189 0.715288 0.566602 
65 "CK2" 72.54902 90.98039 63.52941 0.553843 0.706349 0.448913 
66 "BT14" 72.54902 90.98039 54.50980 0.535236 0.698906 0.350914 
67 "BD21" 72.54902 90.98039 45.49020 0.520163 0.692877 0.271530 
68 "J15" 72.54902 90.98039 36.47059 0.508401 0.688172 0.209584 
69 "BP14" 72.54902 90.98039 27.45098 0.499701 0.684692 0.163764 
70 "CF9" 72.54902 90.98039 18.03922 0.493580 0.682244 0.131525 
71 "B19" 72.54902 90.98039 9.019608 0.490196 0.680890 0.113704 
72 "AT7" 72.54902 90.98039 0.00000 0.488650 0.680272 0.105562 
73 "AM1" 45.49020 90.98039 100.0000 0.541019 0.686411 1.049860 
74 "AX16" 45.49020 90.98039 90.98039 0.506186 0.672478 0.866409 
75 "BB6" 45.49020 90.98039 81.96078 0.475628 0.660255 0.705470 
76 "N13" 45.49020 90.98039 72.54902 0.448121 0.649252 0.560599 
77 "L21" 45.49020 90.98039 63.52941 0.425775 0.640314 0.442910 
78 "Z10" 45.49020 90.98039 54.50980 0.407167 0.632871 0.344911 
79 "BO8" 45.49020 90.98039 45.49020 0.392094 0.626842 0.265527 
80 "CG19" 45.49020 90.98039 36.47059 0.380332 0.622137 0.203581 
81 "AY15" 45.49020 90.98039 27.45098 0.371632 0.618657 0.157761 
82 "CU3" 45.49020 90.98039 18.03922 0.365511 0.616208 0.125522 
83 "CP14" 45.49020 90.98039 9.019608 0.362127 0.614855 0.107701 
84 "BH14" 45.49020 90.98039 0.00000 0.360581 0.614236 0.0995590 
85 "CF20" 18.03922 90.98039 100.0000 0.480253 0.655079 1.047020 
86 "AA14" 18.03922 90.98039 90.98039 0.445420 0.641146 0.863560 
87 "AG1" 18.03922 90.98039 81.96078 0.414862 0.628923 0.702621 
88 "BA20" 18.03922 90.98039 72.54902 0.387355 0.617920 0.557750 
89 "BV12" 18.03922 90.98039 63.52941 0.365009 0.608981 0.440062 
90 "O5" 18.03922 90.98039 54.50980 0.346401 0.601538 0.342063 
91 "CD6" 18.03922 90.98039 45.49020 0.331328 0.595509 0.262679 
92 "CL15" 18.03922 90.98039 36.47059 0.319567 0.590804 0.200732 
93 "AI9" 18.03922 90.98039 27.45098 0.310867 0.587325 0.154913 
94 "CD4" 18.03922 90.98039 18.03922 0.304745 0.584876 0.122674 
95 "BY7" 18.03922 90.98039 9.019608 0.301362 0.583522 0.104853 
96 "BB10" 18.03922 90.98039 0.00000 0.299816 0.582904 0.0967100 
97 "CU15" 100.0000 81.96078 100.0000 0.820883 0.740827 1.045630 
98 "E20" 100.0000 81.96078 90.98039 0.786050 0.726893 0.862180 
99 "T17" 100.0000 81.96078 81.96078 0.755492 0.714670 0.701241 
100 "BR5" 100.0000 81.96078 72.54902 0.727985 0.703667 0.556370 
101 "AG18" 100.0000 81.96078 63.52941 0.705639 0.694729 0.438682 
102 "R7" 100.0000 81.96078 54.50980 0.687032 0.687286 0.340683 
103 "CK13" 100.0000 81.96078 45.49020 0.671959 0.681257 0.261299 
104 "AO12" 100.0000 81.96078 36.47059 0.660197 0.676552 0.199352 
105 "AQ7" 100.0000 81.96078 27.45098 0.651497 0.673072 0.153533 
106 "N20" 100.0000 81.96078 18.03922 0.645375 0.670624 0.121294 
107 "J9" 100.0000 81.96078 9.019608 0.641992 0.669270 0.103473 
108 "U17" 100.0000 81.96078 0.00000 0.640446 0.668652 0.0953300 
109 "BH10" 72.54902 81.96078 100.0000 0.608530 0.631332 1.035680 
110 "BN19" 72.54902 81.96078 90.98039 0.573697 0.617399 0.852226 
111 "AI13" 72.54902 81.96078 81.96078 0.543139 0.605176 0.691287 
112 "AI6" 72.54902 81.96078 72.54902 0.515632 0.594173 0.546416 
113 "O4" 72.54902 81.96078 63.52941 0.493286 0.585234 0.428728 
114 "AL10" 72.54902 81.96078 54.50980 0.474678 0.577791 0.330728 
115 "BG13" 72.54902 81.96078 45.49020 0.459606 0.571762 0.251344 
116 "AR17" 72.54902 81.96078 36.47059 0.447844 0.567057 0.189398 
117 "CS4" 72.54902 81.96078 27.45098 0.439144 0.563577 0.143579 
118 "AW16" 72.54902 81.96078 18.03922 0.433022 0.561129 0.111339 
119 "BI2" 72.54902 81.96078 9.019608 0.429639 0.559775 0.0935190 
120 "BF5" 72.54902 81.96078 0.00000 0.428093 0.559157 0.0853760 
121 "BQ16" 45.49020 81.96078 100.0000 0.480461 0.565297 1.029680 
122 "BU6" 45.49020 81.96078 90.98039 0.445628 0.551363 0.846223 
123 "CL8" 45.49020 81.96078 81.96078 0.415070 0.539140 0.685284 
124 "X2" 45.49020 81.96078 72.54902 0.387563 0.528137 0.540413 
125 "CL20" 45.49020 81.96078 63.52941 0.365217 0.519199 0.422724 
126 "I21" 45.49020 81.96078 54.50980 0.346610 0.511756 0.324725 
127 "CR14" 45.49020 81.96078 45.49020 0.331537 0.505727 0.245341 
128 "AY12" 45.49020 81.96078 36.47059 0.319775 0.501022 0.183395 
129 "BO9" 45.49020 81.96078 27.45098 0.311075 0.497542 0.137575 
130 "AT13" 45.49020 81.96078 18.03922 0.304954 0.495093 0.105336 
131 "CI13" 45.49020 81.96078 9.019608 0.301570 0.493740 0.0875150 
132 "CP12" 45.49020 81.96078 0.00000 0.300024 0.493122 0.0793730 
133 "CF15" 18.03922 81.96078 100.0000 0.419696 0.533964 1.026830 
134 "AA18" 18.03922 81.96078 90.98039 0.384862 0.520031 0.843375 
135 "BF3" 18.03922 81.96078 81.96078 0.354304 0.507808 0.682436 
136 "AT6" 18.03922 81.96078 72.54902 0.326797 0.496805 0.537565 
137 "CQ17" 18.03922 81.96078 63.52941 0.304451 0.487866 0.419876 
138 "AD4" 18.03922 81.96078 54.50980 0.285844 0.480424 0.321877 
139 "CB3" 18.03922 81.96078 45.49020 0.270771 0.474394 0.242493 
140 "C1" 18.03922 81.96078 36.47059 0.259009 0.469690 0.180547 
141 "J16" 18.03922 81.96078 27.45098 0.250309 0.466210 0.134727 
142 "M6" 18.03922 81.96078 18.03922 0.244188 0.463761 0.102488 
143 "BI13" 18.03922 81.96078 9.019608 0.240804 0.462408 0.0846670 
144 "BO15" 18.03922 81.96078 0.00000 0.239258 0.461789 0.0765250 
145 "AD20" 100.0000 72.54902 100.0000 0.766372 0.631804 1.027460 
146 "X5" 100.0000 72.54902 90.98039 0.731539 0.617871 0.844010 
147 "C17" 100.0000 72.54902 81.96078 0.700981 0.605648 0.683071 
148 "BW19" 100.0000 72.54902 72.54902 0.673474 0.594645 0.538200 
149 "AV1" 100.0000 72.54902 63.52941 0.651128 0.585706 0.420511 
150 "CU16" 100.0000 72.54902 54.50980 0.632520 0.578263 0.322512 
151 "R17" 100.0000 72.54902 45.49020 0.617447 0.572234 0.243128 
152 "BQ8" 100.0000 72.54902 36.47059 0.605685 0.567529 0.181182 
153 "BO20" 100.0000 72.54902 27.45098 0.596986 0.564049 0.135362 
154 "BP16" 100.0000 72.54902 18.03922 0.590864 0.561601 0.103123 
155 "O2" 100.0000 72.54902 9.019608 0.587480 0.560247 0.0853020 
156 "AR12" 100.0000 72.54902 0.00000 0.585934 0.559629 0.0771600 
157 "BG1" 72.54902 72.54902 100.0000 0.554019 0.522309 1.017510 
158 "BZ2" 72.54902 72.54902 90.98039 0.519186 0.508376 0.834056 
159 "BZ18" 72.54902 72.54902 81.96078 0.488628 0.496153 0.673117 
160 "AS3" 72.54902 72.54902 72.54902 0.461120 0.485150 0.528246 
161 "H1" 72.54902 72.54902 63.52941 0.438775 0.476212 0.410557 
162 "CN1" 72.54902 72.54902 54.50980 0.420167 0.468769 0.312558 
163 "AI21" 72.54902 72.54902 45.49020 0.405094 0.462739 0.233174 
164 "N6" 72.54902 72.54902 36.47059 0.393332 0.458035 0.171228 
165 "CI15" 72.54902 72.54902 27.45098 0.384632 0.454555 0.125408 
166 "AB7" 72.54902 72.54902 18.03922 0.378511 0.452106 0.0931690 
167 "AN8" 72.54902 72.54902 9.019608 0.375127 0.450753 0.0753480 
168 "E13" 72.54902 72.54902 0.00000 0.373581 0.450134 0.0672060 
169 "BJ2" 45.49020 72.54902 100.0000 0.425950 0.456274 1.011510 
170 "H14" 45.49020 72.54902 90.98039 0.391117 0.442341 0.828053 
171 "AN5" 45.49020 72.54902 81.96078 0.360559 0.430117 0.667113 
172 "BD15" 45.49020 72.54902 72.54902 0.333052 0.419115 0.522243 
173 "AT12" 45.49020 72.54902 63.52941 0.310706 0.410176 0.404554 
174 "BM13" 45.49020 72.54902 54.50980 0.292098 0.402733 0.306555 
175 "AZ21" 45.49020 72.54902 45.49020 0.277025 0.396704 0.227171 
176 "J1" 45.49020 72.54902 36.47059 0.265263 0.391999 0.165225 
177 "BS6" 45.49020 72.54902 27.45098 0.256564 0.388519 0.119405 
178 "BC7" 45.49020 72.54902 18.03922 0.250442 0.386071 0.0871660 
179 "AU18" 45.49020 72.54902 9.019608 0.247058 0.384717 0.0693450 
180 "BM10" 45.49020 72.54902 0.00000 0.245512 0.384099 0.0612030 
181 "S4" 18.03922 72.54902 100.0000 0.365184 0.424941 1.008660 
182 "BQ1" 18.03922 72.54902 90.98039 0.330351 0.411008 0.825204 
183 "BX10" 18.03922 72.54902 81.96078 0.299793 0.398785 0.664265 
184 "AM10" 18.03922 72.54902 72.54902 0.272286 0.387782 0.519394 
185 "AC20" 18.03922 72.54902 63.52941 0.249940 0.378844 0.401706 
186 "K12" 18.03922 72.54902 54.50980 0.231333 0.371401 0.303706 
187 "S19" 18.03922 72.54902 45.49020 0.216260 0.365372 0.224322 
188 "AJ15" 18.03922 72.54902 36.47059 0.204498 0.360667 0.162376 
189 "R18" 18.03922 72.54902 27.45098 0.195798 0.357187 0.116557 
190 "AV2" 18.03922 72.54902 18.03922 0.189676 0.354738 0.0843170 
191 "CM14" 18.03922 72.54902 9.019608 0.186293 0.353385 0.0664970 
192 "AU14" 18.03922 72.54902 0.00000 0.184747 0.352766 0.0583540 
193 "CI4" 100.0000 63.52941 100.0000 0.722089 0.543237 1.012700 
194 "X6" 100.0000 63.52941 90.98039 0.687256 0.529304 0.829249 
195 "AK13" 100.0000 63.52941 81.96078 0.656697 0.517081 0.668310 
196 "BB11" 100.0000 63.52941 72.54902 0.629190 0.506078 0.523439 
197 "CT2" 100.0000 63.52941 63.52941 0.606844 0.497140 0.405750 
198 "BQ21" 100.0000 63.52941 54.50980 0.588237 0.489697 0.307751 
199 "AN4" 100.0000 63.52941 45.49020 0.573164 0.483667 0.228367 
200 "BR20" 100.0000 63.52941 36.47059 0.561402 0.478963 0.166421 
201 "U15" 100.0000 63.52941 27.45098 0.552702 0.475483 0.120601 
202 "CN2" 100.0000 63.52941 18.03922 0.546581 0.473034 0.0883620 
203 "Z3" 100.0000 63.52941 9.019608 0.543197 0.471681 0.0705410 
204 "AF14" 100.0000 63.52941 0.00000 0.541651 0.471062 0.0623990 
205 "AA15" 72.54902 63.52941 100.0000 0.509735 0.433743 1.002750 
206 "BZ9" 72.54902 63.52941 90.98039 0.474902 0.419809 0.819295 
207 "AU8" 72.54902 63.52941 81.96078 0.444344 0.407586 0.658356 
208 "CO2" 72.54902 63.52941 72.54902 0.416837 0.396583 0.513485 
209 "CS13" 72.54902 63.52941 63.52941 0.394491 0.387645 0.395796 
210 "D2" 72.54902 63.52941 54.50980 0.375884 0.380202 0.297797 
211 "F2" 72.54902 63.52941 45.49020 0.360811 0.374173 0.218413 
212 "BG2" 72.54902 63.52941 36.47059 0.349049 0.369468 0.156467 
213 "R11" 72.54902 63.52941 27.45098 0.340349 0.365988 0.110647 
214 "AY11" 72.54902 63.52941 18.03922 0.334228 0.363539 0.0784080 
215 "AE2" 72.54902 63.52941 9.019608 0.330844 0.362186 0.0605870 
216 "I18" 72.54902 63.52941 0.00000 0.329298 0.361568 0.0524450 
217 "BF16" 45.49020 63.52941 100.0000 0.381667 0.367707 0.996746 
218 "CK12" 45.49020 63.52941 90.98039 0.346834 0.353774 0.813291 
219 "AR10" 45.49020 63.52941 81.96078 0.316275 0.341551 0.652352 
220 "AY7" 45.49020 63.52941 72.54902 0.288768 0.330548 0.507481 
221 "S11" 45.49020 63.52941 63.52941 0.266422 0.321609 0.389793 
222 "CD20" 45.49020 63.52941 54.50980 0.247815 0.314166 0.291794 
223 "C18" 45.49020 63.52941 45.49020 0.232742 0.308137 0.212410 
224 "AW7" 45.49020 63.52941 36.47059 0.220980 0.303432 0.150463 
225 "BX3" 45.49020 63.52941 27.45098 0.212280 0.299953 0.104644 
226 "Y8" 45.49020 63.52941 18.03922 0.206159 0.297504 0.0724050 
227 "AX19" 45.49020 63.52941 9.019608 0.202775 0.296151 0.0545840 
228 "AX14" 45.49020 63.52941 0.00000 0.201229 0.295532 0.0464410 
229 "CI16" 18.03922 63.52941 100.0000 0.320901 0.336375 0.993897 
230 "CM4" 18.03922 63.52941 90.98039 0.286068 0.322442 0.810443 
231 "BO16" 18.03922 63.52941 81.96078 0.255510 0.310218 0.649504 
232 "E21" 18.03922 63.52941 72.54902 0.228003 0.299215 0.504633 
233 "BT16" 18.03922 63.52941 63.52941 0.205657 0.290277 0.386944 
234 "CQ1" 18.03922 63.52941 54.50980 0.187049 0.282834 0.288945 
235 "CR6" 18.03922 63.52941 45.49020 0.171976 0.276805 0.209561 
236 "BT4" 18.03922 63.52941 36.47059 0.160214 0.272100 0.147615 
237 "CG9" 18.03922 63.52941 27.45098 0.151514 0.268620 0.101795 
238 "Z18" 18.03922 63.52941 18.03922 0.145393 0.266172 0.0695560 
239 "BZ13" 18.03922 63.52941 9.019608 0.142009 0.264818 0.0517350 
240 "BS4" 18.03922 63.52941 0.00000 0.140463 0.264200 0.0435930 
241 "T2" 100.0000 54.50980 100.0000 0.685214 0.469488 1.000410 
242 "BQ10" 100.0000 54.50980 90.98039 0.650381 0.455555 0.816957 
243 "AX17" 100.0000 54.50980 81.96078 0.619823 0.443331 0.656018 
244 "CR21" 100.0000 54.50980 72.54902 0.592316 0.432329 0.511147 
245 "AL3" 100.0000 54.50980 63.52941 0.569970 0.423390 0.393459 
246 "BE11" 100.0000 54.50980 54.50980 0.551362 0.415947 0.295459 
247 "AA2" 100.0000 54.50980 45.49020 0.536289 0.409918 0.216075 
248 "BK3" 100.0000 54.50980 36.47059 0.524527 0.405213 0.154129 
249 "BO6" 100.0000 54.50980 27.45098 0.515827 0.401733 0.108310 
250 "BH12" 100.0000 54.50980 18.03922 0.509706 0.399285 0.0760700 
251 "V6" 100.0000 54.50980 9.019608 0.506322 0.397931 0.0582500 
252 "R10" 100.0000 54.50980 0.00000 0.504776 0.397313 0.0501070 
253 "CR7" 72.54902 54.50980 100.0000 0.472861 0.359993 0.990457 
254 "BC21" 72.54902 54.50980 90.98039 0.438028 0.346060 0.807003 
255 "AL17" 72.54902 54.50980 81.96078 0.407470 0.333837 0.646064 
256 "BL9" 72.54902 54.50980 72.54902 0.379962 0.322834 0.501193 
257 "BD1" 72.54902 54.50980 63.52941 0.357616 0.313896 0.383504 
258 "AW5" 72.54902 54.50980 54.50980 0.339009 0.306453 0.285505 
259 "CD3" 72.54902 54.50980 45.49020 0.323936 0.300423 0.206121 
260 "BE13" 72.54902 54.50980 36.47059 0.312174 0.295719 0.144175 
261 "AB10" 72.54902 54.50980 27.45098 0.303474 0.292239 0.0983560 
262 "BS11" 72.54902 54.50980 18.03922 0.297353 0.289790 0.0661160 
263 "AZ11" 72.54902 54.50980 9.019608 0.293969 0.288437 0.0482950 
264 "BX9" 72.54902 54.50980 0.00000 0.292423 0.287818 0.0401530 
265 "AK20" 45.49020 54.50980 100.0000 0.344792 0.293958 0.984454 
266 "BD13" 45.49020 54.50980 90.98039 0.309959 0.280025 0.801000 
267 "BL16" 45.49020 54.50980 81.96078 0.279401 0.267801 0.640061 
268 "X4" 45.49020 54.50980 72.54902 0.251894 0.256798 0.495190 
269 "E18" 45.49020 54.50980 63.52941 0.229548 0.247860 0.377501 
270 "I16" 45.49020 54.50980 54.50980 0.210940 0.240417 0.279502 
271 "O3" 45.49020 54.50980 45.49020 0.195867 0.234388 0.200118 
272 "CK4" 45.49020 54.50980 36.47059 0.184105 0.229683 0.138172 
273 "BU14" 45.49020 54.50980 27.45098 0.175406 0.226203 0.0923520 
274 "CQ3" 45.49020 54.50980 18.03922 0.169284 0.223755 0.0601130 
275 "BO5" 45.49020 54.50980 9.019608 0.165900 0.222401 0.0422920 
276 "U12" 45.49020 54.50980 0.00000 0.164354 0.221783 0.0341500 
277 "D20" 18.03922 54.50980 100.0000 0.284026 0.262625 0.981606 
278 "BX13" 18.03922 54.50980 90.98039 0.249193 0.248692 0.798152 
279 "BA12" 18.03922 54.50980 81.96078 0.218635 0.236469 0.637212 
280 "BO11" 18.03922 54.50980 72.54902 0.191128 0.225466 0.492342 
281 "CJ11" 18.03922 54.50980 63.52941 0.168782 0.216528 0.374653 
282 "CB12" 18.03922 54.50980 54.50980 0.150175 0.209085 0.276654 
283 "Z14" 18.03922 54.50980 45.49020 0.135102 0.203056 0.197270 
284 "CE6" 18.03922 54.50980 36.47059 0.123340 0.198351 0.135323 
285 "CJ15" 18.03922 54.50980 27.45098 0.114640 0.194871 0.0895040 
286 "AO6" 18.03922 54.50980 18.03922 0.108518 0.192422 0.0572650 
287 "W11" 18.03922 54.50980 9.019608 0.105135 0.191069 0.0394440 
288 "CT16" 18.03922 54.50980 0.00000 0.103589 0.190450 0.0313020 
289 "BH13" 100.0000 45.49020 100.0000 0.655344 0.409747 0.990455 
290 "AE1" 100.0000 45.49020 90.98039 0.620511 0.395814 0.807000 
291 "AZ8" 100.0000 45.49020 81.96078 0.589953 0.383591 0.646061 
292 "CJ7" 100.0000 45.49020 72.54902 0.562445 0.372588 0.501190 
293 "M8" 100.0000 45.49020 63.52941 0.540099 0.363650 0.383502 
294 "AS7" 100.0000 45.49020 54.50980 0.521492 0.356207 0.285503 
295 "BH4" 100.0000 45.49020 45.49020 0.506419 0.350178 0.206119 
296 "H8" 100.0000 45.49020 36.47059 0.494657 0.345473 0.144172 
297 "CM6" 100.0000 45.49020 27.45098 0.485957 0.341993 0.0983530 
298 "BP17" 100.0000 45.49020 18.03922 0.479836 0.339544 0.0661140 
299 "P3" 100.0000 45.49020 9.019608 0.476452 0.338191 0.0482930 
300 "Y16" 100.0000 45.49020 0.00000 0.474906 0.337572 0.0401500 
301 "N10" 72.54902 45.49020 100.0000 0.442990 0.300253 0.980501 
302 "BO17" 72.54902 45.49020 90.98039 0.408157 0.286320 0.797046 
303 "Y14" 72.54902 45.49020 81.96078 0.377599 0.274096 0.636107 
304 "AJ7" 72.54902 45.49020 72.54902 0.350092 0.263093 0.491236 
305 "CL4" 72.54902 45.49020 63.52941 0.327746 0.254155 0.373548 
306 "CI9" 72.54902 45.49020 54.50980 0.309139 0.246712 0.275549 
307 "BD5" 72.54902 45.49020 45.49020 0.294066 0.240683 0.196165 
308 "CO4" 72.54902 45.49020 36.47059 0.282304 0.235978 0.134218 
309 "BY17" 72.54902 45.49020 27.45098 0.273604 0.232498 0.0883990 
310 "N19" 72.54902 45.49020 18.03922 0.267483 0.230050 0.0561600 
311 "S18" 72.54902 45.49020 9.019608 0.264099 0.228696 0.0383390 
312 "BF6" 72.54902 45.49020 0.00000 0.262553 0.228078 0.0301960 
313 "AN2" 45.49020 45.49020 100.0000 0.314922 0.234217 0.974497 
314 "P13" 45.49020 45.49020 90.98039 0.280089 0.220284 0.791043 
315 "CP6" 45.49020 45.49020 81.96078 0.249531 0.208061 0.630104 
316 "AF10" 45.49020 45.49020 72.54902 0.222023 0.197058 0.485233 
317 "BL2" 45.49020 45.49020 63.52941 0.199677 0.188120 0.367544 
318 "AU10" 45.49020 45.49020 54.50980 0.181070 0.180677 0.269545 
319 "BE8" 45.49020 45.49020 45.49020 0.165997 0.174647 0.190161 
320 "AE18" 45.49020 45.49020 36.47059 0.154235 0.169943 0.128215 
321 "AJ5" 45.49020 45.49020 27.45098 0.145535 0.166463 0.0823960 
322 "B4" 45.49020 45.49020 18.03922 0.139414 0.164014 0.0501560 
323 "AK2" 45.49020 45.49020 9.019608 0.136030 0.162661 0.0323360 
324 "BS1" 45.49020 45.49020 0.00000 0.134484 0.162042 0.0241930 
325 "T14" 18.03922 45.49020 100.0000 0.254156 0.202885 0.971649 
326 "BY12" 18.03922 45.49020 90.98039 0.219323 0.188952 0.788195 
327 "AN18" 18.03922 45.49020 81.96078 0.188765 0.176728 0.627256 
328 "F21" 18.03922 45.49020 72.54902 0.161258 0.165726 0.482385 
329 "CN13" 18.03922 45.49020 63.52941 0.138912 0.156787 0.364696 
330 "AD17" 18.03922 45.49020 54.50980 0.120304 0.149344 0.266697 
331 "AK12" 18.03922 45.49020 45.49020 0.105231 0.143315 0.187313 
332 "AX11" 18.03922 45.49020 36.47059 0.0934690 0.138610 0.125367 
333 "BQ17" 18.03922 45.49020 27.45098 0.0847700 0.135130 0.0795470 
334 "AZ16" 18.03922 45.49020 18.03922 0.0786480 0.132682 0.0473080 
335 "H12" 18.03922 45.49020 9.019608 0.0752640 0.131328 0.0294870 
336 "AJ14" 18.03922 45.49020 0.00000 0.0737180 0.130710 0.0213450 
337 "AI17" 100.0000 36.47059 100.0000 0.632035 0.363130 0.982685 
338 "AG6" 100.0000 36.47059 90.98039 0.597202 0.349196 0.799231 
339 "BO3" 100.0000 36.47059 81.96078 0.566644 0.336973 0.638292 
340 "L10" 100.0000 36.47059 72.54902 0.539137 0.325970 0.493421 
341 "N1" 100.0000 36.47059 63.52941 0.516791 0.317032 0.375732 
342 "B15" 100.0000 36.47059 54.50980 0.498183 0.309589 0.277733 
343 "L9" 100.0000 36.47059 45.49020 0.483110 0.303560 0.198349 
344 "BJ16" 100.0000 36.47059 36.47059 0.471348 0.298855 0.136403 
345 "AS6" 100.0000 36.47059 27.45098 0.462648 0.295375 0.0905830 
346 "AV8" 100.0000 36.47059 18.03922 0.456527 0.292927 0.0583440 
347 "BR14" 100.0000 36.47059 9.019608 0.453143 0.291573 0.0405230 
348 "E1" 100.0000 36.47059 0.00000 0.451597 0.290955 0.0323810 
349 "BT17" 72.54902 36.47059 100.0000 0.419682 0.253635 0.972731 
350 "BP18" 72.54902 36.47059 90.98039 0.384849 0.239702 0.789277 
351 "AO16" 72.54902 36.47059 81.96078 0.354290 0.227479 0.628338 
352 "V21" 72.54902 36.47059 72.54902 0.326783 0.216476 0.483467 
353 "N15" 72.54902 36.47059 63.52941 0.304437 0.207537 0.365778 
354 "CI21" 72.54902 36.47059 54.50980 0.285830 0.200094 0.267779 
355 "AX10" 72.54902 36.47059 45.49020 0.270757 0.194065 0.188395 
356 "BL5" 72.54902 36.47059 36.47059 0.258995 0.189360 0.126449 
357 "C8" 72.54902 36.47059 27.45098 0.250295 0.185880 0.0806290 
358 "CI6" 72.54902 36.47059 18.03922 0.244174 0.183432 0.0483900 
359 "CU12" 72.54902 36.47059 9.019608 0.240790 0.182078 0.0305690 
