Pre-made_Targets/Patch Width 12-15mm - Intermediate (Easy with ruler)/Designed Targets/CM-Interm-Letter-2060p-5pages-w12.5mm-20x21-Short-ReadPortrait_Modified-Atkinson1728-randomized/Mod_Atkinson2060.ti1
CTI1
DESCRIPTOR "Argyll Calibration Target chart information 1"
ORIGINATOR "Argyll targen"
CREATED "Sun Mar 30 10:47:43 2025"
APPROX_WHITE_POINT "95.106486 100.000000 108.844025"
COLOR_REP "iRGB"
WHITE_COLOR_PATCHES "9"
BLACK_COLOR_PATCHES "9"

NUMBER_OF_FIELDS 7
BEGIN_DATA_FORMAT
SAMPLE_ID RGB_R RGB_G RGB_B XYZ_X XYZ_Y XYZ_Z
END_DATA_FORMAT

NUMBER_OF_SETS 2060
BEGIN_DATA
1 100 100 100 0.95047 1 1.08883
2 100 100 90.9804 0.915637 0.986067 0.905376
3 100 100 81.9608 0.885079 0.973844 0.744437
4 100 100 72.549 0.857572 0.962841 0.599566
5 100 100 63.5294 0.835226 0.953902 0.481877
6 100 100 54.5098 0.816618 0.946459 0.383878
7 100 100 45.4902 0.801545 0.94043 0.304494
8 100 100 36.4706 0.789783 0.935725 0.242548
9 100 100 27.451 0.781084 0.932246 0.196728
10 100 100 18.0392 0.774962 0.929797 0.164489
11 100 100 9.01961 0.771579 0.928444 0.146668
12 100 100 0.00000 0.770033 0.927825 0.138526
13 72.549 100 100 0.738117 0.890505 1.07888
14 72.549 100 90.9804 0.703284 0.876572 0.895422
15 72.549 100 81.9608 0.672726 0.864349 0.734483
16 72.549 100 72.549 0.645219 0.853346 0.589612
17 72.549 100 63.5294 0.622873 0.844408 0.471923
18 72.549 100 54.5098 0.604265 0.836965 0.373924
19 72.549 100 45.4902 0.589192 0.830936 0.29454
20 72.549 100 36.4706 0.57743 0.826231 0.232594
21 72.549 100 27.451 0.56873 0.822751 0.186774
22 72.549 100 18.0392 0.562609 0.820302 0.154535
23 72.549 100 9.01961 0.559225 0.818949 0.136714
24 72.549 100 0.00000 0.557679 0.81833 0.128572
25 45.4902 100 100 0.610048 0.82447 1.07287
26 45.4902 100 90.9804 0.575215 0.810537 0.889419
27 45.4902 100 81.9608 0.544657 0.798314 0.728479
28 45.4902 100 72.549 0.51715 0.787311 0.583609
29 45.4902 100 63.5294 0.494804 0.778372 0.46592
30 45.4902 100 54.5098 0.476196 0.770929 0.367921
31 45.4902 100 45.4902 0.461123 0.7649 0.288537
32 45.4902 100 36.4706 0.449362 0.760195 0.226591
33 45.4902 100 27.451 0.440662 0.756715 0.180771
34 45.4902 100 18.0392 0.43454 0.754267 0.148532
35 45.4902 100 9.01961 0.431157 0.752913 0.130711
36 45.4902 100 0.00000 0.429611 0.752295 0.122569
37 18.0392 100 100 0.549282 0.793138 1.07002
38 18.0392 100 90.9804 0.514449 0.779204 0.88657
39 18.0392 100 81.9608 0.483891 0.766981 0.725631
40 18.0392 100 72.549 0.456384 0.755978 0.58076
41 18.0392 100 63.5294 0.434038 0.74704 0.463072
42 18.0392 100 54.5098 0.415431 0.739597 0.365072
43 18.0392 100 45.4902 0.400358 0.733568 0.285688
44 18.0392 100 36.4706 0.388596 0.728863 0.223742
45 18.0392 100 27.451 0.379896 0.725383 0.177923
46 18.0392 100 18.0392 0.373774 0.722935 0.145683
47 18.0392 100 9.01961 0.370391 0.721581 0.127863
48 18.0392 100 0.00000 0.368845 0.720963 0.11972
49 100 90.9804 100 0.881441 0.861942 1.06582
50 100 90.9804 90.9804 0.846608 0.848008 0.882366
51 100 90.9804 81.9608 0.81605 0.835785 0.721427
52 100 90.9804 72.549 0.788542 0.824782 0.576556
53 100 90.9804 63.5294 0.766197 0.815844 0.458867
54 100 90.9804 54.5098 0.747589 0.808401 0.360868
55 100 90.9804 45.4902 0.732516 0.802372 0.281484
56 100 90.9804 36.4706 0.720754 0.797667 0.219538
57 100 90.9804 27.451 0.712054 0.794187 0.173719
58 100 90.9804 18.0392 0.705933 0.791738 0.141479
59 100 90.9804 9.01961 0.702549 0.790385 0.123658
60 100 90.9804 0.00000 0.701003 0.789767 0.115516
61 72.549 90.9804 100 0.669088 0.752447 1.05587
62 72.549 90.9804 90.9804 0.634254 0.738514 0.872412
63 72.549 90.9804 81.9608 0.603696 0.72629 0.711473
64 72.549 90.9804 72.549 0.576189 0.715288 0.566602
65 72.549 90.9804 63.5294 0.553843 0.706349 0.448913
66 72.549 90.9804 54.5098 0.535236 0.698906 0.350914
67 72.549 90.9804 45.4902 0.520163 0.692877 0.27153
68 72.549 90.9804 36.4706 0.508401 0.688172 0.209584
69 72.549 90.9804 27.451 0.499701 0.684692 0.163764
70 72.549 90.9804 18.0392 0.49358 0.682244 0.131525
71 72.549 90.9804 9.01961 0.490196 0.68089 0.113704
72 72.549 90.9804 0.00000 0.48865 0.680272 0.105562
73 45.4902 90.9804 100 0.541019 0.686411 1.04986
74 45.4902 90.9804 90.9804 0.506186 0.672478 0.866409
75 45.4902 90.9804 81.9608 0.475628 0.660255 0.70547
76 45.4902 90.9804 72.549 0.448121 0.649252 0.560599
77 45.4902 90.9804 63.5294 0.425775 0.640314 0.44291
78 45.4902 90.9804 54.5098 0.407167 0.632871 0.344911
79 45.4902 90.9804 45.4902 0.392094 0.626842 0.265527
80 45.4902 90.9804 36.4706 0.380332 0.622137 0.203581
81 45.4902 90.9804 27.451 0.371632 0.618657 0.157761
82 45.4902 90.9804 18.0392 0.365511 0.616208 0.125522
83 45.4902 90.9804 9.01961 0.362127 0.614855 0.107701
84 45.4902 90.9804 0.00000 0.360581 0.614236 0.099559
85 18.0392 90.9804 100 0.480253 0.655079 1.04702
86 18.0392 90.9804 90.9804 0.44542 0.641146 0.86356
87 18.0392 90.9804 81.9608 0.414862 0.628923 0.702621
88 18.0392 90.9804 72.549 0.387355 0.61792 0.55775
89 18.0392 90.9804 63.5294 0.365009 0.608981 0.440062
90 18.0392 90.9804 54.5098 0.346401 0.601538 0.342063
91 18.0392 90.9804 45.4902 0.331328 0.595509 0.262679
92 18.0392 90.9804 36.4706 0.319567 0.590804 0.200732
93 18.0392 90.9804 27.451 0.310867 0.587325 0.154913
94 18.0392 90.9804 18.0392 0.304745 0.584876 0.122674
95 18.0392 90.9804 9.01961 0.301362 0.583522 0.104853
96 18.0392 90.9804 0.00000 0.299816 0.582904 0.09671
97 100 81.9608 100 0.820883 0.740827 1.04563
98 100 81.9608 90.9804 0.78605 0.726893 0.86218
99 100 81.9608 81.9608 0.755492 0.71467 0.701241
100 100 81.9608 72.549 0.727985 0.703667 0.55637
101 100 81.9608 63.5294 0.705639 0.694729 0.438682
102 100 81.9608 54.5098 0.687032 0.687286 0.340683
103 100 81.9608 45.4902 0.671959 0.681257 0.261299
104 100 81.9608 36.4706 0.660197 0.676552 0.199352
105 100 81.9608 27.451 0.651497 0.673072 0.153533
106 100 81.9608 18.0392 0.645375 0.670624 0.121294
107 100 81.9608 9.01961 0.641992 0.66927 0.103473
108 100 81.9608 0.00000 0.640446 0.668652 0.09533
109 72.549 81.9608 100 0.60853 0.631332 1.03568
110 72.549 81.9608 90.9804 0.573697 0.617399 0.852226
111 72.549 81.9608 81.9608 0.543139 0.605176 0.691287
112 72.549 81.9608 72.549 0.515632 0.594173 0.546416
113 72.549 81.9608 63.5294 0.493286 0.585234 0.428728
114 72.549 81.9608 54.5098 0.474678 0.577791 0.330728
115 72.549 81.9608 45.4902 0.459606 0.571762 0.251344
116 72.549 81.9608 36.4706 0.447844 0.567057 0.189398
117 72.549 81.9608 27.451 0.439144 0.563577 0.143579
118 72.549 81.9608 18.0392 0.433022 0.561129 0.111339
119 72.549 81.9608 9.01961 0.429639 0.559775 0.093519
120 72.549 81.9608 0.00000 0.428093 0.559157 0.085376
121 45.4902 81.9608 100 0.480461 0.565297 1.02968
122 45.4902 81.9608 90.9804 0.445628 0.551363 0.846223
123 45.4902 81.9608 81.9608 0.41507 0.53914 0.685284
124 45.4902 81.9608 72.549 0.387563 0.528137 0.540413
125 45.4902 81.9608 63.5294 0.365217 0.519199 0.422724
126 45.4902 81.9608 54.5098 0.34661 0.511756 0.324725
127 45.4902 81.9608 45.4902 0.331537 0.505727 0.245341
128 45.4902 81.9608 36.4706 0.319775 0.501022 0.183395
129 45.4902 81.9608 27.451 0.311075 0.497542 0.137575
130 45.4902 81.9608 18.0392 0.304954 0.495093 0.105336
131 45.4902 81.9608 9.01961 0.30157 0.49374 0.087515
132 45.4902 81.9608 0.00000 0.300024 0.493122 0.079373
133 18.0392 81.9608 100 0.419696 0.533964 1.02683
134 18.0392 81.9608 90.9804 0.384862 0.520031 0.843375
135 18.0392 81.9608 81.9608 0.354304 0.507808 0.682436
136 18.0392 81.9608 72.549 0.326797 0.496805 0.537565
137 18.0392 81.9608 63.5294 0.304451 0.487866 0.419876
138 18.0392 81.9608 54.5098 0.285844 0.480424 0.321877
139 18.0392 81.9608 45.4902 0.270771 0.474394 0.242493
140 18.0392 81.9608 36.4706 0.259009 0.46969 0.180547
141 18.0392 81.9608 27.451 0.250309 0.46621 0.134727
142 18.0392 81.9608 18.0392 0.244188 0.463761 0.102488
143 18.0392 81.9608 9.01961 0.240804 0.462408 0.084667
144 18.0392 81.9608 0.00000 0.239258 0.461789 0.076525
145 100 72.549 100 0.766372 0.631804 1.02746
146 100 72.549 90.9804 0.731539 0.617871 0.84401
147 100 72.549 81.9608 0.700981 0.605648 0.683071
148 100 72.549 72.549 0.673474 0.594645 0.5382
149 100 72.549 63.5294 0.651128 0.585706 0.420511
150 100 72.549 54.5098 0.63252 0.578263 0.322512
151 100 72.549 45.4902 0.617447 0.572234 0.243128
152 100 72.549 36.4706 0.605685 0.567529 0.181182
153 100 72.549 27.451 0.596986 0.564049 0.135362
154 100 72.549 18.0392 0.590864 0.561601 0.103123
155 100 72.549 9.01961 0.58748 0.560247 0.085302
156 100 72.549 0.00000 0.585934 0.559629 0.07716
157 72.549 72.549 100 0.554019 0.522309 1.01751
158 72.549 72.549 90.9804 0.519186 0.508376 0.834056
159 72.549 72.549 81.9608 0.488628 0.496153 0.673117
160 72.549 72.549 72.549 0.46112 0.48515 0.528246
161 72.549 72.549 63.5294 0.438775 0.476212 0.410557
162 72.549 72.549 54.5098 0.420167 0.468769 0.312558
163 72.549 72.549 45.4902 0.405094 0.462739 0.233174
164 72.549 72.549 36.4706 0.393332 0.458035 0.171228
165 72.549 72.549 27.451 0.384632 0.454555 0.125408
166 72.549 72.549 18.0392 0.378511 0.452106 0.093169
167 72.549 72.549 9.01961 0.375127 0.450753 0.075348
168 72.549 72.549 0.00000 0.373581 0.450134 0.067206
169 45.4902 72.549 100 0.42595 0.456274 1.01151
170 45.4902 72.549 90.9804 0.391117 0.442341 0.828053
171 45.4902 72.549 81.9608 0.360559 0.430117 0.667113
172 45.4902 72.549 72.549 0.333052 0.419115 0.522243
173 45.4902 72.549 63.5294 0.310706 0.410176 0.404554
174 45.4902 72.549 54.5098 0.292098 0.402733 0.306555
175 45.4902 72.549 45.4902 0.277025 0.396704 0.227171
176 45.4902 72.549 36.4706 0.265263 0.391999 0.165225
177 45.4902 72.549 27.451 0.256564 0.388519 0.119405
178 45.4902 72.549 18.0392 0.250442 0.386071 0.087166
179 45.4902 72.549 9.01961 0.247058 0.384717 0.069345
180 45.4902 72.549 0.00000 0.245512 0.384099 0.061203
181 18.0392 72.549 100 0.365184 0.424941 1.00866
182 18.0392 72.549 90.9804 0.330351 0.411008 0.825204
183 18.0392 72.549 81.9608 0.299793 0.398785 0.664265
184 18.0392 72.549 72.549 0.272286 0.387782 0.519394
185 18.0392 72.549 63.5294 0.24994 0.378844 0.401706
186 18.0392 72.549 54.5098 0.231333 0.371401 0.303706
187 18.0392 72.549 45.4902 0.21626 0.365372 0.224322
188 18.0392 72.549 36.4706 0.204498 0.360667 0.162376
189 18.0392 72.549 27.451 0.195798 0.357187 0.116557
190 18.0392 72.549 18.0392 0.189676 0.354738 0.084317
191 18.0392 72.549 9.01961 0.186293 0.353385 0.066497
192 18.0392 72.549 0.00000 0.184747 0.352766 0.058354
193 100 63.5294 100 0.722089 0.543237 1.0127
194 100 63.5294 90.9804 0.687256 0.529304 0.829249
195 100 63.5294 81.9608 0.656697 0.517081 0.66831
196 100 63.5294 72.549 0.62919 0.506078 0.523439
197 100 63.5294 63.5294 0.606844 0.49714 0.40575
198 100 63.5294 54.5098 0.588237 0.489697 0.307751
199 100 63.5294 45.4902 0.573164 0.483667 0.228367
200 100 63.5294 36.4706 0.561402 0.478963 0.166421
201 100 63.5294 27.451 0.552702 0.475483 0.120601
202 100 63.5294 18.0392 0.546581 0.473034 0.088362
203 100 63.5294 9.01961 0.543197 0.471681 0.070541
204 100 63.5294 0.00000 0.541651 0.471062 0.062399
205 72.549 63.5294 100 0.509735 0.433743 1.00275
206 72.549 63.5294 90.9804 0.474902 0.419809 0.819295
207 72.549 63.5294 81.9608 0.444344 0.407586 0.658356
208 72.549 63.5294 72.549 0.416837 0.396583 0.513485
209 72.549 63.5294 63.5294 0.394491 0.387645 0.395796
210 72.549 63.5294 54.5098 0.375884 0.380202 0.297797
211 72.549 63.5294 45.4902 0.360811 0.374173 0.218413
212 72.549 63.5294 36.4706 0.349049 0.369468 0.156467
213 72.549 63.5294 27.451 0.340349 0.365988 0.110647
214 72.549 63.5294 18.0392 0.334228 0.363539 0.078408
215 72.549 63.5294 9.01961 0.330844 0.362186 0.060587
216 72.549 63.5294 0.00000 0.329298 0.361568 0.052445
217 45.4902 63.5294 100 0.381667 0.367707 0.996746
218 45.4902 63.5294 90.9804 0.346834 0.353774 0.813291
219 45.4902 63.5294 81.9608 0.316275 0.341551 0.652352
220 45.4902 63.5294 72.549 0.288768 0.330548 0.507481
221 45.4902 63.5294 63.5294 0.266422 0.321609 0.389793
222 45.4902 63.5294 54.5098 0.247815 0.314166 0.291794
223 45.4902 63.5294 45.4902 0.232742 0.308137 0.21241
224 45.4902 63.5294 36.4706 0.22098 0.303432 0.150463
225 45.4902 63.5294 27.451 0.21228 0.299953 0.104644
226 45.4902 63.5294 18.0392 0.206159 0.297504 0.072405
227 45.4902 63.5294 9.01961 0.202775 0.296151 0.054584
228 45.4902 63.5294 0.00000 0.201229 0.295532 0.046441
229 18.0392 63.5294 100 0.320901 0.336375 0.993897
230 18.0392 63.5294 90.9804 0.286068 0.322442 0.810443
231 18.0392 63.5294 81.9608 0.25551 0.310218 0.649504
232 18.0392 63.5294 72.549 0.228003 0.299215 0.504633
233 18.0392 63.5294 63.5294 0.205657 0.290277 0.386944
234 18.0392 63.5294 54.5098 0.187049 0.282834 0.288945
235 18.0392 63.5294 45.4902 0.171976 0.276805 0.209561
236 18.0392 63.5294 36.4706 0.160214 0.2721 0.147615
237 18.0392 63.5294 27.451 0.151514 0.26862 0.101795
238 18.0392 63.5294 18.0392 0.145393 0.266172 0.069556
239 18.0392 63.5294 9.01961 0.142009 0.264818 0.051735
240 18.0392 63.5294 0.00000 0.140463 0.2642 0.043593
241 100 54.5098 100 0.685214 0.469488 1.00041
242 100 54.5098 90.9804 0.650381 0.455555 0.816957
243 100 54.5098 81.9608 0.619823 0.443331 0.656018
244 100 54.5098 72.549 0.592316 0.432329 0.511147
245 100 54.5098 63.5294 0.56997 0.42339 0.393459
246 100 54.5098 54.5098 0.551362 0.415947 0.295459
247 100 54.5098 45.4902 0.536289 0.409918 0.216075
248 100 54.5098 36.4706 0.524527 0.405213 0.154129
249 100 54.5098 27.451 0.515827 0.401733 0.10831
250 100 54.5098 18.0392 0.509706 0.399285 0.07607
251 100 54.5098 9.01961 0.506322 0.397931 0.05825
252 100 54.5098 0.00000 0.504776 0.397313 0.050107
253 72.549 54.5098 100 0.472861 0.359993 0.990457
254 72.549 54.5098 90.9804 0.438028 0.34606 0.807003
255 72.549 54.5098 81.9608 0.40747 0.333837 0.646064
256 72.549 54.5098 72.549 0.379962 0.322834 0.501193
257 72.549 54.5098 63.5294 0.357616 0.313896 0.383504
258 72.549 54.5098 54.5098 0.339009 0.306453 0.285505
259 72.549 54.5098 45.4902 0.323936 0.300423 0.206121
260 72.549 54.5098 36.4706 0.312174 0.295719 0.144175
261 72.549 54.5098 27.451 0.303474 0.292239 0.098356
262 72.549 54.5098 18.0392 0.297353 0.28979 0.066116
263 72.549 54.5098 9.01961 0.293969 0.288437 0.048295
264 72.549 54.5098 0.00000 0.292423 0.287818 0.040153
265 45.4902 54.5098 100 0.344792 0.293958 0.984454
266 45.4902 54.5098 90.9804 0.309959 0.280025 0.801
267 45.4902 54.5098 81.9608 0.279401 0.267801 0.640061
268 45.4902 54.5098 72.549 0.251894 0.256798 0.49519
269 45.4902 54.5098 63.5294 0.229548 0.24786 0.377501
270 45.4902 54.5098 54.5098 0.21094 0.240417 0.279502
271 45.4902 54.5098 45.4902 0.195867 0.234388 0.200118
272 45.4902 54.5098 36.4706 0.184105 0.229683 0.138172
273 45.4902 54.5098 27.451 0.175406 0.226203 0.092352
274 45.4902 54.5098 18.0392 0.169284 0.223755 0.060113
275 45.4902 54.5098 9.01961 0.1659 0.222401 0.042292
276 45.4902 54.5098 0.00000 0.164354 0.221783 0.03415
277 18.0392 54.5098 100 0.284026 0.262625 0.981606
278 18.0392 54.5098 90.9804 0.249193 0.248692 0.798152
279 18.0392 54.5098 81.9608 0.218635 0.236469 0.637212
280 18.0392 54.5098 72.549 0.191128 0.225466 0.492342
281 18.0392 54.5098 63.5294 0.168782 0.216528 0.374653
282 18.0392 54.5098 54.5098 0.150175 0.209085 0.276654
283 18.0392 54.5098 45.4902 0.135102 0.203056 0.19727
284 18.0392 54.5098 36.4706 0.12334 0.198351 0.135323
285 18.0392 54.5098 27.451 0.11464 0.194871 0.089504
286 18.0392 54.5098 18.0392 0.108518 0.192422 0.057265
287 18.0392 54.5098 9.01961 0.105135 0.191069 0.039444
288 18.0392 54.5098 0.00000 0.103589 0.19045 0.031302
289 100 45.4902 100 0.655344 0.409747 0.990455
290 100 45.4902 90.9804 0.620511 0.395814 0.807
291 100 45.4902 81.9608 0.589953 0.383591 0.646061
292 100 45.4902 72.549 0.562445 0.372588 0.50119
293 100 45.4902 63.5294 0.540099 0.36365 0.383502
294 100 45.4902 54.5098 0.521492 0.356207 0.285503
295 100 45.4902 45.4902 0.506419 0.350178 0.206119
296 100 45.4902 36.4706 0.494657 0.345473 0.144172
297 100 45.4902 27.451 0.485957 0.341993 0.098353
298 100 45.4902 18.0392 0.479836 0.339544 0.066114
299 100 45.4902 9.01961 0.476452 0.338191 0.048293
300 100 45.4902 0.00000 0.474906 0.337572 0.04015
301 72.549 45.4902 100 0.44299 0.300253 0.980501
302 72.549 45.4902 90.9804 0.408157 0.28632 0.797046
303 72.549 45.4902 81.9608 0.377599 0.274096 0.636107
304 72.549 45.4902 72.549 0.350092 0.263093 0.491236
305 72.549 45.4902 63.5294 0.327746 0.254155 0.373548
306 72.549 45.4902 54.5098 0.309139 0.246712 0.275549
307 72.549 45.4902 45.4902 0.294066 0.240683 0.196165
308 72.549 45.4902 36.4706 0.282304 0.235978 0.134218
309 72.549 45.4902 27.451 0.273604 0.232498 0.088399
310 72.549 45.4902 18.0392 0.267483 0.23005 0.05616
311 72.549 45.4902 9.01961 0.264099 0.228696 0.038339
312 72.549 45.4902 0.00000 0.262553 0.228078 0.030196
313 45.4902 45.4902 100 0.314922 0.234217 0.974497
314 45.4902 45.4902 90.9804 0.280089 0.220284 0.791043
315 45.4902 45.4902 81.9608 0.249531 0.208061 0.630104
316 45.4902 45.4902 72.549 0.222023 0.197058 0.485233
317 45.4902 45.4902 63.5294 0.199677 0.18812 0.367544
318 45.4902 45.4902 54.5098 0.18107 0.180677 0.269545
319 45.4902 45.4902 45.4902 0.165997 0.174647 0.190161
320 45.4902 45.4902 36.4706 0.154235 0.169943 0.128215
321 45.4902 45.4902 27.451 0.145535 0.166463 0.082396
322 45.4902 45.4902 18.0392 0.139414 0.164014 0.050156
323 45.4902 45.4902 9.01961 0.13603 0.162661 0.032336
324 45.4902 45.4902 0.00000 0.134484 0.162042 0.024193
325 18.0392 45.4902 100 0.254156 0.202885 0.971649
326 18.0392 45.4902 90.9804 0.219323 0.188952 0.788195
327 18.0392 45.4902 81.9608 0.188765 0.176728 0.627256
328 18.0392 45.4902 72.549 0.161258 0.165726 0.482385
329 18.0392 45.4902 63.5294 0.138912 0.156787 0.364696
330 18.0392 45.4902 54.5098 0.120304 0.149344 0.266697
331 18.0392 45.4902 45.4902 0.105231 0.143315 0.187313
332 18.0392 45.4902 36.4706 0.093469 0.13861 0.125367
333 18.0392 45.4902 27.451 0.08477 0.13513 0.079547
334 18.0392 45.4902 18.0392 0.078648 0.132682 0.047308
335 18.0392 45.4902 9.01961 0.075264 0.131328 0.029487
336 18.0392 45.4902 0.00000 0.073718 0.13071 0.021345
337 100 36.4706 100 0.632035 0.36313 0.982685
338 100 36.4706 90.9804 0.597202 0.349196 0.799231
339 100 36.4706 81.9608 0.566644 0.336973 0.638292
340 100 36.4706 72.549 0.539137 0.32597 0.493421
341 100 36.4706 63.5294 0.516791 0.317032 0.375732
342 100 36.4706 54.5098 0.498183 0.309589 0.277733
343 100 36.4706 45.4902 0.48311 0.30356 0.198349
344 100 36.4706 36.4706 0.471348 0.298855 0.136403
345 100 36.4706 27.451 0.462648 0.295375 0.090583
346 100 36.4706 18.0392 0.456527 0.292927 0.058344
347 100 36.4706 9.01961 0.453143 0.291573 0.040523
348 100 36.4706 0.00000 0.451597 0.290955 0.032381
349 72.549 36.4706 100 0.419682 0.253635 0.972731
350 72.549 36.4706 90.9804 0.384849 0.239702 0.789277
351 72.549 36.4706 81.9608 0.35429 0.227479 0.628338
352 72.549 36.4706 72.549 0.326783 0.216476 0.483467
353 72.549 36.4706 63.5294 0.304437 0.207537 0.365778
354 72.549 36.4706 54.5098 0.28583 0.200094 0.267779
355 72.549 36.4706 45.4902 0.270757 0.194065 0.188395
356 72.549 36.4706 36.4706 0.258995 0.18936 0.126449
357 72.549 36.4706 27.451 0.250295 0.18588 0.080629
358 72.549 36.4706 18.0392 0.244174 0.183432 0.04839
359 72.549 36.4706 9.01961 0.24079 0.182078 0.030569
360 72.549 36.4706 0.00000 0.239244 0.18146 0.022427
361 45.4902 36.4706 100 0.291613 0.1876 0.966728
362 45.4902 36.4706 90.9804 0.25678 0.173666 0.783274
363 45.4902 36.4706 81.9608 0.226222 0.161443 0.622334
364 45.4902 36.4706 72.549 0.198715 0.15044 0.477464
365 45.4902 36.4706 63.5294 0.176369 0.141502 0.359775
366 45.4902 36.4706 54.5098 0.157761 0.134059 0.261776
367 45.4902 36.4706 45.4902 0.142688 0.12803 0.182392
368 45.4902 36.4706 36.4706 0.130926 0.123325 0.120446
369 45.4902 36.4706 27.451 0.122226 0.119845 0.074626
370 45.4902 36.4706 18.0392 0.116105 0.117396 0.042387
371 45.4902 36.4706 9.01961 0.112721 0.116043 0.024566
372 45.4902 36.4706 0.00000 0.111175 0.115425 0.016424
373 18.0392 36.4706 100 0.230847 0.156267 0.963879
374 18.0392 36.4706 90.9804 0.196014 0.142334 0.780425
375 18.0392 36.4706 81.9608 0.165456 0.130111 0.619486
376 18.0392 36.4706 72.549 0.137949 0.119108 0.474615
377 18.0392 36.4706 63.5294 0.115603 0.11017 0.356926
378 18.0392 36.4706 54.5098 0.096995 0.102727 0.258927
379 18.0392 36.4706 45.4902 0.081923 0.096697 0.179543
380 18.0392 36.4706 36.4706 0.070161 0.091993 0.117597
381 18.0392 36.4706 27.451 0.061461 0.088513 0.071778
382 18.0392 36.4706 18.0392 0.055339 0.086064 0.039538
383 18.0392 36.4706 9.01961 0.051956 0.084711 0.021718
384 18.0392 36.4706 0.00000 0.05041 0.084092 0.013575
385 100 27.451 100 0.614794 0.328648 0.976938
386 100 27.451 90.9804 0.579961 0.314715 0.793484
387 100 27.451 81.9608 0.549403 0.302492 0.632545
388 100 27.451 72.549 0.521896 0.291489 0.487674
389 100 27.451 63.5294 0.49955 0.28255 0.369985
390 100 27.451 54.5098 0.480942 0.275107 0.271986
391 100 27.451 45.4902 0.465869 0.269078 0.192602
392 100 27.451 36.4706 0.454108 0.264374 0.130656
393 100 27.451 27.451 0.445408 0.260894 0.084836
394 100 27.451 18.0392 0.439286 0.258445 0.052597
395 100 27.451 9.01961 0.435903 0.257092 0.034776
396 100 27.451 0.00000 0.434357 0.256473 0.026634
397 72.549 27.451 100 0.402441 0.219153 0.966984
398 72.549 27.451 90.9804 0.367608 0.20522 0.78353
399 72.549 27.451 81.9608 0.33705 0.192997 0.622591
400 72.549 27.451 72.549 0.309543 0.181994 0.47772
401 72.549 27.451 63.5294 0.287197 0.173056 0.360031
402 72.549 27.451 54.5098 0.268589 0.165613 0.262032
403 72.549 27.451 45.4902 0.253516 0.159584 0.182648
404 72.549 27.451 36.4706 0.241754 0.154879 0.120702
405 72.549 27.451 27.451 0.233054 0.151399 0.074882
406 72.549 27.451 18.0392 0.226933 0.14895 0.042643
407 72.549 27.451 9.01961 0.223549 0.147597 0.024822
408 72.549 27.451 0.00000 0.222003 0.146978 0.01668
409 45.4902 27.451 100 0.274372 0.153118 0.960981
410 45.4902 27.451 90.9804 0.239539 0.139185 0.777527
411 45.4902 27.451 81.9608 0.208981 0.126962 0.616588
412 45.4902 27.451 72.549 0.181474 0.115959 0.471717
413 45.4902 27.451 63.5294 0.159128 0.10702 0.354028
414 45.4902 27.451 54.5098 0.14052 0.099577 0.256029
415 45.4902 27.451 45.4902 0.125448 0.093548 0.176645
416 45.4902 27.451 36.4706 0.113686 0.088843 0.114699
417 45.4902 27.451 27.451 0.104986 0.085363 0.068879
418 45.4902 27.451 18.0392 0.098864 0.082915 0.03664
419 45.4902 27.451 9.01961 0.095481 0.081561 0.018819
420 45.4902 27.451 0.00000 0.093935 0.080943 0.010677
421 18.0392 27.451 100 0.213606 0.121786 0.958132
422 18.0392 27.451 90.9804 0.178773 0.107852 0.774678
423 18.0392 27.451 81.9608 0.148215 0.095629 0.613739
424 18.0392 27.451 72.549 0.120708 0.084626 0.468868
425 18.0392 27.451 63.5294 0.098362 0.075688 0.35118
426 18.0392 27.451 54.5098 0.079755 0.068245 0.25318
427 18.0392 27.451 45.4902 0.064682 0.062216 0.173796
428 18.0392 27.451 36.4706 0.05292 0.057511 0.11185
429 18.0392 27.451 27.451 0.04422 0.054031 0.066031
430 18.0392 27.451 18.0392 0.038099 0.051583 0.033791
431 18.0392 27.451 9.01961 0.034715 0.050229 0.015971
432 18.0392 27.451 0.00000 0.033169 0.049611 0.007828
433 100 18.0392 100 0.602663 0.304387 0.972894
434 100 18.0392 90.9804 0.56783 0.290453 0.78944
435 100 18.0392 81.9608 0.537272 0.27823 0.628501
436 100 18.0392 72.549 0.509765 0.267227 0.48363
437 100 18.0392 63.5294 0.487419 0.258289 0.365942
438 100 18.0392 54.5098 0.468812 0.250846 0.267943
439 100 18.0392 45.4902 0.453739 0.244817 0.188559
440 100 18.0392 36.4706 0.441977 0.240112 0.126612
441 100 18.0392 27.451 0.433277 0.236632 0.080793
442 100 18.0392 18.0392 0.427155 0.234183 0.048553
443 100 18.0392 9.01961 0.423772 0.23283 0.030733
444 100 18.0392 0.00000 0.422226 0.232212 0.02259
445 72.549 18.0392 100 0.39031 0.194892 0.96294
446 72.549 18.0392 90.9804 0.355477 0.180959 0.779486
447 72.549 18.0392 81.9608 0.324919 0.168735 0.618547
448 72.549 18.0392 72.549 0.297412 0.157733 0.473676
449 72.549 18.0392 63.5294 0.275066 0.148794 0.355988
450 72.549 18.0392 54.5098 0.256458 0.141351 0.257988
451 72.549 18.0392 45.4902 0.241385 0.135322 0.178604
452 72.549 18.0392 36.4706 0.229624 0.130617 0.116658
453 72.549 18.0392 27.451 0.220924 0.127137 0.070839
454 72.549 18.0392 18.0392 0.214802 0.124689 0.038599
