Created_Profiles/.ti2
CTI2   

DESCRIPTOR "Argyll Calibration Target chart information 2"
ORIGINATOR "Argyll printtarg"
CREATED "Sat Feb  7 18:27:21 2026"
TARGET_INSTRUMENT "X-Rite ColorMunki"
COMP_GREY_STEPS "72"
ACCURATE_EXPECTED_VALUES "true"
APPROX_WHITE_POINT "95.053991 99.997087 108.929552"
TOTAL_INK_LIMIT "400.0"
COLOR_REP "iRGB"
PAPER_SIZE "210.0x297.0"
RANDOM_START "489"
STEPS_IN_PASS "18"
PASSES_IN_STRIPS2 "17,17"
STRIP_INDEX_PATTERN "A-Z, A-Z"
PATCH_INDEX_PATTERN "0-9,@-9,@-9;1-999"
INDEX_ORDER "STRIP_THEN_PATCH"

NUMBER_OF_FIELDS 8
BEGIN_DATA_FORMAT
SAMPLE_ID SAMPLE_LOC RGB_R RGB_G RGB_B XYZ_X XYZ_Y XYZ_Z 
END_DATA_FORMAT

NUMBER_OF_SETS 612
BEGIN_DATA
1 "D12" 100.0000 100.0000 100.0000 95.05399 99.99709 108.9296 
2 "K7" 100.0000 100.0000 100.0000 95.05399 99.99709 108.9296 
3 "C6" 100.0000 100.0000 100.0000 95.05399 99.99709 108.9296 
4 "AH8" 100.0000 100.0000 100.0000 95.05399 99.99709 108.9296 
5 "K5" 100.0000 100.0000 100.0000 95.05399 99.99709 108.9296 
6 "G5" 100.0000 100.0000 100.0000 95.05399 99.99709 108.9296 
7 "O6" 0.00000 0.00000 0.00000 0.00000 0.00000 0.00000 
8 "M7" 0.00000 0.00000 0.00000 0.00000 0.00000 0.00000 
9 "N3" 0.00000 0.00000 0.00000 0.00000 0.00000 0.00000 
10 "K15" 0.00000 0.00000 0.00000 0.00000 0.00000 0.00000 
11 "AB16" 0.00000 0.00000 0.00000 0.00000 0.00000 0.00000 
12 "M18" 0.00000 0.00000 0.00000 0.00000 0.00000 0.00000 
13 "U14" 98.59159 98.59159 98.59159 92.03650 96.82268 105.4716 
14 "A4" 97.18318 97.18318 97.18318 89.07623 93.70847 102.0792 
15 "H2" 95.77478 95.77478 95.77478 86.17174 90.65293 98.75070 
16 "O4" 94.36637 94.36637 94.36637 83.32354 87.65662 95.48674 
17 "R6" 92.95796 92.95796 92.95796 80.53144 84.71932 92.28706 
18 "T16" 91.54955 91.54955 91.54955 77.79446 81.84000 89.15055 
19 "AC11" 90.14115 90.14115 90.14115 75.11185 79.01790 86.07635 
20 "V7" 88.73274 88.73274 88.73274 72.48463 76.25405 83.06562 
21 "R14" 87.32433 87.32433 87.32433 69.91153 73.54714 80.11690 
22 "T5" 85.91592 85.91592 85.91592 67.39274 70.89737 77.23043 
23 "P6" 84.50752 84.50752 84.50752 64.92756 68.30399 74.40540 
24 "W13" 83.09911 83.09911 83.09911 62.51537 65.76636 71.64109 
25 "G11" 81.69070 81.69070 81.69070 60.15705 63.28540 68.93851 
26 "L10" 80.28229 80.28229 80.28229 57.85146 60.85991 66.29636 
27 "AD5" 78.87388 78.87388 78.87388 55.59729 58.48851 63.71313 
28 "T7" 77.46548 77.46548 77.46548 53.39665 56.17344 61.19126 
29 "N12" 76.05707 76.05707 76.05707 51.24626 53.91122 58.72696 
30 "AG4" 74.64714 74.64714 74.64714 49.14806 51.70390 56.32247 
31 "F16" 73.23873 73.23873 73.23873 47.10017 49.54952 53.97564 
32 "W2" 71.83032 71.83032 71.83032 45.10397 47.44951 51.68805 
33 "J10" 70.42191 70.42191 70.42191 43.15739 45.40170 49.45731 
34 "O10" 69.01350 69.01350 69.01350 41.26080 43.40648 47.28387 
35 "AA15" 67.60510 67.60510 67.60510 39.41356 41.46319 45.16698 
36 "A10" 66.19669 66.19669 66.19669 37.61513 39.57123 43.10602 
37 "AB6" 64.78828 64.78828 64.78828 35.86693 37.73212 41.10263 
38 "L12" 63.37987 63.37987 63.37987 34.16551 35.94222 39.15284 
39 "T2" 61.97147 61.97147 61.97147 32.51257 34.20333 37.25862 
40 "N10" 60.56306 60.56306 60.56306 30.90842 32.51575 35.42029 
41 "AB10" 59.15465 59.15465 59.15465 29.34992 30.87620 33.63429 
42 "V11" 57.74624 57.74624 57.74624 27.83920 29.28693 31.90305 
43 "A17" 56.33783 56.33783 56.33783 26.37366 27.74517 30.22356 
44 "AF9" 54.92943 54.92943 54.92943 24.95507 26.25281 28.59790 
45 "AF13" 53.52102 53.52102 53.52102 23.58237 24.80873 27.02482 
46 "E4" 52.11261 52.11261 52.11261 22.25410 23.41139 25.50266 
47 "P14" 50.70420 50.70420 50.70420 20.97070 22.06124 24.03191 
48 "O14" 49.29580 49.29580 49.29580 19.73189 20.75801 22.61226 
49 "I4" 47.88739 47.88739 47.88739 18.53606 19.49999 21.24187 
50 "AF11" 46.47898 46.47898 46.47898 17.38390 18.28792 19.92153 
51 "AE15" 45.07057 45.07057 45.07057 16.27480 17.12113 18.65052 
52 "E14" 43.66217 43.66217 43.66217 15.20791 15.99877 17.42789 
53 "Y8" 42.25376 42.25376 42.25376 14.18401 14.92162 16.25453 
54 "P16" 40.84535 40.84535 40.84535 13.20019 13.88664 15.12709 
55 "A6" 39.43694 39.43694 39.43694 12.25790 12.89535 14.04725 
56 "N8" 38.02853 38.02853 38.02853 11.35569 11.94622 13.01334 
57 "Y10" 36.62013 36.62013 36.62013 10.49356 11.03926 12.02536 
58 "N6" 35.21172 35.21172 35.21172 9.671514 10.17446 11.08332 
59 "O2" 33.80331 33.80331 33.80331 8.887812 9.350005 10.18522 
60 "Q5" 32.39490 32.39490 32.39490 8.142433 8.565865 9.331030 
61 "AE5" 30.98650 30.98650 30.98650 7.434235 7.820838 8.519451 
62 "AD10" 29.57809 29.57809 29.57809 6.764667 7.116450 7.752143 
63 "P18" 28.16968 28.16968 28.16968 6.130829 6.449650 7.025780 
64 "T9" 26.76127 26.76127 26.76127 5.533823 5.821599 6.341626 
65 "R18" 25.35286 25.35286 25.35286 4.970852 5.229351 5.696474 
66 "L8" 23.94293 23.94293 23.94293 4.443610 4.674691 5.092268 
67 "AG18" 22.53452 22.53452 22.53452 3.950647 4.156093 4.527345 
68 "Z7" 21.12612 21.12612 21.12612 3.490697 3.672224 4.000253 
69 "AD17" 19.71771 19.71771 19.71771 3.063841 3.223170 3.511087 
70 "U3" 18.30930 18.30930 18.30930 2.669630 2.808459 3.059331 
71 "AF1" 16.90089 16.90089 16.90089 2.305348 2.425233 2.641872 
72 "F13" 15.49248 15.49248 15.49248 1.973158 2.075768 2.261191 
73 "AD15" 14.08408 14.08408 14.08408 1.669712 1.756542 1.913449 
74 "Y2" 12.67567 12.67567 12.67567 1.396459 1.469079 1.600307 
75 "Q1" 11.26726 11.26726 11.26726 1.150110 1.209919 1.317998 
76 "U11" 9.858854 9.858854 9.858854 0.932035 0.980503 1.068089 
77 "W7" 8.450446 8.450446 8.450446 0.739801 0.778273 0.847794 
78 "AH11" 7.042039 7.042039 7.042039 0.573349 0.603165 0.657044 
79 "F2" 5.633631 5.633631 5.633631 0.430492 0.452879 0.493333 
80 "L18" 4.225223 4.225223 4.225223 0.310903 0.327071 0.356287 
81 "F4" 2.816815 2.816815 2.816815 0.207534 0.218327 0.237829 
82 "AB18" 1.408408 1.408408 1.408408 0.103042 0.108400 0.118083 
83 "A11" 0.00000 0.00000 100.0000 18.05120 7.219365 95.07639 
84 "P15" 0.00000 100.0000 0.00000 35.76159 71.51358 11.92070 
85 "G8" 0.00000 33.13344 67.59747 10.69159 9.409518 40.48140 
86 "Y9" 100.0000 0.00000 0.00000 41.24120 21.26415 1.932463 
87 "N7" 94.20615 78.45121 19.72992 57.26166 60.12863 11.64426 
88 "AD14" 36.69337 0.00000 0.00000 4.572236 2.357466 0.214244 
89 "C7" 0.00000 100.0000 82.94499 47.58413 76.24186 74.19049 
90 "U13" 0.00000 72.32776 92.61921 32.39951 40.52563 85.63138 
91 "V10" 87.16564 0.00000 65.69772 37.23299 18.38501 38.41347 
92 "H1" 27.84466 0.00000 32.60395 4.165670 1.966596 8.374910 
93 "I5" 80.44251 0.00000 100.0000 43.26387 20.21913 96.25779 
94 "AC4" 0.00000 40.49439 0.00000 4.876739 9.752167 1.625603 
95 "C4" 54.28855 83.57977 83.09911 46.25368 57.83890 70.96696 
96 "AA6" 99.64904 54.16495 59.15465 55.59291 41.53418 34.30932 
97 "J11" 71.21843 0.00000 32.78248 20.78353 10.53280 9.245608 
98 "B4" 46.79484 37.31289 11.32982 11.97931 12.24453 2.887821 
99 "V8" 100.0000 59.20806 32.66041 53.87732 44.01739 13.90262 
100 "M5" 64.64027 25.00801 0.00000 17.30334 11.62404 1.332429 
101 "A1" 0.00000 22.16373 11.90204 1.678259 2.973997 1.737718 
102 "AC12" 72.46967 90.28916 58.57176 53.77703 69.19192 39.11564 
103 "G1" 41.91958 21.91196 30.92699 8.865486 6.498281 8.159871 
104 "X13" 73.26162 60.70192 86.52476 45.13999 39.11439 73.34641 
105 "G10" 99.83673 57.25338 83.06249 63.22710 46.48296 67.82013 
106 "S1" 74.56474 93.82925 0.00000 52.21600 72.84893 11.31182 
107 "A16" 0.00000 24.72419 83.12963 13.66223 8.311828 63.17709 
108 "Z14" 76.53315 74.48081 59.14092 46.51661 50.64485 36.53119 
109 "AB11" 100.0000 16.82155 33.01137 43.70876 23.62721 10.68513 
110 "X17" 16.21424 0.00000 1.213092 0.945066 0.485335 0.132108 
111 "AG2" 60.41962 37.31289 32.60395 19.01303 15.71556 10.24733 
112 "J3" 17.08553 19.91608 33.01137 3.802463 3.518253 8.905136 
113 "I15" 0.00000 97.25795 97.18318 50.48700 73.89832 100.2878 
114 "J17" 0.00000 43.65606 45.76486 8.913601 12.71560 18.72786 
115 "C8" 78.68009 60.92012 67.88586 43.32297 38.94575 44.83801 
116 "Q9" 72.50019 25.24910 23.12963 22.62213 14.32609 5.709518 
117 "C17" 75.08965 0.00000 3.453117 21.65494 11.15980 1.266735 
118 "C13" 50.43107 59.19585 0.00000 20.05160 26.75146 4.107720 
119 "AE18" 36.28443 77.86984 23.12657 25.58025 43.26318 11.13863 
120 "T11" 83.00298 83.05638 97.18166 67.46196 67.69302 98.19376 
121 "N15" 0.00000 48.94331 73.24178 16.25451 18.19416 49.55127 
122 "D6" 18.44358 62.14694 45.54665 16.64372 26.48386 20.80725 
123 "O17" 100.0000 77.94308 70.29068 69.77106 65.25942 51.70917 
124 "N9" 53.99405 6.938277 64.02838 17.27633 8.453550 35.50991 
125 "G9" 43.31579 53.08614 32.65888 16.77549 21.40324 11.49070 
126 "AH10" 36.07233 24.87526 59.06004 11.76820 8.099048 30.06128 
127 "J18" 53.49050 5.561913 39.99084 12.77574 6.546743 13.15869 
128 "F9" 61.10933 75.01793 83.10216 44.24681 49.18861 69.40915 
129 "V12" 98.52598 44.28168 99.21111 63.49611 39.43914 97.21187 
130 "Y15" 71.40002 52.53681 35.21935 29.66711 27.73003 13.42375 
131 "V13" 54.45487 50.49516 11.18334 18.65947 21.20109 4.241056 
132 "AA16" 85.65957 0.00000 32.61616 30.61164 15.60212 9.620522 
133 "A15" 22.16220 16.84291 5.769436 2.606191 2.613387 0.809302 
134 "Z8" 100.0000 22.66728 59.06004 48.29841 26.49098 31.68804 
135 "AB17" 42.86870 1.535058 17.17098 6.838594 3.536632 2.685388 
136 "X2" 0.00000 72.91829 80.28534 28.53478 39.48400 63.72126 
137 "P2" 81.71206 58.24979 56.33783 41.79934 36.81590 31.16108 
138 "R5" 90.83085 91.34356 49.10506 65.99037 76.81086 30.83052 
139 "AH3" 33.91165 18.28031 14.95232 5.234795 4.144616 2.368882 
140 "E1" 65.13313 40.50813 0.00000 20.62469 17.87652 2.364409 
141 "J16" 100.0000 42.83665 32.60243 48.30196 32.87711 12.01652 
142 "Z5" 80.32349 13.26925 79.32708 36.39180 18.36872 57.69841 
143 "M10" 84.78218 100.0000 88.58625 77.85309 91.62992 85.48122 
144 "AH17" 42.38346 43.87884 61.44198 18.03570 17.18050 34.12985 
145 "M15" 50.09232 64.93935 100.0000 40.47744 38.91229 100.0129 
146 "C16" 19.88861 33.53628 41.11543 7.182649 8.291262 14.54831 
147 "K18" 53.14260 32.86336 53.99405 17.79475 13.32930 25.56781 
148 "D8" 53.53170 5.627527 0.143435 10.39984 5.602045 0.544213 
149 "AG8" 37.77829 40.07172 85.22774 22.19740 17.06987 68.01609 
150 "S6" 60.11292 54.07034 45.69314 25.44591 26.21515 20.40668 
151 "X16" 30.59892 40.20600 0.212100 7.950370 11.22777 1.764209 
152 "G7" 84.73182 100.0000 100.0000 82.15176 93.34464 108.3250 
153 "AF7" 34.38163 48.74189 41.94858 13.89060 17.60693 16.57158 
154 "U17" 44.04364 61.64340 62.34531 25.06864 30.14481 37.29927 
155 "B15" 74.90501 38.87999 53.27077 30.39695 21.80237 25.84679 
156 "AG16" 27.35943 31.71893 20.19074 6.051306 7.404105 4.300277 
157 "K13" 57.61654 72.32929 92.61921 44.41942 46.72441 86.19484 
158 "U8" 47.80652 0.00000 84.51972 20.34753 9.064597 65.34142 
159 "AC17" 60.82246 52.64820 64.01007 28.72888 26.75047 38.41703 
160 "H6" 43.55993 33.40505 32.60700 11.39573 10.53690 9.649821 
161 "AA14" 63.89258 38.23453 84.39155 31.70277 21.33780 66.89058 
162 "S7" 48.47639 32.07141 97.19997 28.18028 17.02625 90.51872 
163 "R1" 0.00000 0.00000 46.00443 3.229575 1.291630 17.01030 
164 "AA3" 57.16640 39.77874 49.29580 20.25813 16.98193 21.85511 
165 "O3" 100.0000 25.06294 25.35134 44.01362 25.29807 7.513930 
166 "Q2" 63.70794 1.347372 37.59365 17.13520 8.646488 11.80338 
167 "Z3" 67.24498 69.93210 38.46647 35.09430 41.56537 17.75597 
168 "B18" 13.75143 25.23842 23.12963 3.337729 4.380666 4.805453 
169 "AE6" 89.18746 59.65515 5.728237 43.14637 38.93056 5.680030 
170 "R15" 91.16197 74.19089 45.69009 54.85106 54.98214 24.40773 
171 "W8" 32.51392 69.92905 38.46647 21.75324 34.68366 17.13026 
172 "AA11" 52.12329 86.53239 68.09644 43.03352 59.55090 49.10347 
173 "Q4" 0.00000 100.0000 56.18219 40.73979 73.50455 38.14107 
174 "R10" 78.03922 33.99710 40.85756 29.44579 19.91383 15.44324 
175 "C11" 48.40009 67.66766 29.30953 24.34912 34.46086 11.98137 
176 "R16" 10.09079 3.129625 20.41657 1.127332 0.638272 3.320371 
177 "AF8" 96.58198 38.89220 0.00000 42.58612 28.60454 3.278539 
178 "D16" 62.66575 75.40856 67.88434 40.92585 48.29972 46.76717 
179 "E16" 42.06760 38.69993 32.59785 12.09514 12.63319 10.01342 
180 "B11" 100.0000 79.63836 97.63943 79.71322 70.84635 99.10770 
181 "F7" 18.45579 9.781033 16.74983 1.952174 1.470608 2.439351 
182 "Q8" 51.44732 88.60304 100.0000 54.62136 66.41398 104.5766 
183 "M14" 96.30579 84.76081 90.14420 76.71767 74.40459 85.10842 
184 "Y5" 28.37568 8.566415 66.21958 10.13211 4.819045 37.87266 
185 "M2" 6.506447 40.93080 23.11131 5.999894 10.40563 5.822130 
186 "F14" 53.18532 15.97467 18.31083 11.38317 6.974088 3.404716 
187 "V17" 70.44785 78.72892 19.72992 40.15409 51.55318 10.88997 
188 "AE17" 36.77882 59.80774 73.51644 24.92677 28.59708 51.49707 
189 "T8" 76.97871 38.98070 73.24941 36.29057 24.35556 49.69517 
190 "AC18" 46.45304 91.36034 49.10506 40.38047 63.62519 29.63415 
191 "P8" 27.38231 28.77546 51.94934 9.118256 7.789212 23.02786 
192 "X12" 78.59159 86.52628 70.89036 58.01051 67.18450 53.51826 
193 "T4" 28.78462 82.21714 73.26925 34.69285 50.93028 54.93906 
194 "E10" 61.32601 100.0000 34.82261 51.34135 79.33898 22.01953 
195 "O7" 0.00000 16.22950 49.46365 4.580716 3.121688 20.14947 
196 "R3" 55.59167 72.25605 51.20623 32.37740 41.74200 27.68034 
197 "S16" 47.80194 35.07591 23.41955 12.42927 11.67171 5.835866 
198 "A9" 66.28214 3.137255 21.96536 17.16776 8.898343 4.556897 
199 "H3" 70.37461 65.30251 0.00000 32.42800 37.09995 5.453427 
200 "Z16" 27.76074 60.61952 67.88586 21.78923 27.65396 43.79256 
201 "K11" 37.07790 13.30434 32.61311 6.810571 4.175923 8.666789 
202 "E5" 100.0000 0.00000 99.75280 59.19140 28.44312 96.47692 
203 "J5" 18.75792 9.361410 37.59213 3.640026 2.114308 11.25212 
204 "AE9" 79.21416 83.88342 89.84817 62.53940 66.26088 83.72910 
205 "AC16" 94.55253 92.37049 0.00000 66.17910 78.44651 11.65689 
206 "H14" 24.88441 0.00000 0.00000 2.078961 1.071921 0.0974151 
207 "I17" 0.00000 82.70848 53.84298 27.80968 48.35328 31.65529 
208 "Y1" 86.59648 32.30488 51.02770 36.84835 23.05267 23.67678 
209 "AD12" 47.94842 46.06546 29.54147 15.76221 17.50140 9.266531 
210 "AB14" 0.00000 1.908904 11.38628 0.274960 0.194344 1.188009 
211 "U1" 0.00000 39.63073 32.78859 6.244596 9.951621 9.902155 
212 "Y12" 62.72068 43.66827 45.76486 23.40237 20.19108 19.40773 
213 "AC5" 88.43214 50.50431 11.18334 39.24706 31.82047 5.206574 
214 "AA7" 10.11215 24.99275 0.117494 2.240895 3.854251 0.634644 
215 "AA1" 48.40620 25.03548 8.271916 10.19197 7.947242 1.711480 
216 "T13" 74.73716 92.41016 100.0000 69.32636 78.02473 106.0433 
217 "T1" 36.87190 65.31624 0.00000 18.35715 29.85498 4.796037 
218 "B10" 20.57374 68.13916 100.0000 34.58087 38.13694 100.1738 
219 "D11" 59.07073 100.0000 93.03731 63.77863 84.18695 93.22157 
220 "X6" 32.44221 68.47028 65.38186 25.74636 35.10790 41.85684 
221 "AC13" 82.80308 48.87617 38.75944 36.43967 29.34468 15.51267 
222 "AD2" 85.56039 32.66499 63.01976 38.49125 23.73019 36.14158 
223 "O11" 66.23331 24.49683 88.69917 31.84175 17.42188 73.78990 
224 "AD8" 24.26337 24.99733 0.00000 3.797776 4.657994 0.699104 
225 "AD7" 9.701686 0.00000 3.453117 0.443028 0.222843 0.272795 
226 "AC14" 58.92576 22.67491 59.06004 19.68443 11.73908 30.34757 
227 "AF4" 75.05608 37.02754 0.221256 25.62897 19.21063 2.374747 
228 "F18" 47.92859 24.59602 26.99474 10.88877 8.106154 6.595700 
229 "AD16" 83.66369 41.19173 23.11131 33.38410 24.62556 7.124690 
230 "S3" 64.18555 0.00000 100.0000 33.29416 15.07871 95.79064 
231 "D4" 96.24323 100.0000 93.03731 88.88806 97.13348 94.39813 
232 "C9" 69.77035 100.0000 73.48135 63.11347 84.57408 60.24027 
233 "U15" 33.33181 85.92203 85.91592 41.90254 57.76025 76.03715 
234 "S13" 0.00000 14.29465 61.93179 6.810066 3.754837 32.68861 
235 "F8" 90.93462 35.99451 38.03159 39.20715 25.61880 14.18734 
236 "N11" 88.20325 28.43366 11.67773 33.60884 20.79053 3.456699 
237 "R4" 41.56252 72.32319 92.61921 38.33967 43.58510 85.90909 
238 "AF10" 34.15274 20.45930 100.0000 23.22559 11.72104 95.67281 
239 "AH15" 65.91897 46.85893 64.06195 29.46829 24.30330 37.96768 
240 "H16" 40.72938 45.75570 53.42794 16.47863 17.36622 25.87367 
241 "AF14" 73.98642 0.00000 84.51972 33.23846 15.71122 65.94546 
242 "V16" 78.26352 67.66003 63.08080 44.98089 44.49574 39.88042 
243 "AE11" 0.00000 29.40414 47.61730 5.992413 6.420158 19.15376 
244 "H10" 74.00320 57.44717 21.59457 31.96038 31.76713 8.071872 
245 "T10" 71.74334 22.65507 59.06004 26.57153 15.28639 30.66956 
246 "P12" 36.95735 31.54498 40.45472 9.998501 9.176787 14.12242 
247 "AH5" 64.86763 56.98787 100.0000 43.82931 35.61113 99.19912 
248 "H13" 0.00000 74.14359 73.24025 27.15714 39.99751 53.18238 
249 "AH6" 84.06806 48.65492 47.51812 38.51984 30.17152 21.94372 
250 "D1" 30.54551 21.93027 25.26741 5.481134 4.810895 5.556100 
251 "G12" 63.68963 0.00000 11.52972 15.21030 7.816262 1.896816 
252 "N16" 37.10231 59.06310 31.04143 17.10052 24.98522 11.35030 
253 "C18" 30.52720 25.22927 21.24514 5.651563 5.585590 4.293158 
254 "C15" 66.64988 17.55550 6.092927 17.58903 10.43836 1.561159 
255 "W5" 99.44915 30.56077 84.68910 55.83571 31.39211 68.07364 
256 "Y11" 0.00000 80.30060 38.46647 23.98580 44.43101 18.89453 
257 "L13" 66.50797 13.98642 66.21805 24.26007 12.60340 38.62945 
258 "Y17" 66.82231 40.03510 25.03090 22.34497 18.47987 7.216943 
259 "G13" 95.40551 63.46838 100.0000 68.00607 52.11170 101.1108 
260 "AB8" 29.69253 40.06256 40.68818 10.21115 12.05205 14.82352 
261 "L14" 66.44236 59.09972 36.31495 29.43316 31.30431 14.75965 
262 "AB13" 9.112688 13.32570 0.00000 0.930135 1.327597 0.207276 
263 "AG3" 42.56504 31.44579 81.68460 20.55575 13.55574 61.41538 
264 "Q15" 89.90463 73.37148 57.75387 55.47580 54.39710 35.30270 
265 "C10" 67.28923 33.80636 33.80331 21.95553 16.08884 10.79774 
266 "AB15" 52.37659 9.893950 28.62898 11.31737 6.219482 6.911035 
267 "A7" 46.00900 0.00000 100.0000 25.43109 11.02447 95.42219 
268 "U18" 81.84634 9.402609 21.27413 27.21090 14.43641 4.875487 
269 "Q11" 73.83383 92.33387 42.04013 53.31162 71.46470 24.95664 
270 "E11" 92.73976 86.97185 61.73648 66.94164 72.48872 42.56632 
271 "AB3" 0.00000 38.37034 96.72389 21.08826 15.39867 89.59391 
272 "E2" 0.00000 51.09483 64.54871 14.77782 18.74400 38.25649 
273 "B1" 40.94759 16.34699 49.46365 10.34908 6.111603 20.42285 
274 "Y6" 38.69841 42.85954 37.57382 12.71417 14.47516 13.14862 
275 "L6" 26.48356 40.31281 23.11284 7.970121 11.18731 5.870154 
276 "L3" 100.0000 69.92752 82.89921 69.03299 57.95034 69.45234 
277 "R8" 79.51324 70.69657 81.15206 52.19764 49.91842 65.89477 
278 "Q14" 69.82223 100.0000 100.0000 72.18394 88.20519 107.8579 
279 "B9" 79.58648 88.22766 84.32593 63.80722 71.43457 74.75784 
280 "AB5" 8.590829 26.98558 70.31815 10.61452 7.669408 43.74638 
281 "I11" 67.01762 79.63073 40.83467 40.64885 52.38617 21.10621 
282 "AF6" 85.64431 21.04982 16.90547 30.77480 17.75266 4.101850 
283 "J7" 61.90280 0.00000 0.00000 14.07143 7.255294 0.659353 
284 "L5" 31.96460 48.26276 77.75235 20.75346 20.04324 56.37786 
285 "C14" 59.35149 62.17441 72.44373 33.87734 34.74368 50.68599 
286 "J1" 34.38926 30.02823 15.67864 7.002616 7.460868 3.077422 
287 "AF2" 69.12947 31.72808 20.19074 21.51225 15.37809 5.025177 
288 "B8" 69.65133 100.0000 55.80835 58.93950 82.89671 38.61854 
289 "S4" 68.85786 54.11002 47.98047 30.43301 28.76780 22.48108 
290 "Z9" 54.85466 59.61242 49.79171 25.85499 29.55624 24.41706 
291 "X14" 75.79309 24.95003 0.00000 23.87520 15.00005 1.637963 
292 "H5" 15.43450 0.00000 79.09361 11.47519 4.687740 56.00067 
293 "AH1" 13.40047 19.05852 24.25879 2.612641 2.852331 4.951569 
294 "L16" 36.45686 40.33112 17.44411 9.809497 12.17984 4.265597 
295 "I13" 57.11147 0.00000 76.99702 21.79312 10.07958 53.24067 
296 "M11" 11.30541 88.31617 98.84031 45.06222 61.24576 101.6043 
297 "AE7" 63.53399 73.23720 73.23873 41.56627 46.69388 53.71587 
298 "AA18" 76.51179 24.56703 49.29122 28.03774 16.63242 21.37446 
299 "M8" 69.84207 63.83154 27.09850 32.51776 36.01957 10.88844 
300 "D5" 53.15938 42.78325 72.56275 24.32221 19.65911 48.44444 
301 "K14" 85.38186 59.31182 32.66041 41.51105 37.70451 13.33537 
302 "AB1" 53.98795 25.43679 18.40085 12.82124 9.345388 3.810621 
303 "AB7" 91.61669 11.77081 44.86305 37.33342 19.58502 17.85769 
304 "U5" 100.0000 31.25658 46.83757 47.44468 28.30020 20.55890 
305 "N5" 0.00000 64.84779 18.01938 14.01355 27.23579 7.099988 
306 "X5" 76.91920 43.35851 65.21553 35.35192 25.79515 39.34834 
307 "AD6" 76.66743 76.04334 32.87861 43.50335 50.84986 15.88075 
308 "V6" 69.70016 68.13001 100.0000 51.43679 46.82183 100.9624 
309 "S10" 41.57168 34.30076 38.03159 11.54823 10.81943 12.78807 
310 "F1" 11.82879 90.69200 29.61929 30.47972 58.08889 16.36117 
311 "F11" 0.00000 35.65881 42.04623 6.400789 8.535585 15.28448 
312 "V18" 15.51690 22.76493 15.67559 2.756554 3.626407 2.560071 
313 "W9" 29.66659 33.33791 44.84169 9.259645 9.243320 17.32425 
314 "M6" 30.43717 13.34401 0.00000 3.683363 2.749216 0.336680 
315 "G18" 44.02533 19.92370 66.88029 15.19961 8.736428 39.19730 
316 "AG13" 100.0000 66.93370 52.55818 60.04904 51.98789 29.44075 
317 "AD4" 100.0000 76.88716 35.17662 62.82957 61.50270 18.17203 
318 "AE1" 37.20607 12.06378 14.48386 5.523453 3.527720 2.134848 
319 "A2" 36.29511 0.00000 22.18662 5.197237 2.595501 4.044403 
320 "K16" 62.61997 22.88548 33.01289 17.57282 11.14695 9.653613 
321 "AD13" 90.50889 10.46464 59.06157 38.82945 19.94953 30.92469 
322 "Z13" 41.53964 62.13016 88.38025 31.87857 33.11528 76.23242 
323 "W4" 51.72198 38.02548 32.60243 15.33736 14.06669 10.12162 
324 "U12" 38.92729 37.97971 0.00000 9.435515 11.18860 1.662768 
325 "J12" 94.46403 100.0000 75.04540 81.44282 93.97456 63.36562 
326 "P17" 53.89181 80.54170 0.00000 32.31025 49.19660 7.794643 
327 "E6" 53.30434 55.27581 29.01656 20.89580 24.75772 10.15747 
328 "V9" 22.75425 36.29816 59.05089 11.17483 10.87231 30.61834 
329 "T14" 43.55840 13.32723 0.00000 7.136710 4.527942 0.498141 
330 "B6" 0.00000 93.64462 85.40780 43.43568 66.65665 76.78413 
331 "R2" 87.81720 77.82101 100.0000 69.06823 63.64602 103.2814 
332 "Z10" 73.92233 31.51598 81.95163 35.26583 21.14985 62.54886 
333 "I1" 83.12810 79.95880 13.23568 48.99974 57.24233 9.963650 
334 "AH7" 51.03380 92.41779 97.18471 56.04432 71.31642 99.49854 
335 "I6" 52.80995 49.70016 73.21736 26.43246 23.80840 50.06334 
336 "M16" 76.51179 66.26688 49.31258 40.46765 41.48311 25.53565 
337 "E18" 27.31212 29.98550 25.35134 6.060913 6.899295 5.961267 
338 "AG12" 45.49783 0.00000 43.09606 10.01385 4.838299 15.13177 
339 "Y13" 72.90608 97.94003 30.97429 55.74736 79.20094 19.74799 
340 "N4" 50.63249 16.38819 23.12657 10.67975 6.632851 4.852489 
341 "Y7" 91.63195 16.87037 5.769436 34.77112 19.20156 2.317208 
342 "P5" 100.0000 54.05814 48.56794 53.93727 40.84754 24.06803 
343 "N13" 0.00000 64.86458 38.46952 15.73804 27.93721 16.14681 
344 "G2" 76.91920 0.00000 66.14481 29.93377 14.60920 38.62636 
345 "I10" 76.43244 38.00107 32.87404 28.34066 20.75921 10.86884 
346 "H12" 87.28161 67.90875 90.64012 59.71910 51.34821 82.48531 
347 "S8" 51.30388 33.15175 38.03159 14.70264 12.09915 12.86871 
348 "Q7" 70.80186 55.77173 31.03990 30.07258 29.74649 11.58600 
349 "I9" 0.00000 29.65438 42.04013 5.223095 6.181664 14.88837 
350 "X8" 15.43450 29.41634 15.67864 3.750366 5.625310 2.894454 
351 "L7" 29.66506 0.00000 47.76074 6.452493 2.922101 18.57306 
352 "AB2" 0.00000 12.80537 33.63394 2.204784 1.736498 8.976761 
353 "AC9" 64.41291 71.57092 28.39551 33.37851 42.05476 12.56237 
354 "AA2" 43.89105 100.0000 72.87709 51.28038 78.49190 58.82752 
355 "Z4" 69.59792 78.35508 91.53887 53.62073 56.52736 85.51777 
356 "K1" 27.20226 50.40360 0.00000 10.26904 16.85378 2.712416 
357 "O5" 74.82261 45.40932 20.57527 28.28802 23.74672 6.398747 
358 "D15" 77.94003 28.86244 17.24269 26.36315 17.13527 4.299980 
359 "P10" 10.61418 8.116274 0.00000 0.716186 0.759010 0.108790 
360 "AH9" 78.98680 22.91600 30.92699 27.14174 16.11025 9.052651 
361 "Q6" 0.00000 49.71237 97.18318 24.47535 21.88239 91.61591 
362 "O16" 0.00000 65.57565 56.33783 18.86737 29.71732 30.99896 
363 "S12" 69.46822 60.97810 62.34531 36.22651 35.47397 37.74067 
364 "P7" 100.0000 70.41123 38.46647 59.68163 54.60598 18.97829 
