Created_Profiles/.ti3
CTI3   

DESCRIPTOR "Argyll Calibration Target chart information 3"
ORIGINATOR "Argyll chartread"
CREATED "Sat Feb  7 22:27:36 2026"
DEVICE_CLASS "OUTPUT"
COMP_GREY_STEPS "72"
TOTAL_INK_LIMIT "400.0"
COLOR_REP "iRGB_XYZ"
TARGET_INSTRUMENT "X-Rite ColorMunki"
DEVCALSTD "XRGA"
SPECTRAL_BANDS "106"
SPECTRAL_START_NM "380.000000"
SPECTRAL_END_NM "730.000000"

NUMBER_OF_FIELDS 114
BEGIN_DATA_FORMAT
SAMPLE_ID SAMPLE_LOC RGB_R RGB_G RGB_B XYZ_X XYZ_Y XYZ_Z SPEC_380 SPEC_383 SPEC_387 SPEC_390 SPEC_393 SPEC_397 SPEC_400 SPEC_403 SPEC_407 SPEC_410 SPEC_413 SPEC_417 SPEC_420 SPEC_423 SPEC_427 SPEC_430 SPEC_433 SPEC_437 SPEC_440 SPEC_443 SPEC_447 SPEC_450 SPEC_453 SPEC_457 SPEC_460 SPEC_463 SPEC_467 SPEC_470 SPEC_473 SPEC_477 SPEC_480 SPEC_483 SPEC_487 SPEC_490 SPEC_493 SPEC_497 SPEC_500 SPEC_503 SPEC_507 SPEC_510 SPEC_513 SPEC_517 SPEC_520 SPEC_523 SPEC_527 SPEC_530 SPEC_533 SPEC_537 SPEC_540 SPEC_543 SPEC_547 SPEC_550 SPEC_553 SPEC_557 SPEC_560 SPEC_563 SPEC_567 SPEC_570 SPEC_573 SPEC_577 SPEC_580 SPEC_583 SPEC_587 SPEC_590 SPEC_593 SPEC_597 SPEC_600 SPEC_603 SPEC_607 SPEC_610 SPEC_613 SPEC_617 SPEC_620 SPEC_623 SPEC_627 SPEC_630 SPEC_633 SPEC_637 SPEC_640 SPEC_643 SPEC_647 SPEC_650 SPEC_653 SPEC_657 SPEC_660 SPEC_663 SPEC_667 SPEC_670 SPEC_673 SPEC_677 SPEC_680 SPEC_683 SPEC_687 SPEC_690 SPEC_693 SPEC_697 SPEC_700 SPEC_703 SPEC_707 SPEC_710 SPEC_713 SPEC_717 SPEC_720 SPEC_723 SPEC_727 SPEC_730 
END_DATA_FORMAT

NUMBER_OF_SETS 596
BEGIN_DATA
1 "D12" 100.0000 100.0000 100.0000 76.62878 79.01605 68.43618 73.48695 73.48695 73.48695 73.48695 73.48695 73.48695 73.48695 73.50985 73.51228 73.45832 73.31212 73.26679 73.51576 75.81763 77.97161 79.77951 80.94003 81.64719 82.10798 82.47539 82.81044 83.15461 83.54385 83.95527 84.37926 84.76011 85.08825 85.42575 85.73190 85.92623 86.05684 85.99830 85.77305 85.45916 84.99018 84.53104 84.08118 83.62337 83.16323 82.73146 82.32072 81.91619 81.46393 80.96170 80.45076 79.95839 79.51538 79.07430 78.65578 78.26157 77.87763 77.48881 77.08542 76.71761 76.42030 76.24778 76.14820 76.05786 75.92489 75.79450 75.71160 75.72719 75.81290 75.95064 76.11837 76.33934 76.63298 77.01885 77.48429 78.02923 78.66994 79.40372 80.20705 81.05993 81.96701 82.93658 83.94069 84.93334 85.87737 86.75648 87.58089 88.34556 89.07626 89.74628 90.36258 90.92098 91.39481 91.80265 92.14321 92.48235 92.74825 92.97145 93.17290 93.37246 93.60955 93.83394 94.03153 94.21975 94.49498 94.63262 94.63275 94.71114 94.73186 94.77083 94.76562 94.96558 
2 "K7" 100.0000 100.0000 100.0000 76.39831 78.77306 68.22127 72.79316 72.79316 72.79316 72.79316 72.79316 72.79316 72.79316 72.81555 72.81764 72.76387 72.61872 72.57347 72.81975 75.15856 77.31411 79.17347 80.39636 81.16086 81.69869 82.17819 82.61763 83.05795 83.50065 83.92260 84.32906 84.69313 85.02159 85.32997 85.60176 85.76472 85.85018 85.70455 85.44434 85.05172 84.59738 84.15023 83.68698 83.24171 82.82356 82.42685 82.02605 81.62289 81.17848 80.67753 80.16431 79.68264 79.24588 78.81634 78.40562 78.00901 77.62893 77.25325 76.85841 76.50010 76.21649 76.05436 75.96191 75.88270 75.75702 75.62459 75.53530 75.54351 75.62018 75.73999 75.89871 76.11417 76.40893 76.78409 77.21867 77.74299 78.37913 79.11505 79.91124 80.76074 81.67398 82.64379 83.64483 84.64892 85.61154 86.49451 87.32887 88.11937 88.86272 89.56519 90.20464 90.74066 91.21567 91.62548 91.96055 92.29088 92.58033 92.80503 92.99549 93.21110 93.48975 93.73593 93.99214 94.13196 94.32714 94.45043 94.56331 94.64687 94.56903 94.56476 94.66997 94.79697 
3 "C6" 100.0000 100.0000 100.0000 76.45639 78.82428 68.68319 73.80484 73.80484 73.80484 73.80484 73.80484 73.80484 73.80484 73.82804 73.83068 73.77671 73.63009 73.58479 73.83509 76.17804 78.36838 80.16226 81.33429 82.05687 82.51093 82.85339 83.16164 83.48743 83.84813 84.24275 84.66911 85.04448 85.41397 85.72839 86.00752 86.25181 86.36494 86.28047 86.05134 85.64301 85.15247 84.62161 84.07413 83.57181 83.08400 82.59234 82.14760 81.71962 81.26825 80.76033 80.24654 79.76738 79.31510 78.87725 78.46325 78.06784 77.67989 77.28955 76.88644 76.51698 76.21768 76.03964 75.94037 75.84972 75.71444 75.58299 75.49583 75.50513 75.58493 75.71156 75.87163 76.08784 76.37733 76.74549 77.18980 77.74139 78.38688 79.10712 79.89562 80.73781 81.64347 82.61900 83.61720 84.60234 85.53529 86.40739 87.23485 88.00243 88.72946 89.40898 90.02852 90.57921 91.02512 91.40885 91.75630 92.07917 92.36979 92.58255 92.79369 93.00954 93.21989 93.45669 93.69122 93.83822 94.03930 94.15780 94.21859 94.24652 94.29118 94.44696 94.52890 94.62017 
4 "AH8" 100.0000 100.0000 100.0000 76.37557 78.91448 67.31540 72.14749 72.14749 72.14749 72.14749 72.14749 72.14749 72.14749 72.16946 72.17130 72.11779 71.97368 71.92859 72.17241 74.42883 76.56494 78.31671 79.45127 80.16628 80.60353 80.95098 81.26770 81.60292 81.97332 82.40031 82.82414 83.23583 83.60961 83.98077 84.37789 84.63803 84.78872 84.82803 84.69565 84.49353 84.25534 84.00237 83.72987 83.40697 83.01946 82.64487 82.26275 81.87008 81.44816 80.97341 80.47746 79.99291 79.51653 79.07494 78.66598 78.26557 77.86799 77.47391 77.06280 76.69167 76.40693 76.24486 76.15012 76.06566 75.94002 75.81137 75.71695 75.72376 75.81164 75.94090 76.11553 76.33610 76.60585 76.95493 77.37163 77.89750 78.53285 79.23111 80.00941 80.85698 81.75927 82.71952 83.72869 84.73283 85.69943 86.56588 87.40537 88.20877 88.95838 89.64414 90.27029 90.83633 91.29614 91.69158 92.04073 92.34908 92.62483 92.82837 93.06463 93.27742 93.51505 93.81165 94.05373 94.26906 94.35541 94.48205 94.58351 94.63742 94.62982 94.67062 94.91712 95.07271 
5 "K5" 100.0000 100.0000 100.0000 75.98712 78.30074 68.22838 72.68118 72.68118 72.68118 72.68118 72.68118 72.68118 72.68118 72.70360 72.70577 72.65217 72.50733 72.46224 72.70825 75.11949 77.35896 79.25292 80.48124 81.25010 81.79374 82.27169 82.71936 83.16823 83.61086 84.01311 84.40162 84.71599 85.00556 85.31252 85.59100 85.71641 85.79617 85.67346 85.41795 84.94690 84.40781 83.88485 83.38899 82.92466 82.45065 82.01691 81.59025 81.16225 80.70887 80.19866 79.68776 79.20262 78.75344 78.31053 77.89616 77.50416 77.11821 76.73518 76.34184 75.97776 75.69008 75.52707 75.43439 75.35564 75.22742 75.09885 75.01360 75.02037 75.09383 75.21019 75.36369 75.58079 75.87749 76.26533 76.70775 77.23319 77.87113 78.60404 79.40410 80.25875 81.18336 82.16202 83.18899 84.20393 85.16450 86.06225 86.92164 87.73434 88.48462 89.18950 89.81611 90.36744 90.87027 91.28420 91.62336 91.94474 92.23548 92.45797 92.65283 92.85123 93.13055 93.40913 93.64251 93.77121 93.98555 94.16359 94.24627 94.29294 94.28171 94.32951 94.37241 94.47586 
6 "G5" 100.0000 100.0000 100.0000 76.13870 78.50348 68.11227 72.54638 72.54638 72.54638 72.54638 72.54638 72.54638 72.54638 72.56865 72.57069 72.51707 72.37236 72.32723 72.57265 75.05152 77.27524 79.10991 80.30267 81.05525 81.59013 82.07532 82.52816 82.97157 83.41082 83.83222 84.23212 84.57254 84.89201 85.17070 85.42323 85.59840 85.69781 85.54295 85.24926 84.85628 84.36626 83.89227 83.44361 83.00743 82.57028 82.13400 81.71649 81.30844 80.88139 80.39113 79.88470 79.40289 78.95740 78.54055 78.13882 77.75001 77.37017 76.99142 76.60330 76.25063 75.96323 75.80399 75.71618 75.63035 75.50446 75.37794 75.29294 75.29852 75.37729 75.50248 75.65211 75.85011 76.12375 76.49163 76.94240 77.46788 78.10400 78.82697 79.60243 80.44159 81.34168 82.29675 83.29004 84.27892 85.21226 86.07278 86.90613 87.68271 88.39963 89.06162 89.68184 90.23764 90.69905 91.08488 91.41699 91.75050 92.00991 92.23737 92.42114 92.67253 92.93138 93.15920 93.33177 93.46226 93.65723 93.72431 93.82233 93.89843 93.97923 94.16748 94.03698 94.17025 
7 "O6" 0.00000 0.00000 0.00000 2.918513 3.031379 2.365427 2.672627 2.672627 2.672627 2.672627 2.672627 2.672627 2.672627 2.673447 2.673521 2.671544 2.666211 2.664544 2.673567 2.689491 2.720127 2.749832 2.765430 2.779244 2.798009 2.814854 2.825123 2.829831 2.833521 2.835399 2.840275 2.855196 2.887840 2.907734 2.939774 2.910230 2.909150 2.942601 3.013269 3.109475 3.127644 3.170382 3.237403 3.266960 3.278015 3.280171 3.276158 3.258337 3.232115 3.209433 3.179151 3.142128 3.115547 3.091141 3.061013 3.021595 2.986599 2.947484 2.908039 2.875334 2.839955 2.810904 2.792343 2.774982 2.767256 2.767605 2.778930 2.818186 2.888431 2.966739 3.035415 3.080893 3.116530 3.142030 3.158599 3.169122 3.180184 3.195928 3.205690 3.208336 3.225323 3.238826 3.251100 3.266784 3.277163 3.297065 3.317696 3.326234 3.356592 3.382774 3.404380 3.426977 3.442384 3.460127 3.477784 3.475497 3.494383 3.478727 3.428253 3.422836 3.441655 3.490266 3.499574 3.473809 3.461348 3.448205 3.524638 3.583420 3.622352 3.652490 3.570371 3.630347 
8 "M7" 0.00000 0.00000 0.00000 2.933337 3.052762 2.305381 2.541325 2.541325 2.541325 2.541325 2.541325 2.541325 2.541325 2.542027 2.542018 2.540056 2.534901 2.533229 2.541720 2.573794 2.654599 2.674150 2.672074 2.692804 2.708752 2.727121 2.746594 2.760929 2.773110 2.780374 2.769143 2.783493 2.797687 2.791212 2.827294 2.895686 2.938254 2.908984 2.931447 3.012656 3.067199 3.128966 3.175060 3.214352 3.247921 3.269732 3.279835 3.276768 3.253769 3.225798 3.193635 3.163479 3.135460 3.110641 3.083189 3.049051 3.018392 2.983672 2.947505 2.910695 2.878464 2.851331 2.833443 2.816762 2.806608 2.809831 2.828928 2.869806 2.930596 2.998051 3.060656 3.110867 3.145849 3.165756 3.179574 3.182559 3.191991 3.217088 3.224281 3.229952 3.251648 3.271331 3.279905 3.288751 3.309375 3.329106 3.348348 3.371715 3.389007 3.401877 3.414771 3.436262 3.472761 3.491436 3.503656 3.518103 3.522433 3.525613 3.514888 3.488220 3.496049 3.501164 3.483586 3.550228 3.571604 3.570156 3.573375 3.559867 3.599707 3.659532 3.652669 3.676428 
9 "N3" 0.00000 0.00000 0.00000 2.867579 2.973833 2.338294 2.556467 2.556467 2.556467 2.556467 2.556467 2.556467 2.556467 2.557200 2.557218 2.555273 2.550116 2.548465 2.557046 2.631599 2.694578 2.705790 2.729427 2.753472 2.774596 2.792963 2.806677 2.817823 2.830071 2.845110 2.832111 2.826159 2.852586 2.859087 2.856198 2.888212 2.926005 2.964955 2.948554 3.008524 3.069683 3.114338 3.129597 3.157901 3.196120 3.211871 3.204285 3.184550 3.164436 3.136276 3.105504 3.072743 3.047641 3.018875 2.991793 2.966816 2.931589 2.898787 2.861718 2.824578 2.793868 2.768207 2.749502 2.732968 2.721068 2.723753 2.739527 2.780583 2.842970 2.907759 2.972075 3.021472 3.056764 3.086156 3.095463 3.109714 3.116643 3.126497 3.139311 3.150263 3.165171 3.178145 3.187313 3.207356 3.212007 3.223310 3.246411 3.274985 3.301785 3.321332 3.341893 3.349306 3.370881 3.374976 3.368747 3.379897 3.403346 3.401916 3.385994 3.386171 3.389451 3.376661 3.404112 3.363725 3.361035 3.415114 3.416754 3.478928 3.519672 3.536385 3.565938 3.634783 
10 "K15" 0.00000 0.00000 0.00000 3.045711 3.145342 2.451259 2.806858 2.806858 2.806858 2.806858 2.806858 2.806858 2.806858 2.807742 2.807843 2.805790 2.800214 2.798488 2.807982 2.777256 2.800496 2.847162 2.880281 2.894187 2.905824 2.925353 2.937071 2.950948 2.952360 2.957366 2.963700 2.961754 2.971900 3.026154 3.041308 2.983647 3.014641 3.046257 3.115267 3.141154 3.194250 3.239803 3.267168 3.301979 3.319216 3.346958 3.347762 3.324459 3.300586 3.270530 3.240017 3.211702 3.191110 3.171467 3.151385 3.126897 3.096799 3.071467 3.035963 3.001008 2.970310 2.946924 2.930406 2.923955 2.917868 2.916509 2.932540 2.979495 3.035505 3.092162 3.157157 3.212227 3.256166 3.286316 3.299498 3.303553 3.312704 3.337520 3.352939 3.356336 3.367535 3.382955 3.396946 3.405152 3.415865 3.429595 3.442982 3.460859 3.499771 3.534463 3.543893 3.549519 3.574506 3.582670 3.597498 3.608032 3.590069 3.588865 3.584111 3.585457 3.604371 3.629276 3.695003 3.653220 3.643026 3.681389 3.729920 3.664486 3.628787 3.625154 3.781052 3.906226 
11 "AB16" 0.00000 0.00000 0.00000 2.673512 2.772666 2.113086 2.259968 2.259968 2.259968 2.259968 2.259968 2.259968 2.259968 2.260548 2.260494 2.258702 2.254069 2.252534 2.260058 2.433575 2.461373 2.468644 2.492437 2.509334 2.516899 2.519471 2.523428 2.531324 2.542252 2.555942 2.553741 2.544495 2.533022 2.563314 2.596735 2.600894 2.637710 2.667139 2.727315 2.738226 2.804449 2.853880 2.848874 2.871926 2.926355 2.961848 2.953299 2.945925 2.938030 2.909872 2.883797 2.869099 2.838308 2.810997 2.790722 2.768398 2.739008 2.710742 2.675832 2.638080 2.611149 2.594345 2.578622 2.563898 2.553592 2.558242 2.579664 2.615241 2.676806 2.741379 2.793655 2.839143 2.866852 2.879662 2.895696 2.908337 2.917944 2.927433 2.941761 2.958120 2.964566 2.974223 2.983190 2.993651 3.014590 3.031325 3.028067 3.040845 3.055334 3.078955 3.104538 3.134010 3.158325 3.194598 3.204874 3.165121 3.156761 3.178815 3.189252 3.191991 3.202857 3.203734 3.218791 3.226393 3.165829 3.129713 3.157880 3.302873 3.345180 3.393492 3.352647 3.411669 
12 "M18" 0.00000 0.00000 0.00000 2.489389 2.581528 2.010923 2.302435 2.302435 2.302435 2.302435 2.302435 2.302435 2.302435 2.303161 2.303246 2.301564 2.296991 2.295577 2.303364 2.262712 2.296343 2.333573 2.333360 2.347893 2.365524 2.382309 2.402493 2.413969 2.420714 2.427764 2.425182 2.439302 2.442372 2.462374 2.501189 2.503444 2.508566 2.484620 2.551330 2.635193 2.648072 2.662420 2.716761 2.742548 2.769366 2.773266 2.767692 2.757178 2.738931 2.718235 2.691482 2.657741 2.634241 2.617464 2.595315 2.572839 2.551298 2.520460 2.487244 2.451411 2.425738 2.408141 2.391151 2.375762 2.370349 2.370144 2.385561 2.425454 2.481905 2.540490 2.594247 2.637708 2.665806 2.677142 2.684002 2.697015 2.705526 2.715584 2.727167 2.734105 2.745889 2.757986 2.766566 2.778465 2.790722 2.802831 2.817647 2.832650 2.854785 2.882682 2.903538 2.909583 2.925355 2.944516 2.948135 2.968849 2.965824 2.971727 2.985973 2.970526 2.947537 2.945108 2.953657 2.943194 2.956154 2.983118 3.020817 3.055537 3.094127 3.112047 3.127031 3.150554 
13 "U14" 98.59159 98.59159 98.59159 76.71091 79.09426 68.56931 73.69559 73.69559 73.69559 73.69559 73.69559 73.69559 73.69559 73.71861 73.72109 73.66704 73.52048 73.47508 73.72483 76.04222 78.23675 80.06618 81.24693 81.94977 82.35914 82.68007 82.97846 83.29661 83.64047 84.02853 84.44186 84.83250 85.17085 85.55628 85.94644 86.16050 86.23817 86.16377 85.89583 85.51355 85.07942 84.65162 84.19815 83.73525 83.27737 82.82589 82.37505 81.95744 81.51893 81.01482 80.50096 80.01917 79.56548 79.13411 78.72604 78.33149 77.94540 77.56044 77.16065 76.79479 76.50103 76.34103 76.24408 76.15051 76.02318 75.90122 75.81529 75.82219 75.90165 76.04113 76.22219 76.45032 76.72093 77.08459 77.54185 78.09407 78.75212 79.48618 80.26955 81.11673 82.02326 82.98461 83.97606 84.95543 85.90624 86.77463 87.59224 88.35971 89.08284 89.76287 90.36755 90.92101 91.35002 91.71367 92.07723 92.41275 92.70790 92.94259 93.17353 93.41043 93.62513 93.90302 94.13900 94.31800 94.40589 94.55529 94.64101 94.70021 94.84549 94.81900 95.02635 95.24475 
14 "A4" 97.18318 97.18318 97.18318 76.46704 78.84539 68.23593 73.01108 73.01108 73.01108 73.01108 73.01108 73.01108 73.01108 73.03366 73.03587 72.98207 72.83661 72.79136 73.03850 75.33687 77.48592 79.27502 80.43917 81.17636 81.70708 82.16854 82.60642 83.04013 83.45761 83.85374 84.23488 84.60101 84.94827 85.24247 85.54112 85.78521 85.88433 85.80660 85.60174 85.20490 84.74299 84.31046 83.88245 83.46029 83.04304 82.60664 82.19523 81.79282 81.33367 80.83081 80.31888 79.82076 79.36106 78.92126 78.49702 78.09434 77.69640 77.28733 76.87226 76.49618 76.19455 76.01559 75.89835 75.79615 75.66483 75.53564 75.46153 75.49678 75.61902 75.79820 75.99719 76.24418 76.55157 76.94072 77.40396 77.95605 78.60018 79.31987 80.10318 80.94615 81.85260 82.81073 83.80432 84.79325 85.74232 86.62067 87.44273 88.21539 88.94986 89.62920 90.24671 90.78694 91.26665 91.65957 91.98010 92.31394 92.60121 92.82467 93.05554 93.27373 93.49408 93.69354 93.88885 94.09243 94.28236 94.40200 94.52439 94.61641 94.62868 94.64917 94.72283 94.88502 
15 "H2" 95.77478 95.77478 95.77478 74.22664 76.71654 66.38837 70.55845 70.55845 70.55845 70.55845 70.55845 70.55845 70.55845 70.57996 70.58179 70.52948 70.38857 70.34450 70.58299 72.84332 74.97562 76.79833 77.99015 78.77104 79.33260 79.80575 80.24056 80.67243 81.11988 81.53940 81.94799 82.33147 82.68423 83.04544 83.39824 83.69681 83.82412 83.78684 83.64288 83.40794 83.07495 82.73823 82.38195 82.00473 81.59869 81.17654 80.75946 80.31905 79.82805 79.26628 78.68546 78.12401 77.59834 77.08421 76.59167 76.11272 75.63722 75.15927 74.66051 74.19373 73.80776 73.55193 73.37879 73.22487 73.05124 72.90668 72.85691 72.94005 73.12885 73.39243 73.67225 73.97825 74.32233 74.72882 75.18652 75.72286 76.35266 77.06337 77.83969 78.66515 79.55110 80.49486 81.48112 82.44951 83.36644 84.23389 85.05624 85.81665 86.55581 87.23463 87.87028 88.44011 88.89762 89.29780 89.64553 89.93708 90.17326 90.38558 90.58725 90.79680 91.03302 91.19526 91.37251 91.53768 91.72502 91.85682 91.94050 92.00987 92.14000 92.30003 92.36834 92.40963 
16 "O4" 94.36637 94.36637 94.36637 71.87886 74.30052 64.47899 68.42294 68.42294 68.42294 68.42294 68.42294 68.42294 68.42294 68.44379 68.44556 68.39482 68.25818 68.21544 68.44673 70.75930 72.86307 74.62381 75.79217 76.55122 77.11090 77.56254 77.95088 78.32707 78.72065 79.10911 79.51839 79.86855 80.23546 80.58879 80.94788 81.22925 81.39068 81.39321 81.36679 81.18027 80.86933 80.58631 80.31174 79.98405 79.58537 79.15893 78.71601 78.24606 77.71950 77.11389 76.49237 75.88982 75.32845 74.78821 74.26368 73.73523 73.20702 72.66980 72.12277 71.60428 71.16032 70.84821 70.62200 70.42849 70.23570 70.09240 70.05772 70.20251 70.50682 70.89005 71.28568 71.68840 72.09037 72.52639 72.99106 73.51810 74.12788 74.81907 75.55504 76.34411 77.20433 78.12153 79.07366 80.01794 80.91684 81.76240 82.58739 83.34537 84.06422 84.74090 85.37718 85.92401 86.38127 86.77356 87.12374 87.40986 87.65515 87.90879 88.03477 88.20369 88.43288 88.63654 88.75710 88.85908 89.06732 89.23375 89.34397 89.47451 89.55126 89.58057 89.63230 89.86044 
17 "R6" 92.95796 92.95796 92.95796 72.13771 74.58793 63.20097 67.87262 67.87262 67.87262 67.87262 67.87262 67.87262 67.87262 67.89323 67.89490 67.84449 67.70885 67.66635 67.89561 69.86965 71.73976 73.34980 74.40616 75.06835 75.46954 75.74613 75.97405 76.23577 76.57415 76.98897 77.42711 77.84398 78.29843 78.73895 79.23764 79.68670 80.00594 80.16363 80.28185 80.30918 80.28849 80.27576 80.19384 80.01807 79.76011 79.42207 79.01120 78.55095 78.03178 77.43363 76.80879 76.19370 75.61528 75.05561 74.51911 73.99145 73.46189 72.91428 72.34482 71.80616 71.34523 71.02514 70.79176 70.58496 70.38419 70.25496 70.26230 70.47729 70.85998 71.34154 71.84061 72.33189 72.81977 73.31682 73.83279 74.39407 75.03836 75.74965 76.50639 77.31564 78.17751 79.08706 80.02514 80.96141 81.86036 82.67570 83.46667 84.22972 84.94811 85.61783 86.23497 86.77794 87.23153 87.60384 87.92198 88.22021 88.48608 88.64392 88.82648 89.01152 89.19203 89.39099 89.54294 89.69167 89.82250 89.93593 89.96295 89.97168 90.12205 90.29635 90.53274 90.85862 
18 "T16" 91.54955 91.54955 91.54955 68.01754 70.09445 59.12137 63.07862 63.07862 63.07862 63.07862 63.07862 63.07862 63.07862 63.09738 63.09853 63.05126 62.92477 62.88483 63.09742 64.90116 66.64591 68.14844 69.19659 69.91352 70.39945 70.76626 71.06461 71.35311 71.69148 72.09046 72.50375 72.90370 73.32936 73.76975 74.23700 74.62313 74.88379 75.13570 75.31109 75.44421 75.54615 75.62853 75.68440 75.62622 75.41995 75.12006 74.73774 74.25076 73.67778 73.01521 72.32001 71.65215 71.02494 70.44165 69.88464 69.31399 68.73349 68.14364 67.51610 66.91192 66.38264 65.98915 65.68630 65.42874 65.20263 65.08869 65.16916 65.54002 66.16932 66.95646 67.77785 68.54356 69.21751 69.82936 70.40321 71.00559 71.65979 72.35474 73.08398 73.86426 74.68773 75.55281 76.43864 77.32012 78.18096 78.97575 79.73003 80.47583 81.17082 81.79937 82.40148 82.93442 83.36148 83.73180 84.07395 84.33726 84.56027 84.73662 84.89318 85.03782 85.16153 85.34583 85.52452 85.62552 85.67279 85.74022 85.89656 85.99082 86.07091 86.16938 86.53270 86.83017 
19 "AC11" 90.14115 90.14115 90.14115 68.70871 71.37409 59.26576 62.25576 62.25576 62.25576 62.25576 62.25576 62.25576 62.25576 62.27325 62.27332 62.22557 62.09961 62.05902 62.26765 64.20623 66.05177 67.66037 68.74573 69.51793 70.12885 70.65573 71.13468 71.58619 72.01550 72.43858 72.86790 73.28733 73.69095 74.12717 74.61717 74.99184 75.33880 75.58790 75.78512 76.05402 76.31554 76.58241 76.78862 76.90022 76.87431 76.69421 76.38005 75.95808 75.44471 74.82797 74.14772 73.47773 72.83242 72.23661 71.66483 71.07578 70.48021 69.87506 69.24146 68.62593 68.09945 67.71879 67.42757 67.16976 66.93504 66.78480 66.76910 66.98675 67.41437 67.96711 68.54651 69.10561 69.63042 70.13379 70.62381 71.16449 71.77011 72.43336 73.15622 73.92578 74.73361 75.60253 76.49974 77.39255 78.23762 79.03377 79.81569 80.54904 81.25052 81.91271 82.49653 83.04256 83.49594 83.85366 84.19391 84.46988 84.65216 84.76004 84.91532 85.11634 85.25388 85.43470 85.60008 85.71381 85.76710 85.92604 86.07205 86.15859 86.18843 86.32256 86.67649 87.10633 
20 "V7" 88.73274 88.73274 88.73274 66.55121 69.02747 55.96777 59.08611 59.08611 59.08611 59.08611 59.08611 59.08611 59.08611 59.10235 59.10205 59.05634 58.93639 58.89745 59.09498 60.74652 62.41964 63.87719 64.86446 65.56568 66.08853 66.50482 66.87359 67.22815 67.60612 68.02059 68.44407 68.88800 69.34783 69.81982 70.34643 70.85617 71.32711 71.76900 72.15539 72.57235 73.04206 73.53196 73.97646 74.24159 74.31616 74.21672 73.94186 73.52805 73.02930 72.40736 71.71699 71.02822 70.38249 69.78388 69.20147 68.61448 68.01018 67.37586 66.71792 66.08935 65.54066 65.12602 64.80364 64.53603 64.30360 64.17808 64.23596 64.57232 65.17574 65.94020 66.72807 67.45505 68.08939 68.67342 69.21641 69.77409 70.39741 71.07164 71.78213 72.53816 73.32586 74.15412 75.01576 75.86394 76.68298 77.43529 78.15666 78.86880 79.52673 80.15508 80.76301 81.29098 81.70522 82.05172 82.34316 82.58564 82.74786 82.88631 83.01140 83.15684 83.28367 83.39196 83.53569 83.68675 83.73409 83.85837 83.86114 83.87990 83.99132 84.15708 84.51355 84.88499 
21 "R14" 87.32433 87.32433 87.32433 65.39753 67.96314 55.50790 58.89103 58.89103 58.89103 58.89103 58.89103 58.89103 58.89103 58.90760 58.90770 58.86255 58.74342 58.70505 58.90237 60.51345 62.12550 63.53904 64.50813 65.18651 65.64927 65.96801 66.21346 66.46338 66.78869 67.20269 67.66616 68.14601 68.66430 69.16359 69.71614 70.29650 70.85884 71.34650 71.81954 72.27234 72.78006 73.27471 73.67396 73.90676 73.95340 73.81830 73.49767 73.04417 72.47845 71.79378 71.05403 70.31323 69.61375 68.95558 68.31257 67.65622 66.98599 66.29755 65.57353 64.87115 64.25785 63.78589 63.40975 63.09354 62.82433 62.67285 62.73021 63.09858 63.75132 64.55305 65.36757 66.12143 66.77894 67.36465 67.92325 68.50135 69.13746 69.81040 70.50957 71.24584 72.02991 72.85989 73.70815 74.53960 75.34598 76.09544 76.82331 77.53158 78.20868 78.86410 79.46693 79.97869 80.41947 80.77824 81.06093 81.28533 81.50494 81.64376 81.79818 81.94943 82.03249 82.13774 82.23377 82.31926 82.41147 82.51577 82.56461 82.66432 82.84805 83.04629 83.30781 83.68033 
22 "T5" 85.91592 85.91592 85.91592 63.67962 65.99476 54.47735 57.55364 57.55364 57.55364 57.55364 57.55364 57.55364 57.55364 57.56991 57.57008 57.52604 57.40969 57.37228 57.56522 59.18634 60.75932 62.15228 63.16395 63.88653 64.40261 64.79864 65.12733 65.43762 65.78406 66.19662 66.63261 67.05516 67.50275 67.98930 68.53065 69.04875 69.48036 69.86884 70.23471 70.64120 71.08747 71.51831 71.90881 72.14497 72.15326 71.96912 71.63161 71.14648 70.54784 69.82401 69.04810 68.28342 67.55573 66.87435 66.21907 65.54228 64.84505 64.12956 63.37134 62.64467 62.00495 61.51197 61.12032 60.79495 60.52204 60.37698 60.46406 60.89340 61.63895 62.56500 63.51976 64.38753 65.13592 65.79253 66.38568 66.97364 67.60594 68.27010 68.94502 69.67400 70.43620 71.23928 72.06639 72.89283 73.69341 74.43775 75.15720 75.87414 76.52550 77.14382 77.76031 78.28522 78.69599 79.04641 79.33706 79.54404 79.72978 79.86690 80.00075 80.08256 80.14422 80.31066 80.45250 80.53764 80.54214 80.56117 80.69099 80.80886 80.95110 81.15499 81.54288 81.99230 
