Pre-made_Targets/Patch Width 12-15mm - Intermediate (Easy with ruler)/CM-Interm-Letter-760p-2pages-w13.0mm-19x20-Short-Landscape/CM-Interm-Letter-760p-2pages-w13.0mm-19x20.ti1
CTI1   

DESCRIPTOR "Argyll Calibration Target chart information 1"
ORIGINATOR "Argyll targen"
CREATED "Thu Feb 12 21:24:17 2026"
APPROX_WHITE_POINT "95.106486 100.000000 108.844025"
COLOR_REP "iRGB"
WHITE_COLOR_PATCHES "8"
BLACK_COLOR_PATCHES "8"
COMP_GREY_STEPS "128"
IFP_PATCHES "618"

NUMBER_OF_FIELDS 7
BEGIN_DATA_FORMAT
SAMPLE_ID RGB_R RGB_G RGB_B XYZ_X XYZ_Y XYZ_Z 
END_DATA_FORMAT

NUMBER_OF_SETS 760
BEGIN_DATA
1 100.0000 100.0000 100.0000 95.10649 100.0000 108.8440 
2 100.0000 100.0000 100.0000 95.10649 100.0000 108.8440 
3 100.0000 100.0000 100.0000 95.10649 100.0000 108.8440 
4 100.0000 100.0000 100.0000 95.10649 100.0000 108.8440 
5 100.0000 100.0000 100.0000 95.10649 100.0000 108.8440 
6 100.0000 100.0000 100.0000 95.10649 100.0000 108.8440 
7 100.0000 100.0000 100.0000 95.10649 100.0000 108.8440 
8 100.0000 100.0000 100.0000 95.10649 100.0000 108.8440 
9 0.00000 0.00000 0.00000 1.000000 1.000000 1.000000 
10 0.00000 0.00000 0.00000 1.000000 1.000000 1.000000 
11 0.00000 0.00000 0.00000 1.000000 1.000000 1.000000 
12 0.00000 0.00000 0.00000 1.000000 1.000000 1.000000 
13 0.00000 0.00000 0.00000 1.000000 1.000000 1.000000 
14 0.00000 0.00000 0.00000 1.000000 1.000000 1.000000 
15 0.00000 0.00000 0.00000 1.000000 1.000000 1.000000 
16 0.00000 0.00000 0.00000 1.000000 1.000000 1.000000 
17 99.21260 99.21260 99.21260 93.42961 98.23592 106.9224 
18 98.42520 98.42520 98.42520 91.77029 96.49032 105.0208 
19 97.63780 97.63780 97.63780 90.12848 94.76313 103.1393 
20 96.85039 96.85039 96.85039 88.50412 93.05431 101.2779 
21 96.06299 96.06299 96.06299 86.89716 91.36379 99.43632 
22 95.27559 95.27559 95.27559 85.30756 89.69153 97.61466 
23 94.48819 94.48819 94.48819 83.73524 88.03745 95.81282 
24 93.70079 93.70079 93.70079 82.18017 86.40152 94.03074 
25 92.91339 92.91339 92.91339 80.64228 84.78366 92.26835 
26 92.12598 92.12598 92.12598 79.12152 83.18382 90.52559 
27 91.33858 91.33858 91.33858 77.61783 81.60194 88.80240 
28 90.55118 90.55118 90.55118 76.13117 80.03797 87.09872 
29 89.76378 89.76378 89.76378 74.66147 78.49185 85.41448 
30 88.97638 88.97638 88.97638 73.20868 76.96352 83.74961 
31 88.18898 88.18898 88.18898 71.77274 75.45291 82.10406 
32 87.40157 87.40157 87.40157 70.35360 73.95997 80.47775 
33 86.61417 86.61417 86.61417 68.95120 72.48465 78.87063 
34 85.82677 85.82677 85.82677 67.56549 71.02687 77.28263 
35 85.03937 85.03937 85.03937 66.19639 69.58659 75.71368 
36 84.25197 84.25197 84.25197 64.84387 68.16374 74.16371 
37 83.46457 83.46457 83.46457 63.50786 66.75825 72.63267 
38 82.67717 82.67717 82.67717 62.18830 65.37007 71.12048 
39 81.88976 81.88976 81.88976 60.88513 63.99914 69.62708 
40 81.10236 81.10236 81.10236 59.59830 62.64540 68.15240 
41 80.31496 80.31496 80.31496 58.32775 61.30878 66.69637 
42 79.52756 79.52756 79.52756 57.07341 59.98921 65.25893 
43 78.74016 78.74016 78.74016 55.83523 58.68665 63.84000 
44 77.95276 77.95276 77.95276 54.61315 57.40102 62.43952 
45 77.16535 77.16535 77.16535 53.40710 56.13226 61.05742 
46 76.37795 76.37795 76.37795 52.21703 54.88030 59.69362 
47 75.59055 75.59055 75.59055 51.04288 53.64509 58.34807 
48 74.80315 74.80315 74.80315 49.88458 52.42656 57.02068 
49 74.01575 74.01575 74.01575 48.74207 51.22464 55.71139 
50 73.22835 73.22835 73.22835 47.61529 50.03927 54.42012 
51 72.44094 72.44094 72.44094 46.50418 48.87038 53.14681 
52 71.65354 71.65354 71.65354 45.40867 47.71791 51.89139 
53 70.86614 70.86614 70.86614 44.32870 46.58179 50.65377 
54 70.07874 70.07874 70.07874 43.26422 45.46194 49.43389 
55 69.29134 69.29134 69.29134 42.21514 44.35832 48.23167 
56 68.50394 68.50394 68.50394 41.18142 43.27084 47.04705 
57 67.71654 67.71654 67.71654 40.16297 42.19944 45.87993 
58 66.92913 66.92913 66.92913 39.15975 41.14405 44.73026 
59 66.14173 66.14173 66.14173 38.17168 40.10460 43.59796 
60 65.35433 65.35433 65.35433 37.19870 39.08103 42.48294 
61 64.56693 64.56693 64.56693 36.24074 38.07325 41.38514 
62 63.77953 63.77953 63.77953 35.29774 37.08121 40.30447 
63 62.99213 62.99213 62.99213 34.36962 36.10483 39.24087 
64 62.20472 62.20472 62.20472 33.45631 35.14403 38.19424 
65 61.41732 61.41732 61.41732 32.55776 34.19876 37.16452 
66 60.62992 60.62992 60.62992 31.67389 33.26893 36.15162 
67 59.84252 59.84252 59.84252 30.80463 32.35447 35.15547 
68 59.05512 59.05512 59.05512 29.94991 31.45530 34.17598 
69 58.26772 58.26772 58.26772 29.10967 30.57136 33.21308 
70 57.48031 57.48031 57.48031 28.28382 29.70258 32.26668 
71 56.69291 56.69291 56.69291 27.47231 28.84886 31.33670 
72 55.90551 55.90551 55.90551 26.67505 28.01015 30.42306 
73 55.11811 55.11811 55.11811 25.89198 27.18635 29.52568 
74 54.33071 54.33071 54.33071 25.12302 26.37741 28.64446 
75 53.54331 53.54331 53.54331 24.36809 25.58323 27.77934 
76 52.75591 52.75591 52.75591 23.62713 24.80374 26.93021 
77 51.96850 51.96850 51.96850 22.90006 24.03886 26.09701 
78 51.18110 51.18110 51.18110 22.18681 23.28852 25.27963 
79 50.39370 50.39370 50.39370 21.48729 22.55262 24.47800 
80 49.60630 49.60630 49.60630 20.80143 21.83110 23.69202 
81 48.81890 48.81890 48.81890 20.12916 21.12387 22.92161 
82 48.03150 48.03150 48.03150 19.47039 20.43085 22.16668 
83 47.24409 47.24409 47.24409 18.82505 19.75195 21.42713 
84 46.45669 46.45669 46.45669 18.19306 19.08710 20.70288 
85 45.66929 45.66929 45.66929 17.57434 18.43620 19.99384 
86 44.88189 44.88189 44.88189 16.96880 17.79918 19.29991 
87 44.09449 44.09449 44.09449 16.37637 17.17594 18.62099 
88 43.30709 43.30709 43.30709 15.79696 16.56640 17.95700 
89 42.51969 42.51969 42.51969 15.23049 15.97048 17.30784 
90 41.73228 41.73228 41.73228 14.67688 15.38808 16.67342 
91 40.94488 40.94488 40.94488 14.13604 14.81911 16.05362 
92 40.15748 40.15748 40.15748 13.60789 14.26349 15.44837 
93 39.37008 39.37008 39.37008 13.09233 13.72113 14.85755 
94 38.58268 38.58268 38.58268 12.58929 13.19193 14.28108 
95 37.79528 37.79528 37.79528 12.09867 12.67580 13.71884 
96 37.00787 37.00787 37.00787 11.62038 12.17264 13.17073 
97 36.22047 36.22047 36.22047 11.15434 11.68237 12.63666 
98 35.43307 35.43307 35.43307 10.70045 11.20487 12.11651 
99 34.64567 34.64567 34.64567 10.25863 10.74007 11.61019 
100 33.85827 33.85827 33.85827 9.828766 10.28786 11.11758 
101 33.07087 33.07087 33.07087 9.410778 9.848137 10.63857 
102 32.28346 32.28346 32.28346 9.004568 9.420804 10.17306 
103 31.49606 31.49606 31.49606 8.610039 9.005759 9.720942 
104 30.70866 30.70866 30.70866 8.227092 8.602899 9.282093 
105 29.92126 29.92126 29.92126 7.855628 8.212119 8.856404 
106 29.13386 29.13386 29.13386 7.495547 7.833314 8.443759 
107 28.34646 28.34646 28.34646 7.146747 7.466377 8.044041 
108 27.55906 27.55906 27.55906 6.809125 7.111198 7.657133 
109 26.77165 26.77165 26.77165 6.482575 6.767667 7.282914 
110 25.98425 25.98425 25.98425 6.166992 6.435674 6.921262 
111 25.19685 25.19685 25.19685 5.862267 6.115104 6.572054 
112 24.40945 24.40945 24.40945 5.568292 5.805842 6.235165 
113 23.62205 23.62205 23.62205 5.284955 5.507771 5.910466 
114 22.83465 22.83465 22.83465 5.012142 5.220773 5.597830 
115 22.04724 22.04724 22.04724 4.749741 4.944726 5.297123 
116 21.25984 21.25984 21.25984 4.497633 4.679509 5.008212 
117 20.47244 20.47244 20.47244 4.255699 4.424995 4.730962 
118 19.68504 19.68504 19.68504 4.023820 4.181058 4.465234 
119 18.89764 18.89764 18.89764 3.801872 3.947569 4.210886 
120 18.11024 18.11024 18.11024 3.589730 3.724395 3.967775 
121 17.32283 17.32283 17.32283 3.387265 3.511402 3.735755 
122 16.53543 16.53543 16.53543 3.194348 3.308453 3.514676 
123 15.74803 15.74803 15.74803 3.010845 3.115408 3.304385 
124 14.96063 14.96063 14.96063 2.836620 2.932124 3.104727 
125 14.17323 14.17323 14.17323 2.671534 2.758453 2.915542 
126 13.38583 13.38583 13.38583 2.515445 2.594247 2.736667 
127 12.59843 12.59843 12.59843 2.368206 2.439353 2.567935 
128 11.81102 11.81102 11.81102 2.229669 2.293612 2.409175 
129 11.02362 11.02362 11.02362 2.099680 2.156863 2.260210 
130 10.23622 10.23622 10.23622 1.978081 2.028941 2.120860 
131 9.448819 9.448819 9.448819 1.864709 1.909674 1.990938 
132 8.661417 8.661417 8.661417 1.759399 1.798887 1.870255 
133 7.874016 7.874016 7.874016 1.661976 1.696398 1.758610 
134 7.086614 7.086614 7.086614 1.572262 1.602020 1.655800 
135 6.299213 6.299213 6.299213 1.490073 1.515557 1.561613 
136 5.511811 5.511811 5.511811 1.415217 1.436808 1.475829 
137 4.724409 4.724409 4.724409 1.347492 1.365562 1.398219 
138 3.937008 3.937008 3.937008 1.286692 1.301600 1.328543 
139 3.149606 3.149606 3.149606 1.229411 1.241340 1.262900 
140 2.362205 2.362205 2.362205 1.172058 1.181005 1.197175 
141 1.574803 1.574803 1.574803 1.114705 1.120670 1.131450 
142 0.787402 0.787402 0.787402 1.057353 1.060335 1.065725 
143 0.00000 0.00000 100.0000 18.87111 8.147314 95.12896 
144 0.00000 100.0000 0.00000 36.40521 71.80052 12.80184 
145 0.00000 100.0000 83.21688 48.19648 76.51628 74.90766 
146 100.0000 0.00000 0.00000 41.83017 22.05217 2.913230 
147 96.92944 98.86348 58.23666 78.86460 91.72770 42.36484 
148 79.90204 0.00000 54.05632 30.11740 15.48897 26.01614 
149 64.88795 30.98370 31.31817 20.65603 15.07877 10.17163 
150 20.82002 49.88550 17.60969 10.46620 17.01806 6.042425 
151 69.36836 48.26954 0.00000 25.94974 24.28774 4.181155 
152 0.00000 57.78797 100.0000 29.25672 28.91563 98.59086 
153 66.05512 96.84506 96.85040 66.61542 81.76232 100.2510 
154 0.00000 66.35590 83.56640 26.98853 33.92746 68.38987 
155 0.00000 53.96898 49.34159 13.66169 20.37322 23.56014 
156 93.98184 69.54872 100.0000 69.96742 57.69623 102.0022 
157 57.72281 96.68139 57.50716 50.92487 74.80708 39.80850 
158 0.108485 0.459160 36.07517 2.928273 1.791713 11.07643 
159 79.19959 37.38852 16.51596 29.60196 21.75743 5.680394 
160 64.95307 0.00000 2.149773 16.52272 9.000125 1.882596 
161 67.51615 40.43612 100.0000 40.56460 26.47586 97.52435 
162 34.98191 7.409887 25.35629 6.262001 3.944548 6.192584 
163 0.00000 35.95746 89.76759 18.75265 14.11956 75.94041 
164 0.00000 71.49058 9.616601 17.79175 34.30897 7.429471 
165 50.71935 0.00000 57.11026 15.12218 7.690557 28.32944 
166 100.0000 29.67648 49.60608 48.12717 28.62872 23.56478 
167 100.0000 79.62485 63.56967 69.45036 66.94063 44.02174 
168 93.49907 0.00000 25.15636 36.97060 19.44009 7.490436 
169 30.59885 30.31814 9.436677 6.925911 7.968129 2.892155 
170 24.13503 37.63760 54.03123 11.60407 12.08701 26.31051 
171 69.67779 44.10363 58.85690 30.34944 24.09083 32.52144 
172 27.37277 7.368405 0.00000 3.713514 2.736065 1.192195 
173 0.00000 82.13924 90.56208 37.95647 52.07127 83.73129 
174 64.82737 64.94405 80.69284 40.85920 40.21118 64.14899 
175 46.76299 35.86016 63.80492 18.82615 14.99018 36.93784 
176 72.18864 55.58100 50.15324 33.97803 31.71301 25.37840 
177 87.15462 75.24866 0.00000 49.53640 53.68566 8.613543 
178 42.38836 30.07485 27.50712 10.83896 9.813759 7.944779 
179 45.94681 50.28572 0.00000 15.95724 20.09836 3.898769 
180 0.00000 72.17386 47.51200 21.40579 36.32431 24.70726 
181 51.49732 71.50784 0.00000 26.94795 39.06272 6.980583 
182 64.05738 71.37171 53.75407 37.06180 43.65516 30.79900 
183 43.01197 0.00000 15.10215 7.681814 4.404150 3.164184 
184 0.00000 89.79986 86.61517 41.64295 61.63018 78.21543 
185 57.61199 85.57601 72.10960 46.32953 60.30588 54.90255 
186 100.0000 59.06790 59.84321 58.38716 46.10653 36.35805 
187 68.80152 80.12966 43.90994 42.95285 54.14028 24.22010 
188 78.11856 69.28906 40.32969 42.29335 45.02282 19.98893 
189 11.51419 29.49285 20.59524 4.642155 6.523327 5.152549 
190 46.98462 28.24232 6.214411 11.02978 9.567631 2.605085 
191 60.87319 57.79967 100.0000 42.68767 35.84751 99.22153 
192 100.0000 54.75418 0.00000 51.06078 40.51081 5.990127 
193 42.64524 61.60037 64.79965 25.90974 30.79983 40.80560 
194 47.48212 39.25347 1.542397 13.36027 14.08039 2.985751 
195 97.70238 0.00000 91.58695 54.36817 26.82348 79.92345 
196 44.68339 0.00000 78.44963 18.19047 8.668932 55.71702 
197 28.49895 72.95919 64.56698 27.78245 39.85019 42.17369 
198 78.99684 31.12690 50.63591 31.69201 20.51830 23.76062 
199 84.72379 40.65008 80.33771 44.81163 29.55282 61.31473 
200 83.27567 32.62038 28.44695 32.23440 21.53427 9.481932 
201 51.12097 21.12036 47.87818 14.95199 9.719370 20.21088 
202 44.51494 8.283681 0.00000 8.075679 5.045623 1.408260 
203 45.10046 52.79429 79.68114 27.22186 25.93717 60.50042 
204 46.78699 72.19983 44.56688 28.55410 40.08103 22.75326 
205 79.90728 74.79395 65.02292 50.77412 53.16525 44.08338 
206 9.780698 0.00000 17.84798 1.874263 1.395393 3.540359 
207 43.83145 28.23572 74.82954 19.17186 12.70008 51.00828 
208 63.17332 79.68791 90.71962 51.08982 56.62039 84.21253 
209 28.60976 65.35635 65.35433 24.21100 32.38591 41.87463 
210 56.24332 50.78971 36.97297 22.13975 23.30170 14.74410 
211 83.60890 57.09714 35.89128 40.23377 36.02296 15.61316 
212 100.0000 37.44960 0.00000 45.92620 30.24308 4.278585 
213 56.20309 0.00000 33.33723 13.89352 7.460117 10.08097 
214 95.22920 75.84046 83.81328 68.48763 62.56004 72.14706 
215 70.57633 0.00000 26.66770 20.66147 11.01802 7.314477 
216 84.82028 100.0000 0.00000 64.52810 86.30077 14.11962 
217 70.95756 13.40379 81.69966 31.73770 16.38802 61.66109 
218 89.06630 0.00000 71.75337 40.86049 20.57371 47.02872 
219 14.15332 17.36166 6.818071 2.728484 3.217682 1.878035 
220 0.00000 27.86753 100.0000 21.10591 12.61629 95.87390 
221 0.00000 53.87767 79.36765 20.51214 23.06029 59.80455 
222 0.00000 28.13071 59.69752 8.907233 7.805644 31.41235 
223 77.93146 49.60140 54.64171 36.33360 29.73562 29.00295 
224 100.0000 73.30808 33.22248 61.02301 57.85308 17.26582 
225 68.77135 41.66378 31.06467 25.11791 20.88285 10.93383 
226 59.12855 25.17484 9.453515 15.58537 11.21149 3.064467 
227 23.19945 0.00000 54.03727 7.322327 3.736156 24.92985 
228 66.99891 0.00000 57.11817 22.70482 11.60001 28.69284 
229 39.69985 49.28319 37.09124 15.71128 19.25222 14.37167 
230 21.30640 43.23312 83.44374 19.93439 17.62244 65.40801 
231 59.66903 100.0000 0.00000 49.25435 78.42558 13.40392 
232 54.91502 74.90195 100.0000 48.03036 50.55787 101.7797 
233 89.21987 38.70925 97.65832 53.84760 32.80542 93.13292 
234 42.67464 83.59834 8.885645 30.97387 51.46540 9.947715 
235 0.00000 19.34852 27.32954 3.186374 3.636566 7.081335 
236 0.00000 37.55021 41.44814 7.679036 10.26086 15.85651 
237 83.20984 81.57011 33.93711 51.95211 60.22100 18.57989 
238 100.0000 55.22450 78.91261 61.69926 45.04368 61.16627 
239 68.62456 54.87667 78.85495 38.22505 32.75118 59.93991 
240 35.09854 27.37532 36.66578 9.261281 8.231239 12.33110 
241 37.98630 53.60638 49.34170 18.39793 22.62181 23.74482 
242 78.33846 43.44262 0.00000 30.12427 24.33380 3.970181 
243 50.05475 26.88239 33.80447 13.51087 10.34388 10.90566 
244 71.38697 0.00000 17.84895 20.58713 11.04380 4.417463 
245 41.53526 47.29242 54.64281 18.23436 19.32429 27.94758 
246 72.55399 28.18441 38.32056 25.26742 16.65422 14.11769 
247 14.15324 0.00000 8.508948 1.863978 1.429217 1.774001 
248 43.83357 28.46286 90.50731 24.17115 14.75915 77.15268 
249 0.00000 10.56577 74.57213 10.60611 5.460546 49.68825 
250 0.00000 20.25448 63.73472 8.703488 6.001208 35.65282 
251 59.46784 48.01501 52.47846 24.94605 23.16085 26.28700 
252 100.0000 50.14958 37.00714 51.47421 38.11118 16.07816 
253 100.0000 33.41679 67.21152 52.37770 31.44243 42.51786 
254 61.43497 64.55397 35.76438 29.83139 35.31668 15.95187 
255 0.00000 92.64641 58.24371 36.10199 62.66206 39.01397 
256 37.23132 57.56693 9.623894 16.13387 24.06812 5.541030 
257 66.19206 58.02993 0.00000 27.63611 30.28894 5.250742 
258 31.63973 31.13442 50.63591 11.06020 9.882517 22.79425 
259 25.04224 0.00000 30.06607 4.398906 2.600418 8.022400 
260 81.38279 74.89227 100.0000 62.93392 58.23429 102.4765 
261 55.60375 20.56507 74.57408 22.46404 12.83395 50.48982 
262 44.92156 100.0000 40.19145 45.74528 76.33886 25.76053 
263 89.74316 86.38876 96.95058 75.01447 74.95443 98.69934 
264 43.93311 81.89698 80.51701 41.10247 53.85481 66.48782 
265 0.00000 60.14175 68.50444 19.96758 26.72239 44.97066 
266 62.43365 64.14480 70.81647 36.47939 37.73682 49.29253 
267 60.71161 41.99542 41.73226 22.15996 19.34888 17.04383 
268 100.0000 30.54303 25.46805 45.46249 27.80709 8.776846 
269 58.79684 14.05515 14.96072 14.40892 8.793275 3.626627 
270 34.73004 38.29715 1.604577 9.352252 11.67476 2.736999 
271 47.63047 0.00000 36.06976 10.78212 5.822579 11.43773 
272 68.60364 37.45129 64.19302 29.19337 20.85195 37.98442 
273 10.68316 28.93316 0.00000 3.863802 6.053215 1.824586 
274 87.79121 65.36915 65.35434 51.89430 46.66827 43.17352 
275 83.35312 86.75454 9.342302 53.85890 66.31582 11.67011 
276 82.14039 26.86041 33.80447 30.90911 19.30945 11.71994 
277 26.73176 74.89498 100.0000 39.68491 46.24923 101.3875 
278 67.61519 0.00000 100.0000 35.80643 16.87922 95.92252 
279 16.61108 9.623290 0.00000 2.294441 2.163874 1.156486 
280 43.33680 76.93153 86.61168 39.91595 48.63659 75.79209 
281 0.00000 75.37609 73.22836 28.56048 41.95136 53.86252 
282 68.70177 59.58719 59.30662 35.20325 34.47957 34.75330 
283 82.66450 50.96114 46.45631 38.70067 31.78097 22.07277 
284 95.31340 30.12950 33.07010 41.82460 25.74671 11.99989 
285 100.0000 68.11570 57.71321 61.98517 53.99384 35.42231 
286 36.66797 22.56042 41.75542 9.594932 7.319348 15.39959 
287 82.73474 96.75203 74.71685 69.69427 84.09433 61.96471 
288 87.42738 28.30118 9.435795 33.57966 21.20033 4.042428 
289 33.58269 51.85562 59.84146 18.62683 21.60440 33.72062 
290 82.89138 89.72545 81.25399 66.56428 74.60266 70.33907 
291 75.80776 28.70559 100.0000 43.09504 24.15741 96.94354 
292 43.54148 57.25980 33.90454 19.35439 25.37565 13.55308 
293 100.0000 57.90951 31.87280 53.74445 43.50854 14.19032 
294 71.13715 0.00000 36.07242 21.87158 11.54030 11.95889 
295 36.67920 28.30404 17.02797 8.267870 8.118306 4.294939 
296 16.61627 0.00000 0.00000 1.960470 1.495222 1.045006 
297 42.36736 91.34692 69.18849 43.75988 64.93413 51.98675 
298 28.08403 23.57695 55.07574 9.942801 7.448764 26.51421 
299 0.00000 48.44189 64.56973 14.77053 17.82992 38.61175 
300 73.07221 69.24327 51.17837 40.63417 43.94767 28.29342 
301 79.69659 38.34022 37.79525 31.85543 23.05130 14.68104 
302 85.93707 70.20708 86.73352 58.87472 53.03819 75.85817 
303 39.18065 10.76274 11.02373 6.800583 4.557653 2.476062 
304 38.58977 16.60508 0.00000 6.862054 5.257049 1.512991 
305 30.87819 35.95892 30.07162 9.249279 10.68609 9.330293 
306 57.80557 59.83154 52.25208 28.40198 31.27685 27.46348 
307 60.17563 72.78469 67.25668 38.71730 45.27741 45.96506 
308 67.84626 82.25084 84.01200 52.86490 60.11845 72.83455 
309 100.0000 99.59439 0.00000 76.90957 92.20116 14.60646 
310 61.65941 68.52028 100.0000 47.80758 45.51472 100.8179 
311 43.76266 52.55450 68.50607 23.63828 24.31926 44.31557 
312 0.00000 34.23901 59.30297 9.947714 10.01657 31.35746 
313 53.95818 47.25675 60.00666 23.71485 22.01179 33.71165 
314 44.91278 100.0000 100.0000 61.21493 82.52540 107.2559 
315 86.69849 98.81798 96.85069 81.62498 91.79204 101.3971 
316 23.87408 27.43480 83.40680 16.91579 11.04977 64.23629 
317 5.872816 57.78398 8.933400 11.72964 21.92591 5.265560 
318 73.94836 94.58201 38.39094 55.04698 74.91519 23.83922 
319 71.76202 47.83141 87.73211 40.50281 30.05225 74.16553 
320 76.95159 59.21450 68.25591 42.12278 37.58800 45.57949 
321 83.64228 15.64671 16.49024 29.41318 16.71194 4.710301 
322 38.09044 0.00000 42.10545 8.541370 4.582209 15.17033 
323 24.19862 55.75093 39.33891 14.84257 22.12161 16.36685 
324 37.70375 43.79341 90.54195 25.75640 20.57559 78.25664 
325 68.03201 85.18752 6.325271 42.88647 59.13229 10.50564 
326 70.25881 28.20884 74.82952 31.02300 18.80405 51.56233 
327 0.187385 16.20756 33.20404 3.412815 3.239715 9.748412 
328 100.0000 86.41301 50.63732 71.19274 74.47968 32.09755 
329 61.57421 31.13063 50.63591 21.49607 15.26225 23.28305 
330 0.00000 86.50090 14.58615 26.82321 52.10542 11.25398 
331 62.97241 47.28937 25.37513 23.12448 22.27251 8.849484 
332 42.20799 99.59494 0.00000 42.15831 74.28395 12.97820 
333 24.41023 32.87525 74.40790 15.28219 11.94211 50.45552 
334 54.28348 62.49969 0.495095 23.79227 31.06341 5.638590 
335 60.14817 100.0000 90.66814 63.79162 84.26593 88.78353 
336 28.22680 2.448201 12.57718 3.970514 2.601206 2.510953 
337 0.964677 26.32325 25.10252 3.941615 5.370858 6.493925 
338 80.51535 65.79508 48.98239 43.49457 43.00215 26.05200 
339 90.95226 99.67310 38.38977 71.24523 89.12233 25.72775 
340 71.66096 24.78247 57.37480 27.20319 16.54134 29.67400 
341 46.69573 0.991764 9.761389 8.741970 5.012159 2.271431 
342 38.24783 0.00000 19.43340 6.497648 3.769767 4.183864 
343 44.44992 74.41359 29.13679 27.19867 41.34399 13.87588 
344 35.15853 81.48066 46.90023 30.75161 49.01771 26.17172 
345 87.65729 87.82592 63.61540 64.14554 71.95924 45.32376 
346 69.89391 89.74960 83.80318 58.91236 70.58928 74.18419 
347 73.09005 100.0000 0.00000 56.54511 82.18472 13.74556 
348 59.12880 43.24447 90.51658 33.40016 24.29341 78.52430 
349 49.25239 60.15045 70.23257 28.86531 31.26517 47.65770 
350 0.645916 64.35583 98.61375 31.49590 34.25640 96.57638 
351 64.66106 91.27434 64.55566 51.80872 69.13576 46.54762 
352 88.41798 27.40506 83.40679 45.89987 25.98710 65.59308 
353 58.58815 34.13791 70.19657 24.77829 17.34246 45.13724 
354 43.75072 17.41288 98.59161 25.77148 13.11639 92.75094 
355 60.58946 36.43033 0.00000 18.15561 15.58397 2.911577 
356 35.82039 65.14472 88.93906 32.52698 35.73960 77.86669 
357 33.37442 38.59801 66.74729 16.28539 14.52446 40.56814 
358 0.00000 11.18092 62.96672 7.754593 4.378506 34.48896 
359 100.0000 45.31080 52.39311 52.19453 36.00608 27.25277 
360 41.98863 32.05837 35.43220 11.82229 10.77276 11.97352 
361 41.65966 22.05038 23.16904 9.106951 7.183610 5.875121 
362 49.06952 47.01124 23.59354 16.83902 18.92045 7.880958 
363 22.63213 32.28429 35.63081 7.586298 8.650043 11.89972 
364 49.39635 68.69374 54.65177 29.36367 37.66180 30.90980 
365 22.41144 0.00000 15.31968 3.042657 2.011138 2.994055 
366 0.00000 59.97577 29.14919 13.50304 24.02711 11.26010 
367 37.01229 13.37942 69.10619 13.95918 7.627333 42.38634 
368 74.28729 21.12058 8.864000 23.33286 14.42628 3.197691 
369 87.77150 47.75087 52.47827 42.48885 32.08432 27.08536 
370 33.64139 30.59246 25.46806 8.421266 8.721670 7.043700 
371 59.40796 68.09052 57.71319 33.86869 39.47871 34.10129 
372 44.31324 70.83382 86.73342 36.97127 42.21821 74.92303 
373 5.411086 85.10687 73.24627 34.60586 53.77116 55.85103 
374 93.44842 0.00000 49.55797 39.75957 20.55053 22.40488 
375 90.10940 29.56006 70.19626 43.81132 25.87674 45.78176 
376 52.92308 30.51652 24.88652 14.47066 11.82542 7.104300 
377 54.28339 38.35015 0.539519 15.75910 14.99837 2.963883 
378 79.32348 84.71078 90.55007 63.77142 67.80182 85.38568 
379 23.30708 0.702617 84.62870 15.07712 6.870262 65.59560 
380 0.00000 25.78809 40.04588 5.295264 5.781435 14.17539 
381 74.68152 51.42058 50.39296 34.07518 29.55389 25.16582 
382 89.15686 73.92691 67.36413 57.73833 55.99007 47.16738 
383 25.55559 44.30272 24.66243 9.897945 14.15777 7.712169 
384 20.37838 18.07151 23.79601 4.196241 3.992837 5.736798 
385 39.37848 76.80960 58.23052 31.09335 44.86046 35.82765 
386 34.49180 46.46763 47.89467 14.93804 17.38808 21.70544 
387 69.66805 72.99391 0.00000 36.51178 45.15257 7.652391 
388 40.08401 20.65338 51.65907 11.79991 7.942017 23.29378 
389 11.06323 0.292229 26.66762 2.520998 1.676619 6.466707 
390 90.41152 23.26624 100.0000 52.92002 28.02604 97.17284 
391 50.38173 73.72874 74.60535 36.91939 44.87973 55.95956 
392 49.18559 77.00877 70.81725 37.27767 47.88389 51.21022 
393 56.94201 51.47284 46.45554 23.93098 24.42222 21.42960 
394 20.25223 50.28971 51.16732 14.07853 18.66654 24.80220 
395 58.41904 58.33351 8.929293 24.01818 28.58506 5.903216 
396 83.03853 62.48810 0.00000 40.14365 39.48754 6.367591 
397 0.00000 84.34140 35.29991 26.90494 49.87855 18.65297 
398 24.26092 21.13054 5.111403 4.331346 4.639681 1.905329 
399 87.73302 76.82136 55.70299 55.70667 57.61816 34.40736 
400 0.00000 81.78700 100.0000 41.33786 53.07453 102.6179 
401 74.28152 80.85527 96.84952 60.39294 62.19663 96.80020 
402 13.08113 51.35091 83.45955 21.52960 22.12745 66.22012 
403 23.87984 57.78383 70.07502 21.30800 25.95368 46.81965 
