Pre-made_Targets/Patch Width 12-15mm - Intermediate (Easy with ruler)/CM-Interm-A4-4410p-10pages-w12.0mm-21x21-Short-Landscape-Atkinson4096-randomized/Non-randomized for view of sequence/Atkinson4410.ti2
CTI2   

DESCRIPTOR "Argyll Calibration Target chart information 2"
ORIGINATOR "Argyll printtarg"
CREATED "Fri Feb 13 01:09:46 2026"
TARGET_INSTRUMENT "X-Rite ColorMunki"
APPROX_WHITE_POINT "95.106486 100.000000 108.844025"
COLOR_REP "iRGB"
PAPER_SIZE "297.0x210.0"
CHART_ID "46"
STEPS_IN_PASS "21"
PASSES_IN_STRIPS2 "21,21,21,21,21,21,21,21,21,21"
STRIP_INDEX_PATTERN "A-Z, A-Z"
PATCH_INDEX_PATTERN "0-9,@-9,@-9;1-999"
INDEX_ORDER "STRIP_THEN_PATCH"

NUMBER_OF_FIELDS 8
BEGIN_DATA_FORMAT
SAMPLE_ID SAMPLE_LOC RGB_R RGB_G RGB_B XYZ_X XYZ_Y XYZ_Z 
END_DATA_FORMAT

NUMBER_OF_SETS 4410
BEGIN_DATA
1 "A1" 100.0000 100.0000 100.0000 0.950470 1.000000 1.088830 
2 "A2" 100.0000 100.0000 93.33333 0.924305 0.989534 0.951029 
3 "A3" 100.0000 100.0000 86.66667 0.900499 0.980012 0.825648 
4 "A4" 100.0000 100.0000 80.00000 0.878986 0.971406 0.712345 
5 "A5" 100.0000 100.0000 73.33333 0.859698 0.963691 0.610763 
6 "A6" 100.0000 100.0000 66.66667 0.842564 0.956838 0.520527 
7 "A7" 100.0000 100.0000 60.00000 0.827510 0.950816 0.441242 
8 "A8" 100.0000 100.0000 53.33333 0.814456 0.945595 0.372492 
9 "A9" 100.0000 100.0000 46.66667 0.803319 0.941140 0.313833 
10 "A10" 100.0000 100.0000 40.00000 0.794007 0.937415 0.264791 
11 "A11" 100.0000 100.0000 33.33333 0.786424 0.934382 0.224853 
12 "A12" 100.0000 100.0000 26.66667 0.780463 0.931997 0.193459 
13 "A13" 100.0000 100.0000 20.00000 0.776006 0.930214 0.169985 
14 "A14" 100.0000 100.0000 13.33333 0.772919 0.928980 0.153727 
15 "A15" 100.0000 100.0000 6.666667 0.771044 0.928230 0.143853 
16 "A16" 100.0000 100.0000 0.00000 0.770033 0.927825 0.138526 
17 "A17" 86.66667 100.0000 100.0000 0.836242 0.941101 1.083476 
18 "A18" 86.66667 100.0000 93.33333 0.810078 0.930636 0.945674 
19 "A19" 86.66667 100.0000 86.66667 0.786271 0.921113 0.820294 
20 "A20" 86.66667 100.0000 80.00000 0.764758 0.912508 0.706991 
21 "A21" 86.66667 100.0000 73.33333 0.745470 0.904793 0.605409 
22 "B1" 86.66667 100.0000 66.66667 0.728337 0.897939 0.515173 
23 "B2" 86.66667 100.0000 60.00000 0.713283 0.891918 0.435888 
24 "B3" 86.66667 100.0000 53.33333 0.700229 0.886696 0.367138 
25 "B4" 86.66667 100.0000 46.66667 0.689091 0.882241 0.308479 
26 "B5" 86.66667 100.0000 40.00000 0.679779 0.878516 0.259437 
27 "B6" 86.66667 100.0000 33.33333 0.672196 0.875483 0.219499 
28 "B7" 86.66667 100.0000 26.66667 0.666235 0.873099 0.188104 
29 "B8" 86.66667 100.0000 20.00000 0.661778 0.871316 0.164631 
30 "B9" 86.66667 100.0000 13.33333 0.658691 0.870081 0.148373 
31 "B10" 86.66667 100.0000 6.666667 0.656816 0.869331 0.138498 
32 "B11" 86.66667 100.0000 0.00000 0.655805 0.868926 0.133171 
33 "B12" 73.33333 100.0000 100.0000 0.742977 0.893011 1.079104 
34 "B13" 73.33333 100.0000 93.33333 0.716812 0.882545 0.941303 
35 "B14" 73.33333 100.0000 86.66667 0.693006 0.873023 0.815922 
36 "B15" 73.33333 100.0000 80.00000 0.671492 0.864418 0.702619 
37 "B16" 73.33333 100.0000 73.33333 0.652205 0.856703 0.601037 
38 "B17" 73.33333 100.0000 66.66667 0.635071 0.849849 0.510801 
39 "B18" 73.33333 100.0000 60.00000 0.620017 0.843827 0.431516 
40 "B19" 73.33333 100.0000 53.33333 0.606963 0.838606 0.362766 
41 "B20" 73.33333 100.0000 46.66667 0.595825 0.834151 0.304107 
42 "B21" 73.33333 100.0000 40.00000 0.586514 0.830426 0.255065 
43 "C1" 73.33333 100.0000 33.33333 0.578931 0.827393 0.215127 
44 "C2" 73.33333 100.0000 26.66667 0.572970 0.825008 0.183732 
45 "C3" 73.33333 100.0000 20.00000 0.568513 0.823226 0.160259 
46 "C4" 73.33333 100.0000 13.33333 0.565426 0.821991 0.144001 
47 "C5" 73.33333 100.0000 6.666667 0.563551 0.821241 0.134126 
48 "C6" 73.33333 100.0000 0.00000 0.562539 0.820836 0.128800 
49 "C7" 60.00000 100.0000 100.0000 0.669400 0.855073 1.075655 
50 "C8" 60.00000 100.0000 93.33333 0.643235 0.844608 0.937854 
51 "C9" 60.00000 100.0000 86.66667 0.619429 0.835085 0.812473 
52 "C10" 60.00000 100.0000 80.00000 0.597916 0.826480 0.699170 
53 "C11" 60.00000 100.0000 73.33333 0.578628 0.818765 0.597588 
54 "C12" 60.00000 100.0000 66.66667 0.561495 0.811911 0.507352 
55 "C13" 60.00000 100.0000 60.00000 0.546441 0.805890 0.428067 
56 "C14" 60.00000 100.0000 53.33333 0.533387 0.800668 0.359317 
57 "C15" 60.00000 100.0000 46.66667 0.522249 0.796213 0.300658 
58 "C16" 60.00000 100.0000 40.00000 0.512937 0.792488 0.251616 
59 "C17" 60.00000 100.0000 33.33333 0.505354 0.789455 0.211678 
60 "C18" 60.00000 100.0000 26.66667 0.499393 0.787071 0.180284 
61 "C19" 60.00000 100.0000 20.00000 0.494936 0.785288 0.156810 
62 "C20" 60.00000 100.0000 13.33333 0.491849 0.784053 0.140552 
63 "C21" 60.00000 100.0000 6.666667 0.489974 0.783303 0.130678 
64 "D1" 60.00000 100.0000 0.00000 0.488963 0.782898 0.125351 
65 "D2" 46.66667 100.0000 100.0000 0.614102 0.826560 1.073063 
66 "D3" 46.66667 100.0000 93.33333 0.587937 0.816094 0.935262 
67 "D4" 46.66667 100.0000 86.66667 0.564130 0.806572 0.809881 
68 "D5" 46.66667 100.0000 80.00000 0.542617 0.797966 0.696578 
69 "D6" 46.66667 100.0000 73.33333 0.523329 0.790251 0.594996 
70 "D7" 46.66667 100.0000 66.66667 0.506196 0.783398 0.504760 
71 "D8" 46.66667 100.0000 60.00000 0.491142 0.777376 0.425475 
72 "D9" 46.66667 100.0000 53.33333 0.478088 0.772155 0.356725 
73 "D10" 46.66667 100.0000 46.66667 0.466950 0.767700 0.298066 
74 "D11" 46.66667 100.0000 40.00000 0.457638 0.763975 0.249024 
75 "D12" 46.66667 100.0000 33.33333 0.450055 0.760942 0.209086 
76 "D13" 46.66667 100.0000 26.66667 0.444094 0.758557 0.177691 
77 "D14" 46.66667 100.0000 20.00000 0.439637 0.756774 0.154218 
78 "D15" 46.66667 100.0000 13.33333 0.436550 0.755540 0.137960 
79 "D16" 46.66667 100.0000 6.666667 0.434675 0.754790 0.128085 
80 "D17" 46.66667 100.0000 0.00000 0.433664 0.754385 0.122759 
81 "D18" 33.33333 100.0000 100.0000 0.575482 0.806647 1.071252 
82 "D19" 33.33333 100.0000 93.33333 0.549317 0.796181 0.933451 
83 "D20" 33.33333 100.0000 86.66667 0.525511 0.786658 0.808071 
84 "D21" 33.33333 100.0000 80.00000 0.503997 0.778053 0.694768 
85 "E1" 33.33333 100.0000 73.33333 0.484710 0.770338 0.593186 
86 "E2" 33.33333 100.0000 66.66667 0.467576 0.763485 0.502949 
87 "E3" 33.33333 100.0000 60.00000 0.452522 0.757463 0.423665 
88 "E4" 33.33333 100.0000 53.33333 0.439468 0.752241 0.354914 
89 "E5" 33.33333 100.0000 46.66667 0.428331 0.747786 0.296256 
90 "E6" 33.33333 100.0000 40.00000 0.419019 0.744062 0.247214 
91 "E7" 33.33333 100.0000 33.33333 0.411436 0.741028 0.207276 
92 "E8" 33.33333 100.0000 26.66667 0.405475 0.738644 0.175881 
93 "E9" 33.33333 100.0000 20.00000 0.401018 0.736861 0.152408 
94 "E10" 33.33333 100.0000 13.33333 0.397931 0.735626 0.136150 
95 "E11" 33.33333 100.0000 6.666667 0.396056 0.734876 0.126275 
96 "E12" 33.33333 100.0000 0.00000 0.395044 0.734472 0.120948 
97 "E13" 20.00000 100.0000 100.0000 0.551668 0.794368 1.070136 
98 "E14" 20.00000 100.0000 93.33333 0.525503 0.783902 0.932335 
99 "E15" 20.00000 100.0000 86.66667 0.501697 0.774379 0.806954 
100 "E16" 20.00000 100.0000 80.00000 0.480183 0.765774 0.693652 
101 "E17" 20.00000 100.0000 73.33333 0.460896 0.758059 0.592069 
102 "E18" 20.00000 100.0000 66.66667 0.443762 0.751205 0.501833 
103 "E19" 20.00000 100.0000 60.00000 0.428708 0.745184 0.422548 
104 "E20" 20.00000 100.0000 53.33333 0.415654 0.739962 0.353798 
105 "E21" 20.00000 100.0000 46.66667 0.404517 0.735507 0.295139 
106 "F1" 20.00000 100.0000 40.00000 0.395205 0.731782 0.246097 
107 "F2" 20.00000 100.0000 33.33333 0.387622 0.728749 0.206159 
108 "F3" 20.00000 100.0000 26.66667 0.381661 0.726365 0.174765 
109 "F4" 20.00000 100.0000 20.00000 0.377204 0.724582 0.151292 
110 "F5" 20.00000 100.0000 13.33333 0.374117 0.723347 0.135033 
111 "F6" 20.00000 100.0000 6.666667 0.372242 0.722597 0.125159 
112 "F7" 20.00000 100.0000 0.00000 0.371230 0.722193 0.119832 
113 "F8" 6.666667 100.0000 100.0000 0.540326 0.788519 1.069604 
114 "F9" 6.666667 100.0000 93.33333 0.514161 0.778053 0.931803 
115 "F10" 6.666667 100.0000 86.66667 0.490354 0.768531 0.806423 
116 "F11" 6.666667 100.0000 80.00000 0.468841 0.759926 0.693120 
117 "F12" 6.666667 100.0000 73.33333 0.449553 0.752210 0.591538 
118 "F13" 6.666667 100.0000 66.66667 0.432420 0.745357 0.501302 
119 "F14" 6.666667 100.0000 60.00000 0.417366 0.739335 0.422017 
120 "F15" 6.666667 100.0000 53.33333 0.404312 0.734114 0.353266 
121 "F16" 6.666667 100.0000 46.66667 0.393174 0.729659 0.294608 
122 "F17" 6.666667 100.0000 40.00000 0.383863 0.725934 0.245566 
123 "F18" 6.666667 100.0000 33.33333 0.376279 0.722901 0.205628 
124 "F19" 6.666667 100.0000 26.66667 0.370318 0.720516 0.174233 
125 "F20" 6.666667 100.0000 20.00000 0.365861 0.718734 0.150760 
126 "F21" 6.666667 100.0000 13.33333 0.362774 0.717499 0.134502 
127 "G1" 6.666667 100.0000 6.666667 0.360900 0.716749 0.124627 
128 "G2" 6.666667 100.0000 0.00000 0.359888 0.716344 0.119300 
129 "G3" 100.0000 93.33333 100.0000 0.898619 0.896298 1.071546 
130 "G4" 100.0000 93.33333 93.33333 0.872454 0.885832 0.933745 
131 "G5" 100.0000 93.33333 86.66667 0.848648 0.876309 0.808364 
132 "G6" 100.0000 93.33333 80.00000 0.827134 0.867704 0.695062 
133 "G7" 100.0000 93.33333 73.33333 0.807847 0.859989 0.593480 
134 "G8" 100.0000 93.33333 66.66667 0.790713 0.853135 0.503243 
135 "G9" 100.0000 93.33333 60.00000 0.775659 0.847114 0.423958 
136 "G10" 100.0000 93.33333 53.33333 0.762605 0.841892 0.355208 
137 "G11" 100.0000 93.33333 46.66667 0.751468 0.837437 0.296550 
138 "G12" 100.0000 93.33333 40.00000 0.742156 0.833712 0.247507 
139 "G13" 100.0000 93.33333 33.33333 0.734573 0.830679 0.207569 
140 "G14" 100.0000 93.33333 26.66667 0.728612 0.828295 0.176175 
141 "G15" 100.0000 93.33333 20.00000 0.724155 0.826512 0.152702 
142 "G16" 100.0000 93.33333 13.33333 0.721068 0.825277 0.136444 
143 "G17" 100.0000 93.33333 6.666667 0.719193 0.824527 0.126569 
144 "G18" 100.0000 93.33333 0.00000 0.718181 0.824123 0.121242 
145 "G19" 86.66667 93.33333 100.0000 0.784391 0.837399 1.066192 
146 "G20" 86.66667 93.33333 93.33333 0.758226 0.826933 0.928391 
147 "G21" 86.66667 93.33333 86.66667 0.734420 0.817411 0.803010 
148 "H1" 86.66667 93.33333 80.00000 0.712907 0.808805 0.689707 
149 "H2" 86.66667 93.33333 73.33333 0.693619 0.801090 0.588125 
150 "H3" 86.66667 93.33333 66.66667 0.676486 0.794237 0.497889 
151 "H4" 86.66667 93.33333 60.00000 0.661431 0.788215 0.418604 
152 "H5" 86.66667 93.33333 53.33333 0.648378 0.782994 0.349854 
153 "H6" 86.66667 93.33333 46.66667 0.637240 0.778539 0.291195 
154 "H7" 86.66667 93.33333 40.00000 0.627928 0.774814 0.242153 
155 "H8" 86.66667 93.33333 33.33333 0.620345 0.771781 0.202215 
156 "H9" 86.66667 93.33333 26.66667 0.614384 0.769396 0.170820 
157 "H10" 86.66667 93.33333 20.00000 0.609927 0.767613 0.147347 
158 "H11" 86.66667 93.33333 13.33333 0.606840 0.766379 0.131089 
159 "H12" 86.66667 93.33333 6.666667 0.604965 0.765629 0.121215 
160 "H13" 86.66667 93.33333 0.00000 0.603954 0.765224 0.115888 
161 "H14" 73.33333 93.33333 100.0000 0.691126 0.789309 1.061820 
162 "H15" 73.33333 93.33333 93.33333 0.664961 0.778843 0.924019 
163 "H16" 73.33333 93.33333 86.66667 0.641154 0.769320 0.798638 
164 "H17" 73.33333 93.33333 80.00000 0.619641 0.760715 0.685336 
165 "H18" 73.33333 93.33333 73.33333 0.600353 0.753000 0.583753 
166 "H19" 73.33333 93.33333 66.66667 0.583220 0.746147 0.493517 
167 "H20" 73.33333 93.33333 60.00000 0.568166 0.740125 0.414232 
168 "H21" 73.33333 93.33333 53.33333 0.555112 0.734904 0.345482 
169 "I1" 73.33333 93.33333 46.66667 0.543974 0.730448 0.286823 
170 "I2" 73.33333 93.33333 40.00000 0.534662 0.726724 0.237781 
171 "I3" 73.33333 93.33333 33.33333 0.527079 0.723690 0.197843 
172 "I4" 73.33333 93.33333 26.66667 0.521118 0.721306 0.166449 
173 "I5" 73.33333 93.33333 20.00000 0.516661 0.719523 0.142976 
174 "I6" 73.33333 93.33333 13.33333 0.513574 0.718288 0.126717 
175 "I7" 73.33333 93.33333 6.666667 0.511699 0.717539 0.116843 
176 "I8" 73.33333 93.33333 0.00000 0.510688 0.717134 0.111516 
177 "I9" 60.00000 93.33333 100.0000 0.617549 0.751371 1.058371 
178 "I10" 60.00000 93.33333 93.33333 0.591384 0.740905 0.920570 
179 "I11" 60.00000 93.33333 86.66667 0.567578 0.731383 0.795189 
180 "I12" 60.00000 93.33333 80.00000 0.546065 0.722777 0.681887 
181 "I13" 60.00000 93.33333 73.33333 0.526777 0.715062 0.580304 
182 "I14" 60.00000 93.33333 66.66667 0.509643 0.708209 0.490068 
183 "I15" 60.00000 93.33333 60.00000 0.494589 0.702187 0.410783 
184 "I16" 60.00000 93.33333 53.33333 0.481536 0.696966 0.342033 
185 "I17" 60.00000 93.33333 46.66667 0.470398 0.692511 0.283374 
186 "I18" 60.00000 93.33333 40.00000 0.461086 0.688786 0.234332 
187 "I19" 60.00000 93.33333 33.33333 0.453503 0.685753 0.194394 
188 "I20" 60.00000 93.33333 26.66667 0.447542 0.683368 0.163000 
189 "I21" 60.00000 93.33333 20.00000 0.443085 0.681585 0.139527 
190 "J1" 60.00000 93.33333 13.33333 0.439998 0.680351 0.123268 
191 "J2" 60.00000 93.33333 6.666667 0.438123 0.679601 0.113394 
192 "J3" 60.00000 93.33333 0.00000 0.437112 0.679196 0.108067 
193 "J4" 46.66667 93.33333 100.0000 0.562250 0.722858 1.055779 
194 "J5" 46.66667 93.33333 93.33333 0.536086 0.712392 0.917978 
195 "J6" 46.66667 93.33333 86.66667 0.512279 0.702869 0.792597 
196 "J7" 46.66667 93.33333 80.00000 0.490766 0.694264 0.679294 
197 "J8" 46.66667 93.33333 73.33333 0.471478 0.686549 0.577712 
198 "J9" 46.66667 93.33333 66.66667 0.454345 0.679695 0.487476 
199 "J10" 46.66667 93.33333 60.00000 0.439291 0.673674 0.408191 
200 "J11" 46.66667 93.33333 53.33333 0.426237 0.668452 0.339441 
201 "J12" 46.66667 93.33333 46.66667 0.415099 0.663997 0.280782 
202 "J13" 46.66667 93.33333 40.00000 0.405787 0.660272 0.231740 
203 "J14" 46.66667 93.33333 33.33333 0.398204 0.657239 0.191802 
204 "J15" 46.66667 93.33333 26.66667 0.392243 0.654855 0.160408 
205 "J16" 46.66667 93.33333 20.00000 0.387786 0.653072 0.136934 
206 "J17" 46.66667 93.33333 13.33333 0.384699 0.651837 0.120676 
207 "J18" 46.66667 93.33333 6.666667 0.382824 0.651087 0.110802 
208 "J19" 46.66667 93.33333 0.00000 0.381813 0.650683 0.105475 
209 "J20" 33.33333 93.33333 100.0000 0.523631 0.702944 1.053969 
210 "J21" 33.33333 93.33333 93.33333 0.497466 0.692478 0.916168 
211 "K1" 33.33333 93.33333 86.66667 0.473659 0.682956 0.790787 
212 "K2" 33.33333 93.33333 80.00000 0.452146 0.674351 0.677484 
213 "K3" 33.33333 93.33333 73.33333 0.432858 0.666635 0.575902 
214 "K4" 33.33333 93.33333 66.66667 0.415725 0.659782 0.485666 
215 "K5" 33.33333 93.33333 60.00000 0.400671 0.653760 0.406381 
216 "K6" 33.33333 93.33333 53.33333 0.387617 0.648539 0.337631 
217 "K7" 33.33333 93.33333 46.66667 0.376479 0.644084 0.278972 
218 "K8" 33.33333 93.33333 40.00000 0.367168 0.640359 0.229930 
219 "K9" 33.33333 93.33333 33.33333 0.359584 0.637326 0.189992 
220 "K10" 33.33333 93.33333 26.66667 0.353623 0.634941 0.158597 
221 "K11" 33.33333 93.33333 20.00000 0.349166 0.633159 0.135124 
222 "K12" 33.33333 93.33333 13.33333 0.346079 0.631924 0.118866 
223 "K13" 33.33333 93.33333 6.666667 0.344205 0.631174 0.108991 
224 "K14" 33.33333 93.33333 0.00000 0.343193 0.630769 0.103665 
225 "K15" 20.00000 93.33333 100.0000 0.499817 0.690665 1.052852 
226 "K16" 20.00000 93.33333 93.33333 0.473652 0.680199 0.915051 
227 "K17" 20.00000 93.33333 86.66667 0.449845 0.670677 0.789671 
228 "K18" 20.00000 93.33333 80.00000 0.428332 0.662072 0.676368 
229 "K19" 20.00000 93.33333 73.33333 0.409045 0.654356 0.574786 
230 "K20" 20.00000 93.33333 66.66667 0.391911 0.647503 0.484549 
231 "K21" 20.00000 93.33333 60.00000 0.376857 0.641481 0.405265 
232 "L1" 20.00000 93.33333 53.33333 0.363803 0.636260 0.336514 
233 "L2" 20.00000 93.33333 46.66667 0.352665 0.631805 0.277856 
234 "L3" 20.00000 93.33333 40.00000 0.343354 0.628080 0.228814 
235 "L4" 20.00000 93.33333 33.33333 0.335770 0.625047 0.188876 
236 "L5" 20.00000 93.33333 26.66667 0.329809 0.622662 0.157481 
237 "L6" 20.00000 93.33333 20.00000 0.325353 0.620880 0.134008 
238 "L7" 20.00000 93.33333 13.33333 0.322266 0.619645 0.117750 
239 "L8" 20.00000 93.33333 6.666667 0.320391 0.618895 0.107875 
240 "L9" 20.00000 93.33333 0.00000 0.319379 0.618490 0.102548 
241 "L10" 6.666667 93.33333 100.0000 0.488474 0.684817 1.052321 
242 "L11" 6.666667 93.33333 93.33333 0.462310 0.674351 0.914520 
243 "L12" 6.666667 93.33333 86.66667 0.438503 0.664828 0.789139 
244 "L13" 6.666667 93.33333 80.00000 0.416990 0.656223 0.675836 
245 "L14" 6.666667 93.33333 73.33333 0.397702 0.648508 0.574254 
246 "L15" 6.666667 93.33333 66.66667 0.380569 0.641655 0.484018 
247 "L16" 6.666667 93.33333 60.00000 0.365515 0.635633 0.404733 
248 "L17" 6.666667 93.33333 53.33333 0.352461 0.630411 0.335983 
249 "L18" 6.666667 93.33333 46.66667 0.341323 0.625956 0.277324 
250 "L19" 6.666667 93.33333 40.00000 0.332011 0.622232 0.228282 
251 "L20" 6.666667 93.33333 33.33333 0.324428 0.619198 0.188344 
252 "L21" 6.666667 93.33333 26.66667 0.318467 0.616814 0.156949 
253 "M1" 6.666667 93.33333 20.00000 0.314010 0.615031 0.133476 
254 "M2" 6.666667 93.33333 13.33333 0.310923 0.613796 0.117218 
255 "M3" 6.666667 93.33333 6.666667 0.309048 0.613046 0.107343 
256 "M4" 6.666667 93.33333 0.00000 0.308037 0.612642 0.102017 
257 "M5" 100.0000 86.66667 100.0000 0.851441 0.801942 1.055820 
258 "M6" 100.0000 86.66667 93.33333 0.825276 0.791476 0.918019 
259 "M7" 100.0000 86.66667 86.66667 0.801470 0.781954 0.792639 
260 "M8" 100.0000 86.66667 80.00000 0.779957 0.773349 0.679336 
261 "M9" 100.0000 86.66667 73.33333 0.760669 0.765634 0.577754 
262 "M10" 100.0000 86.66667 66.66667 0.743536 0.758780 0.487517 
263 "M11" 100.0000 86.66667 60.00000 0.728481 0.752759 0.408233 
264 "M12" 100.0000 86.66667 53.33333 0.715428 0.747537 0.339482 
265 "M13" 100.0000 86.66667 46.66667 0.704290 0.743082 0.280824 
266 "M14" 100.0000 86.66667 40.00000 0.694978 0.739357 0.231782 
267 "M15" 100.0000 86.66667 33.33333 0.687395 0.736324 0.191844 
268 "M16" 100.0000 86.66667 26.66667 0.681434 0.733940 0.160449 
269 "M17" 100.0000 86.66667 20.00000 0.676977 0.732157 0.136976 
270 "M18" 100.0000 86.66667 13.33333 0.673890 0.730922 0.120718 
271 "M19" 100.0000 86.66667 6.666667 0.672015 0.730172 0.110843 
272 "M20" 100.0000 86.66667 0.00000 0.671004 0.729767 0.105516 
273 "M21" 86.66667 86.66667 100.0000 0.737213 0.743044 1.050466 
274 "N1" 86.66667 86.66667 93.33333 0.711049 0.732578 0.912665 
275 "N2" 86.66667 86.66667 86.66667 0.687242 0.723055 0.787284 
276 "N3" 86.66667 86.66667 80.00000 0.665729 0.714450 0.673981 
277 "N4" 86.66667 86.66667 73.33333 0.646441 0.706735 0.572399 
278 "N5" 86.66667 86.66667 66.66667 0.629308 0.699882 0.482163 
279 "N6" 86.66667 86.66667 60.00000 0.614254 0.693860 0.402878 
280 "N7" 86.66667 86.66667 53.33333 0.601200 0.688638 0.334128 
281 "N8" 86.66667 86.66667 46.66667 0.590062 0.684183 0.275469 
282 "N9" 86.66667 86.66667 40.00000 0.580750 0.680459 0.226427 
283 "N10" 86.66667 86.66667 33.33333 0.573167 0.677425 0.186489 
284 "N11" 86.66667 86.66667 26.66667 0.567206 0.675041 0.155095 
285 "N12" 86.66667 86.66667 20.00000 0.562749 0.673258 0.131621 
286 "N13" 86.66667 86.66667 13.33333 0.559662 0.672023 0.115363 
287 "N14" 86.66667 86.66667 6.666667 0.557787 0.671273 0.105489 
288 "N15" 86.66667 86.66667 0.00000 0.556776 0.670869 0.100162 
289 "N16" 73.33333 86.66667 100.0000 0.643948 0.694954 1.046094 
290 "N17" 73.33333 86.66667 93.33333 0.617783 0.684488 0.908293 
291 "N18" 73.33333 86.66667 86.66667 0.593977 0.674965 0.782912 
292 "N19" 73.33333 86.66667 80.00000 0.572464 0.666360 0.669610 
293 "N20" 73.33333 86.66667 73.33333 0.553176 0.658645 0.568027 
294 "N21" 73.33333 86.66667 66.66667 0.536042 0.651791 0.477791 
295 "O1" 73.33333 86.66667 60.00000 0.520988 0.645770 0.398506 
296 "O2" 73.33333 86.66667 53.33333 0.507934 0.640548 0.329756 
297 "O3" 73.33333 86.66667 46.66667 0.496797 0.636093 0.271097 
298 "O4" 73.33333 86.66667 40.00000 0.487485 0.632368 0.222055 
299 "O5" 73.33333 86.66667 33.33333 0.479902 0.629335 0.182117 
300 "O6" 73.33333 86.66667 26.66667 0.473941 0.626951 0.150723 
301 "O7" 73.33333 86.66667 20.00000 0.469484 0.625168 0.127250 
302 "O8" 73.33333 86.66667 13.33333 0.466397 0.623933 0.110991 
303 "O9" 73.33333 86.66667 6.666667 0.464522 0.623183 0.101117 
304 "O10" 73.33333 86.66667 0.00000 0.463510 0.622779 0.0957900 
305 "O11" 60.00000 86.66667 100.0000 0.570371 0.657016 1.042645 
306 "O12" 60.00000 86.66667 93.33333 0.544207 0.646550 0.904844 
307 "O13" 60.00000 86.66667 86.66667 0.520400 0.637027 0.779463 
308 "O14" 60.00000 86.66667 80.00000 0.498887 0.628422 0.666161 
309 "O15" 60.00000 86.66667 73.33333 0.479599 0.620707 0.564579 
310 "O16" 60.00000 86.66667 66.66667 0.462466 0.613854 0.474342 
311 "O17" 60.00000 86.66667 60.00000 0.447412 0.607832 0.395057 
312 "O18" 60.00000 86.66667 53.33333 0.434358 0.602610 0.326307 
313 "O19" 60.00000 86.66667 46.66667 0.423220 0.598155 0.267649 
314 "O20" 60.00000 86.66667 40.00000 0.413908 0.594431 0.218606 
315 "O21" 60.00000 86.66667 33.33333 0.406325 0.591397 0.178668 
316 "P1" 60.00000 86.66667 26.66667 0.400364 0.589013 0.147274 
317 "P2" 60.00000 86.66667 20.00000 0.395907 0.587230 0.123801 
318 "P3" 60.00000 86.66667 13.33333 0.392820 0.585995 0.107542 
319 "P4" 60.00000 86.66667 6.666667 0.390945 0.585245 0.0976680 
320 "P5" 60.00000 86.66667 0.00000 0.389934 0.584841 0.0923410 
321 "P6" 46.66667 86.66667 100.0000 0.515073 0.628502 1.040053 
322 "P7" 46.66667 86.66667 93.33333 0.488908 0.618036 0.902252 
323 "P8" 46.66667 86.66667 86.66667 0.465101 0.608514 0.776871 
324 "P9" 46.66667 86.66667 80.00000 0.443588 0.599909 0.663569 
325 "P10" 46.66667 86.66667 73.33333 0.424300 0.592193 0.561986 
326 "P11" 46.66667 86.66667 66.66667 0.407167 0.585340 0.471750 
327 "P12" 46.66667 86.66667 60.00000 0.392113 0.579318 0.392465 
328 "P13" 46.66667 86.66667 53.33333 0.379059 0.574097 0.323715 
329 "P14" 46.66667 86.66667 46.66667 0.367921 0.569642 0.265056 
330 "P15" 46.66667 86.66667 40.00000 0.358610 0.565917 0.216014 
331 "P16" 46.66667 86.66667 33.33333 0.351026 0.562884 0.176076 
332 "P17" 46.66667 86.66667 26.66667 0.345065 0.560499 0.144682 
333 "P18" 46.66667 86.66667 20.00000 0.340609 0.558717 0.121209 
334 "P19" 46.66667 86.66667 13.33333 0.337521 0.557482 0.104950 
335 "P20" 46.66667 86.66667 6.666667 0.335647 0.556732 0.0950760 
336 "P21" 46.66667 86.66667 0.00000 0.334635 0.556327 0.0897490 
337 "Q1" 33.33333 86.66667 100.0000 0.476453 0.608589 1.038243 
338 "Q2" 33.33333 86.66667 93.33333 0.450288 0.598123 0.900442 
339 "Q3" 33.33333 86.66667 86.66667 0.426482 0.588601 0.775061 
340 "Q4" 33.33333 86.66667 80.00000 0.404969 0.579995 0.661758 
341 "Q5" 33.33333 86.66667 73.33333 0.385681 0.572280 0.560176 
342 "Q6" 33.33333 86.66667 66.66667 0.368547 0.565427 0.469940 
343 "Q7" 33.33333 86.66667 60.00000 0.353493 0.559405 0.390655 
344 "Q8" 33.33333 86.66667 53.33333 0.340439 0.554184 0.321905 
345 "Q9" 33.33333 86.66667 46.66667 0.329302 0.549729 0.263246 
346 "Q10" 33.33333 86.66667 40.00000 0.319990 0.546004 0.214204 
347 "Q11" 33.33333 86.66667 33.33333 0.312407 0.542971 0.174266 
348 "Q12" 33.33333 86.66667 26.66667 0.306446 0.540586 0.142871 
349 "Q13" 33.33333 86.66667 20.00000 0.301989 0.538803 0.119398 
350 "Q14" 33.33333 86.66667 13.33333 0.298902 0.537569 0.103140 
351 "Q15" 33.33333 86.66667 6.666667 0.297027 0.536819 0.0932660 
352 "Q16" 33.33333 86.66667 0.00000 0.296015 0.536414 0.0879390 
353 "Q17" 20.00000 86.66667 100.0000 0.452639 0.596310 1.037127 
354 "Q18" 20.00000 86.66667 93.33333 0.426474 0.585844 0.899325 
355 "Q19" 20.00000 86.66667 86.66667 0.402668 0.576322 0.773945 
356 "Q20" 20.00000 86.66667 80.00000 0.381155 0.567716 0.660642 
357 "Q21" 20.00000 86.66667 73.33333 0.361867 0.560001 0.559060 
358 "R1" 20.00000 86.66667 66.66667 0.344733 0.553148 0.468824 
359 "R2" 20.00000 86.66667 60.00000 0.329679 0.547126 0.389539 
360 "R3" 20.00000 86.66667 53.33333 0.316625 0.541905 0.320789 
361 "R4" 20.00000 86.66667 46.66667 0.305488 0.537449 0.262130 
362 "R5" 20.00000 86.66667 40.00000 0.296176 0.533725 0.213088 
363 "R6" 20.00000 86.66667 33.33333 0.288593 0.530691 0.173150 
364 "R7" 20.00000 86.66667 26.66667 0.282632 0.528307 0.141755 
