Pre-made_Targets/Patch Width 12-15mm - Intermediate (Easy with ruler)/CM-Interm-Letter-760p-2pages-w13.0mm-19x20_Thick-Spacers/CM-Interm-Letter-760p-2pages-w13.0mm-19x20.ti2
CTI2   

DESCRIPTOR "Argyll Calibration Target chart information 2"
ORIGINATOR "Argyll printtarg"
CREATED "Thu Feb 12 21:31:08 2026"
TARGET_INSTRUMENT "X-Rite ColorMunki"
COMP_GREY_STEPS "128"
APPROX_WHITE_POINT "95.106486 100.000000 108.844025"
COLOR_REP "iRGB"
PAPER_SIZE "279.4x215.9"
RANDOM_START "588"
STEPS_IN_PASS "20"
PASSES_IN_STRIPS2 "19,19"
STRIP_INDEX_PATTERN "A-Z, A-Z"
PATCH_INDEX_PATTERN "0-9,@-9,@-9;1-999"
INDEX_ORDER "STRIP_THEN_PATCH"

NUMBER_OF_FIELDS 8
BEGIN_DATA_FORMAT
SAMPLE_ID SAMPLE_LOC RGB_R RGB_G RGB_B XYZ_X XYZ_Y XYZ_Z 
END_DATA_FORMAT

NUMBER_OF_SETS 760
BEGIN_DATA
1 "G4" 100.0000 100.0000 100.0000 95.10649 100.0000 108.8440 
2 "N9" 100.0000 100.0000 100.0000 95.10649 100.0000 108.8440 
3 "A3" 100.0000 100.0000 100.0000 95.10649 100.0000 108.8440 
4 "W9" 100.0000 100.0000 100.0000 95.10649 100.0000 108.8440 
5 "AE8" 100.0000 100.0000 100.0000 95.10649 100.0000 108.8440 
6 "AF4" 100.0000 100.0000 100.0000 95.10649 100.0000 108.8440 
7 "P6" 100.0000 100.0000 100.0000 95.10649 100.0000 108.8440 
8 "M3" 100.0000 100.0000 100.0000 95.10649 100.0000 108.8440 
9 "AB12" 0.00000 0.00000 0.00000 1.000000 1.000000 1.000000 
10 "Q20" 0.00000 0.00000 0.00000 1.000000 1.000000 1.000000 
11 "AJ12" 0.00000 0.00000 0.00000 1.000000 1.000000 1.000000 
12 "AJ16" 0.00000 0.00000 0.00000 1.000000 1.000000 1.000000 
13 "AA8" 0.00000 0.00000 0.00000 1.000000 1.000000 1.000000 
14 "AE11" 0.00000 0.00000 0.00000 1.000000 1.000000 1.000000 
15 "D16" 0.00000 0.00000 0.00000 1.000000 1.000000 1.000000 
16 "Y6" 0.00000 0.00000 0.00000 1.000000 1.000000 1.000000 
17 "G8" 99.21263 99.21263 99.21263 93.42961 98.23592 106.9224 
18 "X13" 98.42527 98.42527 98.42527 91.77029 96.49032 105.0208 
19 "X7" 97.63790 97.63790 97.63790 90.12848 94.76313 103.1393 
20 "A5" 96.85054 96.85054 96.85054 88.50412 93.05431 101.2779 
21 "T4" 96.06317 96.06317 96.06317 86.89716 91.36379 99.43632 
22 "L13" 95.27581 95.27581 95.27581 85.30756 89.69153 97.61466 
23 "AL18" 94.48844 94.48844 94.48844 83.73524 88.03745 95.81282 
24 "P4" 93.70108 93.70108 93.70108 82.18017 86.40152 94.03074 
25 "AD13" 92.91371 92.91371 92.91371 80.64228 84.78366 92.26835 
26 "AA14" 92.12634 92.12634 92.12634 79.12152 83.18382 90.52559 
27 "N4" 91.33898 91.33898 91.33898 77.61783 81.60194 88.80240 
28 "AH14" 90.55161 90.55161 90.55161 76.13117 80.03797 87.09872 
29 "Z10" 89.76425 89.76425 89.76425 74.66147 78.49185 85.41448 
30 "K9" 88.97688 88.97688 88.97688 73.20868 76.96352 83.74961 
31 "K2" 88.18952 88.18952 88.18952 71.77274 75.45291 82.10406 
32 "Z8" 87.40215 87.40215 87.40215 70.35360 73.95997 80.47775 
33 "H3" 86.61479 86.61479 86.61479 68.95120 72.48465 78.87063 
34 "AG8" 85.82742 85.82742 85.82742 67.56549 71.02687 77.28263 
35 "M17" 85.04005 85.04005 85.04005 66.19639 69.58659 75.71368 
36 "O8" 84.25269 84.25269 84.25269 64.84387 68.16374 74.16371 
37 "E2" 83.46532 83.46532 83.46532 63.50786 66.75825 72.63267 
38 "T2" 82.67643 82.67643 82.67643 62.18830 65.37007 71.12048 
39 "T15" 81.88907 81.88907 81.88907 60.88513 63.99914 69.62708 
40 "AB15" 81.10170 81.10170 81.10170 59.59830 62.64540 68.15240 
41 "P14" 80.31434 80.31434 80.31434 58.32775 61.30878 66.69637 
42 "B13" 79.52697 79.52697 79.52697 57.07341 59.98921 65.25893 
43 "S2" 78.73960 78.73960 78.73960 55.83523 58.68665 63.84000 
44 "Y10" 77.95224 77.95224 77.95224 54.61315 57.40102 62.43952 
45 "B9" 77.16487 77.16487 77.16487 53.40710 56.13226 61.05742 
46 "U8" 76.37751 76.37751 76.37751 52.21703 54.88030 59.69362 
47 "N7" 75.59014 75.59014 75.59014 51.04288 53.64509 58.34807 
48 "T9" 74.80278 74.80278 74.80278 49.88458 52.42656 57.02068 
49 "AL13" 74.01541 74.01541 74.01541 48.74207 51.22464 55.71139 
50 "C15" 73.22805 73.22805 73.22805 47.61529 50.03927 54.42012 
51 "M13" 72.44068 72.44068 72.44068 46.50418 48.87038 53.14681 
52 "AI19" 71.65332 71.65332 71.65332 45.40867 47.71791 51.89139 
53 "U3" 70.86595 70.86595 70.86595 44.32870 46.58179 50.65377 
54 "AJ8" 70.07858 70.07858 70.07858 43.26422 45.46194 49.43389 
55 "A11" 69.29122 69.29122 69.29122 42.21514 44.35832 48.23167 
56 "J15" 68.50385 68.50385 68.50385 41.18142 43.27084 47.04705 
57 "AF7" 67.71649 67.71649 67.71649 40.16297 42.19944 45.87993 
58 "AG5" 66.92912 66.92912 66.92912 39.15975 41.14405 44.73026 
59 "F18" 66.14176 66.14176 66.14176 38.17168 40.10460 43.59796 
60 "AG15" 65.35439 65.35439 65.35439 37.19870 39.08103 42.48294 
61 "T7" 64.56703 64.56703 64.56703 36.24074 38.07325 41.38514 
62 "AF12" 63.77966 63.77966 63.77966 35.29774 37.08121 40.30447 
63 "AC12" 62.99229 62.99229 62.99229 34.36962 36.10483 39.24087 
64 "AE6" 62.20493 62.20493 62.20493 33.45631 35.14403 38.19424 
65 "AK18" 61.41756 61.41756 61.41756 32.55776 34.19876 37.16452 
66 "X16" 60.63020 60.63020 60.63020 31.67389 33.26893 36.15162 
67 "X4" 59.84283 59.84283 59.84283 30.80463 32.35447 35.15547 
68 "AE4" 59.05547 59.05547 59.05547 29.94991 31.45530 34.17598 
69 "Y14" 58.26810 58.26810 58.26810 29.10967 30.57136 33.21308 
70 "L6" 57.48074 57.48074 57.48074 28.28382 29.70258 32.26668 
71 "Z17" 56.69337 56.69337 56.69337 27.47231 28.84886 31.33670 
72 "V17" 55.90600 55.90600 55.90600 26.67505 28.01015 30.42306 
73 "E15" 55.11864 55.11864 55.11864 25.89198 27.18635 29.52568 
74 "AC14" 54.33127 54.33127 54.33127 25.12302 26.37741 28.64446 
75 "AB3" 53.54391 53.54391 53.54391 24.36809 25.58323 27.77934 
76 "AH19" 52.75654 52.75654 52.75654 23.62713 24.80374 26.93021 
77 "H11" 51.96918 51.96918 51.96918 22.90006 24.03886 26.09701 
78 "AE2" 51.18181 51.18181 51.18181 22.18681 23.28852 25.27963 
79 "AD7" 50.39445 50.39445 50.39445 21.48729 22.55262 24.47800 
80 "Z3" 49.60555 49.60555 49.60555 20.80143 21.83110 23.69202 
81 "AA3" 48.81819 48.81819 48.81819 20.12916 21.12387 22.92161 
82 "AC16" 48.03082 48.03082 48.03082 19.47039 20.43085 22.16668 
83 "X9" 47.24346 47.24346 47.24346 18.82505 19.75195 21.42713 
84 "G12" 46.45609 46.45609 46.45609 18.19306 19.08710 20.70288 
85 "I14" 45.66873 45.66873 45.66873 17.57434 18.43620 19.99384 
86 "AK16" 44.88136 44.88136 44.88136 16.96880 17.79918 19.29991 
87 "J13" 44.09400 44.09400 44.09400 16.37637 17.17594 18.62099 
88 "S13" 43.30663 43.30663 43.30663 15.79696 16.56640 17.95700 
89 "AI9" 42.51926 42.51926 42.51926 15.23049 15.97048 17.30784 
90 "F12" 41.73190 41.73190 41.73190 14.67688 15.38808 16.67342 
91 "F16" 40.94453 40.94453 40.94453 14.13604 14.81911 16.05362 
92 "Q10" 40.15717 40.15717 40.15717 13.60789 14.26349 15.44837 
93 "J9" 39.36980 39.36980 39.36980 13.09233 13.72113 14.85755 
94 "R3" 38.58244 38.58244 38.58244 12.58929 13.19193 14.28108 
95 "V9" 37.79507 37.79507 37.79507 12.09867 12.67580 13.71884 
96 "AE18" 37.00771 37.00771 37.00771 11.62038 12.17264 13.17073 
97 "AL9" 36.22034 36.22034 36.22034 11.15434 11.68237 12.63666 
98 "AI11" 35.43297 35.43297 35.43297 10.70045 11.20487 12.11651 
99 "L1" 34.64561 34.64561 34.64561 10.25863 10.74007 11.61019 
100 "H9" 33.85824 33.85824 33.85824 9.828766 10.28786 11.11758 
101 "X2" 33.07088 33.07088 33.07088 9.410778 9.848137 10.63857 
102 "AD5" 32.28351 32.28351 32.28351 9.004568 9.420804 10.17306 
103 "AA19" 31.49615 31.49615 31.49615 8.610039 9.005759 9.720942 
104 "AC20" 30.70878 30.70878 30.70878 8.227092 8.602899 9.282093 
105 "V7" 29.92142 29.92142 29.92142 7.855628 8.212119 8.856404 
106 "AB1" 29.13405 29.13405 29.13405 7.495547 7.833314 8.443759 
107 "S20" 28.34668 28.34668 28.34668 7.146747 7.466377 8.044041 
108 "M19" 27.55932 27.55932 27.55932 6.809125 7.111198 7.657133 
109 "K18" 26.77195 26.77195 26.77195 6.482575 6.767667 7.282914 
110 "X20" 25.98459 25.98459 25.98459 6.166992 6.435674 6.921262 
111 "AG17" 25.19722 25.19722 25.19722 5.862267 6.115104 6.572054 
112 "AI1" 24.40986 24.40986 24.40986 5.568292 5.805842 6.235165 
113 "W20" 23.62249 23.62249 23.62249 5.284955 5.507771 5.910466 
114 "AB17" 22.83513 22.83513 22.83513 5.012142 5.220773 5.597830 
115 "F8" 22.04776 22.04776 22.04776 4.749741 4.944726 5.297123 
116 "U14" 21.26040 21.26040 21.26040 4.497633 4.679509 5.008212 
117 "AB19" 20.47303 20.47303 20.47303 4.255699 4.424995 4.730962 
118 "L9" 19.68566 19.68566 19.68566 4.023820 4.181058 4.465234 
119 "E20" 18.89830 18.89830 18.89830 3.801872 3.947569 4.210886 
120 "N13" 18.11093 18.11093 18.11093 3.589730 3.724395 3.967775 
121 "N20" 17.32357 17.32357 17.32357 3.387265 3.511402 3.735755 
122 "AL20" 16.53468 16.53468 16.53468 3.194348 3.308453 3.514676 
123 "G2" 15.74731 15.74731 15.74731 3.010845 3.115408 3.304385 
124 "B6" 14.95995 14.95995 14.95995 2.836620 2.932124 3.104727 
125 "P17" 14.17258 14.17258 14.17258 2.671534 2.758453 2.915542 
126 "AF16" 13.38521 13.38521 13.38521 2.515445 2.594247 2.736667 
127 "D7" 12.59785 12.59785 12.59785 2.368206 2.439353 2.567935 
128 "A8" 11.81048 11.81048 11.81048 2.229669 2.293612 2.409175 
129 "V19" 11.02312 11.02312 11.02312 2.099680 2.156863 2.260210 
130 "AH6" 10.23575 10.23575 10.23575 1.978081 2.028941 2.120860 
131 "AF14" 9.448386 9.448386 9.448386 1.864709 1.909674 1.990938 
132 "AF10" 8.661021 8.661021 8.661021 1.759399 1.798887 1.870255 
133 "M1" 7.873655 7.873655 7.873655 1.661976 1.696398 1.758610 
134 "F2" 7.086290 7.086290 7.086290 1.572262 1.602020 1.655800 
135 "I4" 6.298924 6.298924 6.298924 1.490073 1.515557 1.561613 
136 "U19" 5.511559 5.511559 5.511559 1.415217 1.436808 1.475829 
137 "AF1" 4.724193 4.724193 4.724193 1.347492 1.365562 1.398219 
138 "O13" 3.936828 3.936828 3.936828 1.286692 1.301600 1.328543 
139 "A20" 3.149462 3.149462 3.149462 1.229411 1.241340 1.262900 
140 "AK3" 2.362097 2.362097 2.362097 1.172058 1.181005 1.197175 
141 "AG12" 1.574731 1.574731 1.574731 1.114705 1.120670 1.131450 
142 "B20" 0.787366 0.787366 0.787366 1.057353 1.060335 1.065725 
143 "AC7" 0.00000 0.00000 100.0000 18.87111 8.147314 95.12896 
144 "D4" 0.00000 100.0000 0.00000 36.40521 71.80052 12.80184 
145 "W12" 0.00000 100.0000 83.21660 48.19648 76.51628 74.90766 
146 "K17" 100.0000 0.00000 0.00000 41.83017 22.05217 2.913230 
147 "S6" 96.92988 98.86320 58.23606 78.86460 91.72770 42.36484 
148 "AC11" 79.90234 0.00000 54.05661 30.11740 15.48897 26.01614 
149 "A1" 64.88746 30.98344 31.31762 20.65603 15.07877 10.17163 
150 "AJ1" 20.81941 49.88479 17.61044 10.46620 17.01806 6.042425 
151 "L10" 69.36904 48.26886 0.00000 25.94974 24.28774 4.181155 
152 "AG6" 0.00000 57.78744 100.0000 29.25672 28.91563 98.59086 
153 "A6" 66.05478 96.84443 96.85054 66.61542 81.76232 100.2510 
154 "P5" 0.00000 66.35538 83.56603 26.98853 33.92746 68.38987 
155 "T18" 0.00000 53.96963 49.34157 13.66169 20.37322 23.56014 
156 "I5" 93.98184 69.54910 100.0000 69.96742 57.69623 102.0022 
157 "AG14" 57.72335 96.68116 57.50668 50.92487 74.80708 39.80850 
158 "I16" 0.108339 0.459297 36.07538 2.928273 1.791713 11.07643 
159 "AD10" 79.19890 37.38918 16.51637 29.60196 21.75743 5.680394 
160 "H14" 64.95308 0.00000 2.149996 16.52272 9.000125 1.882596 
161 "Z18" 67.51659 40.43641 100.0000 40.56460 26.47586 97.52435 
162 "L3" 34.98131 7.409781 25.35592 6.262001 3.944548 6.192584 
163 "Z20" 0.00000 35.95789 89.76730 18.75265 14.11956 75.94041 
164 "V16" 0.00000 71.49004 9.616236 17.79175 34.30897 7.429471 
165 "V1" 50.71946 0.00000 57.10994 15.12218 7.690557 28.32944 
166 "M20" 100.0000 29.67575 49.60555 48.12717 28.62872 23.56478 
167 "C9" 100.0000 79.62463 63.56909 69.45036 66.94063 44.02174 
168 "W16" 93.49966 0.00000 25.15602 36.97060 19.44009 7.490436 
169 "F20" 30.59892 30.31815 9.436179 6.925911 7.968129 2.892155 
170 "H13" 24.13519 37.63790 54.03067 11.60407 12.08701 26.31051 
171 "D9" 69.67727 44.10315 58.85710 30.34944 24.09083 32.52144 
172 "U20" 27.37316 7.368582 0.00000 3.713514 2.736065 1.192195 
173 "AJ11" 0.00000 82.13931 90.56229 37.95647 52.07127 83.73129 
174 "AA5" 64.82795 64.94392 80.69276 40.85920 40.21118 64.14899 
175 "AB9" 46.76280 35.86023 63.80560 18.82615 14.99018 36.93784 
176 "AK12" 72.18891 55.58099 50.15335 33.97803 31.71301 25.37840 
177 "X12" 87.15496 75.24834 0.00000 49.53640 53.68566 8.613543 
178 "AA1" 42.38804 30.07553 27.50744 10.83896 9.813759 7.944779 
179 "AF8" 45.94644 50.28611 0.00000 15.95724 20.09836 3.898769 
180 "AE19" 0.00000 72.17365 47.51202 21.40579 36.32431 24.70726 
181 "M2" 51.49767 71.50835 0.00000 26.94795 39.06272 6.980583 
182 "C18" 64.05737 71.37102 53.75448 37.06180 43.65516 30.79900 
183 "B17" 43.01213 0.00000 15.10185 7.681814 4.404150 3.164184 
184 "U6" 0.00000 89.79934 86.61479 41.64295 61.63018 78.21543 
185 "AA13" 57.61196 85.57565 72.10956 46.32953 60.30588 54.90255 
186 "W15" 100.0000 59.06767 59.84283 58.38716 46.10653 36.35805 
187 "E4" 68.80140 80.12970 43.90936 42.95285 54.14028 24.22010 
188 "AG7" 78.11856 69.28969 40.32959 42.29335 45.02282 19.98893 
189 "Y8" 11.51446 29.49264 20.59510 4.642155 6.523327 5.152549 
190 "AG2" 46.98405 28.24292 6.215000 11.02978 9.567631 2.605085 
191 "G15" 60.87282 57.79965 100.0000 42.68767 35.84751 99.22153 
192 "S1" 100.0000 54.75395 0.00000 51.06078 40.51081 5.990127 
193 "Z12" 42.64591 61.60067 64.79896 25.90974 30.79983 40.80560 
194 "D6" 47.48150 39.25383 1.542687 13.36027 14.08039 2.985751 
195 "S19" 97.70199 0.00000 91.58770 54.36817 26.82348 79.92345 
196 "X17" 44.68299 0.00000 78.44968 18.19047 8.668932 55.71702 
197 "AH3" 28.49928 72.95949 64.56703 27.78245 39.85019 42.17369 
198 "Z13" 78.99748 31.12688 50.63554 31.69201 20.51830 23.76062 
199 "F9" 84.72419 40.65003 80.33722 44.81163 29.55282 61.31473 
200 "C16" 83.27611 32.62074 28.44739 32.23440 21.53427 9.481932 
201 "K12" 51.12078 21.12001 47.87823 14.95199 9.719370 20.21088 
202 "G3" 44.51514 8.284123 0.00000 8.075679 5.045623 1.408260 
203 "O17" 45.10109 52.79469 79.68109 27.22186 25.93717 60.50042 
204 "X14" 46.78721 72.19959 44.56703 28.55410 40.08103 22.75326 
205 "C7" 79.90692 74.79362 65.02327 50.77412 53.16525 44.08338 
206 "I1" 9.781033 0.00000 17.84848 1.874263 1.395393 3.540359 
207 "AF11" 43.83154 28.23529 74.83024 19.17186 12.70008 51.00828 
208 "K7" 63.17388 79.68719 90.71946 51.08982 56.62039 84.21253 
209 "AB7" 28.60914 65.35592 65.35439 24.21100 32.38591 41.87463 
210 "G14" 56.24323 50.78965 36.97261 22.13975 23.30170 14.74410 
211 "T5" 83.60876 57.09773 35.89075 40.23377 36.02296 15.61316 
212 "G19" 100.0000 37.45022 0.00000 45.92620 30.24308 4.278585 
213 "M16" 56.20356 0.00000 33.33791 13.89352 7.460117 10.08097 
214 "AA12" 95.22850 75.84039 83.81323 68.48763 62.56004 72.14706 
215 "E3" 70.57603 0.00000 26.66819 20.66147 11.01802 7.314477 
216 "I13" 84.82033 100.0000 0.00000 64.52810 86.30077 14.11962 
217 "J10" 70.95750 13.40352 81.69986 31.73770 16.38802 61.66109 
218 "I20" 89.06691 0.00000 71.75402 40.86049 20.57371 47.02872 
219 "B18" 14.15274 17.36172 6.817731 2.728484 3.217682 1.878035 
220 "H5" 0.00000 27.86755 100.0000 21.10591 12.61629 95.87390 
221 "Q5" 0.00000 53.87808 79.36828 20.51214 23.06029 59.80455 
222 "X19" 0.00000 28.13001 59.69787 8.907233 7.805644 31.41235 
223 "AI14" 77.93088 49.60098 54.64103 36.33360 29.73562 29.00295 
224 "A12" 100.0000 73.30739 33.22194 61.02301 57.85308 17.26582 
225 "D13" 68.77089 41.66323 31.06432 25.11791 20.88285 10.93383 
226 "R18" 59.12871 25.17433 9.452964 15.58537 11.21149 3.064467 
227 "AE10" 23.19982 0.00000 54.03677 7.322327 3.736156 24.92985 
228 "AF9" 66.99931 0.00000 57.11757 22.70482 11.60001 28.69284 
229 "V11" 39.69940 49.28359 37.09163 15.71128 19.25222 14.37167 
230 "AI20" 21.30617 43.23339 83.44396 19.93439 17.62244 65.40801 
231 "F17" 59.66888 100.0000 0.00000 49.25435 78.42558 13.40392 
232 "L14" 54.91569 74.90196 100.0000 48.03036 50.55787 101.7797 
233 "AE5" 89.21950 38.70909 97.65774 53.84760 32.80542 93.13292 
234 "Z2" 42.67491 83.59808 8.885328 30.97387 51.46540 9.947715 
235 "R17" 0.00000 19.34844 27.32891 3.186374 3.636566 7.081335 
236 "G20" 0.00000 37.55093 41.44808 7.679036 10.26086 15.85651 
237 "J8" 83.21050 81.57015 33.93759 51.95211 60.22100 18.57989 
238 "P15" 100.0000 55.22393 78.91203 61.69926 45.04368 61.16627 
239 "O3" 68.62440 54.87602 78.85557 38.22505 32.75118 59.93991 
240 "F10" 35.09880 27.37469 36.66590 9.261281 8.231239 12.33110 
241 "D19" 37.98581 53.60647 49.34157 18.39793 22.62181 23.74482 
242 "J19" 78.33829 43.44244 0.00000 30.12427 24.33380 3.970181 
243 "E13" 50.05417 26.88182 33.80484 13.51087 10.34388 10.90566 
244 "T12" 71.38628 0.00000 17.84848 20.58713 11.04380 4.417463 
245 "D3" 41.53506 47.29229 54.64256 18.23436 19.32429 27.94758 
246 "Z7" 72.55360 28.18494 38.31998 25.26742 16.65422 14.11769 
247 "W7" 14.15274 0.00000 8.508431 1.863978 1.429217 1.774001 
248 "B8" 43.83307 28.46265 90.50736 24.17115 14.75915 77.15268 
249 "AA18" 0.00000 10.56535 74.57237 10.60611 5.460546 49.68825 
250 "B3" 0.00000 20.25483 63.73541 8.703488 6.001208 35.65282 
251 "AK14" 59.46746 48.01556 52.47883 24.94605 23.16085 26.28700 
252 "AI16" 100.0000 50.15030 37.00771 51.47421 38.11118 16.07816 
253 "H19" 100.0000 33.41726 67.21141 52.37770 31.44243 42.51786 
254 "Q16" 61.43435 64.55329 35.76410 29.83139 35.31668 15.95187 
255 "E16" 0.00000 92.64668 58.24369 36.10199 62.66206 39.01397 
256 "T10" 37.23201 57.56619 9.623865 16.13387 24.06812 5.541030 
257 "D2" 66.19211 58.03006 0.00000 27.63611 30.28894 5.250742 
258 "AG19" 31.63958 31.13451 50.63554 11.06020 9.882517 22.79425 
259 "N12" 25.04158 0.00000 30.06638 4.398906 2.600418 8.022400 
260 "N10" 81.38247 74.89281 100.0000 62.93392 58.23429 102.4765 
261 "AA2" 55.60388 20.56458 74.57389 22.46404 12.83395 50.48982 
262 "AE17" 44.92103 100.0000 40.19074 45.74528 76.33886 25.76053 
263 "E7" 89.74289 86.38895 96.95125 75.01447 74.95443 98.69934 
264 "W13" 43.93378 81.89670 80.51728 41.10247 53.85481 66.48782 
265 "L19" 0.00000 60.14191 68.50385 19.96758 26.72239 44.97066 
266 "L11" 62.43381 64.14435 70.81712 36.47939 37.73682 49.29253 
267 "J5" 60.71107 41.99588 41.73190 22.15996 19.34888 17.04383 
268 "L20" 100.0000 30.54246 25.46731 45.46249 27.80709 8.776846 
269 "B10" 58.79759 14.05509 14.96147 14.40892 8.793275 3.626627 
270 "I3" 34.72953 38.29709 1.605249 9.352252 11.67476 2.736999 
271 "AL17" 47.63104 0.00000 36.06928 10.78212 5.822579 11.43773 
272 "O10" 68.60304 37.45174 64.19318 29.19337 20.85195 37.98442 
273 "AA16" 10.68284 28.93263 0.00000 3.863802 6.053215 1.824586 
274 "U10" 87.79126 65.36965 65.35439 51.89430 46.66827 43.17352 
275 "E14" 83.35241 86.75517 9.341573 53.85890 66.31582 11.67011 
276 "O16" 82.14084 26.86046 33.80484 30.90911 19.30945 11.71994 
277 "P9" 26.73228 74.89433 100.0000 39.68491 46.24923 101.3875 
278 "T6" 67.61578 0.00000 100.0000 35.80643 16.87922 95.92252 
279 "AE13" 16.61097 9.623865 0.00000 2.294441 2.163874 1.156486 
280 "D5" 43.33715 76.93141 86.61173 39.91595 48.63659 75.79209 
281 "T16" 0.00000 75.37652 73.22805 28.56048 41.95136 53.86252 
282 "AL7" 68.70222 59.58648 59.30724 35.20325 34.47957 34.75330 
283 "K4" 82.66423 50.96056 46.45609 38.70067 31.78097 22.07277 
284 "AC19" 95.31395 30.12894 33.06935 41.82460 25.74671 11.99989 
285 "L18" 100.0000 68.11627 57.71267 61.98517 53.99384 35.42231 
286 "D17" 36.66743 22.56046 41.75479 9.594932 7.319348 15.39959 
287 "K8" 82.73442 96.75135 74.71733 69.69427 84.09433 61.96471 
288 "AK17" 87.42809 28.30091 9.436179 33.57966 21.20033 4.042428 
289 "AG10" 33.58206 51.85626 59.84131 18.62683 21.60440 33.72062 
290 "O2" 82.89158 89.72610 81.25429 66.56428 74.60266 70.33907 
291 "Q11" 75.80835 28.70527 100.0000 43.09504 24.15741 96.94354 
292 "N11" 43.54162 57.25948 33.90402 19.35439 25.37565 13.55308 
293 "AJ9" 100.0000 57.90951 31.87304 53.74445 43.50854 14.19032 
294 "B16" 71.13756 0.00000 36.07233 21.87158 11.54030 11.95889 
295 "R1" 36.67964 28.30396 17.02754 8.267870 8.118306 4.294939 
296 "J17" 16.61555 0.00000 0.00000 1.960470 1.495222 1.045006 
297 "J4" 42.36667 91.34661 69.18898 43.75988 64.93413 51.98675 
298 "AE15" 28.08423 23.57671 55.07591 9.942801 7.448764 26.51421 
299 "AD20" 0.00000 48.44129 64.57008 14.77053 17.82992 38.61175 
300 "AB10" 73.07240 69.24392 51.17876 40.63417 43.94767 28.29342 
301 "K6" 79.69635 38.33982 37.79507 31.85543 23.05130 14.68104 
302 "I8" 85.93729 70.20676 86.73381 58.87472 53.03819 75.85817 
303 "AG13" 39.18059 10.76219 11.02312 6.800583 4.557653 2.476062 
304 "O20" 38.59007 16.60487 0.00000 6.862054 5.257049 1.512991 
305 "Y20" 30.87816 35.95941 30.07095 9.249279 10.68609 9.330293 
306 "AC18" 57.80575 59.83215 52.25147 28.40198 31.27685 27.46348 
307 "AB5" 60.17548 72.78401 67.25719 38.71730 45.27741 45.96506 
308 "C5" 67.84619 82.25071 84.01160 52.86490 60.11845 72.83455 
309 "AA4" 100.0000 99.59411 0.00000 76.90957 92.20116 14.60646 
310 "T3" 61.65866 68.52064 100.0000 47.80758 45.51472 100.8179 
311 "G10" 43.76287 52.55512 68.50538 23.63828 24.31926 44.31557 
312 "F1" 0.00000 34.23972 59.30266 9.947714 10.01657 31.35746 
313 "X11" 53.95743 47.25719 60.00610 23.71485 22.01179 33.71165 
314 "K3" 44.91341 100.0000 100.0000 61.21493 82.52540 107.2559 
315 "I6" 86.69871 98.81743 96.85054 81.62498 91.79204 101.3971 
316 "F15" 23.87427 27.43420 83.40734 16.91579 11.04977 64.23629 
317 "Y13" 5.873198 57.78439 8.934157 11.72964 21.92591 5.265560 
318 "J6" 73.94827 94.58152 38.39170 55.04698 74.91519 23.83922 
319 "B14" 71.76165 47.83093 87.73175 40.50281 30.05225 74.16553 
320 "P12" 76.95125 59.21416 68.25666 42.12278 37.58800 45.57949 
321 "R10" 83.64233 15.64660 16.49042 29.41318 16.71194 4.710301 
322 "AF6" 38.09110 0.00000 42.10575 8.541370 4.582209 15.17033 
323 "D10" 24.19928 55.75036 39.33928 14.84257 22.12161 16.36685 
324 "D18" 37.70352 43.79339 90.54246 25.75640 20.57559 78.25664 
325 "AE3" 68.03235 85.18807 6.324865 42.88647 59.13229 10.50564 
326 "W10" 70.25864 28.20935 74.83024 31.02300 18.80405 51.56233 
327 "AJ13" 0.187686 16.20813 33.20363 3.412815 3.239715 9.748412 
328 "B5" 100.0000 86.41337 50.63706 71.19274 74.47968 32.09755 
329 "AA7" 61.57473 31.12993 50.63554 21.49607 15.26225 23.28305 
330 "AH20" 0.00000 86.50034 14.58610 26.82321 52.10542 11.25398 
331 "AD3" 62.97246 47.28923 25.37575 23.12448 22.27251 8.849484 
332 "S14" 42.20798 99.59564 0.00000 42.15831 74.28395 12.97820 
333 "M4" 24.40986 32.87556 74.40757 15.28219 11.94211 50.45552 
334 "G7" 54.28397 62.49943 0.494392 23.79227 31.06341 5.638590 
335 "AA6" 60.14801 100.0000 90.66758 63.79162 84.26593 88.78353 
336 "D15" 28.22614 2.447547 12.57649 3.970514 2.601206 2.510953 
337 "N18" 0.964370 26.32334 25.10262 3.941615 5.370858 6.493925 
338 "A14" 80.51575 65.79538 48.98299 43.49457 43.00215 26.05200 
339 "Z16" 90.95293 99.67346 38.39017 71.24523 89.12233 25.72775 
340 "Y19" 71.66094 24.78218 57.37545 27.20319 16.54134 29.67400 
341 "I2" 46.69566 0.991836 9.761196 8.741970 5.012159 2.271431 
342 "AE20" 38.24826 0.00000 19.43389 6.497648 3.769767 4.183864 
343 "AG18" 44.44953 74.41367 29.13710 27.19867 41.34399 13.87588 
344 "AC3" 35.15831 81.48013 46.90013 30.75161 49.01771 26.17172 
345 "I7" 87.65698 87.82635 63.61486 64.14554 71.95924 45.32376 
346 "AI17" 69.89395 89.74899 83.80255 58.91236 70.58928 74.18419 
347 "AC1" 73.09071 100.0000 0.00000 56.54511 82.18472 13.74556 
348 "F13" 59.12871 43.24407 90.51652 33.40016 24.29341 78.52430 
349 "M9" 49.25307 60.15106 70.23270 28.86531 31.26517 47.65770 
350 "O1" 0.645457 64.35645 98.61448 31.49590 34.25640 96.57638 
351 "K15" 64.66163 91.27489 64.55634 51.80872 69.13576 46.54762 
352 "D20" 88.41840 27.40520 83.40734 45.89987 25.98710 65.59308 
353 "N1" 58.58854 34.13748 70.19608 24.77829 17.34246 45.13724 
354 "Z4" 43.75067 17.41360 98.59159 25.77148 13.11639 92.75094 
355 "B12" 60.58900 36.43091 0.00000 18.15561 15.58397 2.911577 
356 "E11" 35.82055 65.14534 88.93874 32.52698 35.73960 77.86669 
357 "C19" 33.37453 38.59770 66.74754 16.28539 14.52446 40.56814 
358 "V18" 0.00000 11.18029 62.96635 7.754593 4.378506 34.48896 
359 "M14" 100.0000 45.31014 52.39338 52.19453 36.00608 27.25277 
360 "P20" 41.98825 32.05768 35.43145 11.82229 10.77276 11.97352 
361 "H17" 41.66018 22.05081 23.16930 9.106951 7.183610 5.875121 
362 "AI3" 49.06996 47.01152 23.59350 16.83902 18.92045 7.880958 
363 "D1" 22.63218 32.28504 35.63134 7.586298 8.650043 11.89972 
